;FLAVOR:Marlin
;TIME:2018
;Filament used: 0.995458m
;Layer height: 0.2
;MINX:103.208
;MINY:103.166
;MINZ:0.2
;MAXX:131.2
;MAXY:131.295
;MAXZ:19
;Generated with Cura_SteamEngine 4.6.1
M140 S60
M105
M190 S60
M104 S205
M105
M109 S205
M82 ;absolute extrusion mode
; Ender 3 Custom Start G-code
G92 E0 ; Reset Extruder
G28 ; Home all axes
G1 Z2.0 F3000 ; Move Z Axis up little to prevent scratching of Heat Bed
G1 X0.1 Y20 Z0.3 F5000.0 ; Move to start position
G1 X0.1 Y200.0 Z0.3 F1500.0 E15 ; Draw the first line
G1 X0.4 Y200.0 Z0.3 F5000.0 ; Move to side a little
G1 X0.4 Y20 Z0.3 F1500.0 E30 ; Draw the second line
G92 E0 ; Reset Extruder
G1 Z2.0 F3000 ; Move Z Axis up little to prevent scratching of Heat Bed
G1 X5 Y20 Z0.3 F5000.0 ; Move over to prevent blob squish
G92 E0
G92 E0
G1 F1500 E-6.5
;LAYER_COUNT:95
;LAYER:0
M107
;MESH:stepper_coupler_v1.stl
G0 F6000 X126.889 Y125.133 Z0.2
;TYPE:WALL-INNER
G1 F1500 E0
G1 F1200 X127.225 Y125.066 E0.0114
G1 X127.511 Y124.968 E0.02145
G1 X127.675 Y124.893 E0.02745
G1 X127.888 Y124.773 E0.03558
G1 X127.977 Y124.707 E0.03927
G1 X128.113 Y124.605 E0.04492
G1 X128.163 Y124.567 E0.04701
G1 X128.346 Y124.391 E0.05545
G1 X128.516 Y124.181 E0.06444
G1 X128.573 Y124.111 E0.06744
G1 X128.706 Y123.892 E0.07596
G1 X128.774 Y123.741 E0.08147
G1 X128.853 Y123.567 E0.08783
G1 X128.955 Y123.179 E0.10117
G1 X128.96 Y123.131 E0.10278
G1 X128.979 Y122.972 E0.1081
G1 X128.989 Y122.894 E0.11072
G1 X128.991 Y122.75 E0.11551
G1 X128.97 Y122.403 E0.12707
G1 X128.924 Y122.174 E0.13484
G1 X128.85 Y121.927 E0.14341
G1 X128.733 Y121.658 E0.15317
G1 X128.579 Y121.4 E0.16317
G1 X128.441 Y121.219 E0.17074
G1 X128.283 Y121.045 E0.17855
G1 X128.092 Y120.872 E0.18712
G1 X127.9 Y120.737 E0.19493
G1 X127.589 Y120.564 E0.20677
G1 X127.37 Y120.48 E0.21457
G1 X127.144 Y120.414 E0.2224
G1 X126.893 Y120.368 E0.23089
G1 X126.662 Y120.352 E0.23859
G1 X126.365 Y120.362 E0.24847
G1 X126.127 Y120.397 E0.25647
G1 X125.89 Y120.455 E0.26459
G1 X125.721 Y120.513 E0.27053
G1 X125.412 Y120.66 E0.28191
G1 X125.195 Y120.8 E0.2905
G1 X125.02 Y120.938 E0.29791
G1 X124.834 Y121.114 E0.30643
G1 X124.684 Y121.296 E0.31427
G1 X124.484 Y121.601 E0.32641
G1 X124.347 Y121.909 E0.33762
G1 X124.276 Y122.131 E0.34537
G1 X124.24 Y122.278 E0.3504
G1 X124.204 Y122.512 E0.35828
G1 X124.193 Y122.76 E0.36653
G1 X124.221 Y123.111 E0.37825
G1 X124.263 Y123.327 E0.38556
G1 X124.332 Y123.554 E0.39346
G1 X124.426 Y123.783 E0.40169
G1 X124.604 Y124.094 E0.41361
G1 X124.747 Y124.285 E0.42154
G1 X124.833 Y124.383 E0.42588
G1 X124.925 Y124.477 E0.43025
G1 X125.088 Y124.618 E0.43742
G1 X125.277 Y124.756 E0.44521
G1 X125.482 Y124.876 E0.45311
G1 X125.699 Y124.977 E0.46107
G1 X125.934 Y125.059 E0.46935
G1 X126.067 Y125.092 E0.4739
G1 X126.296 Y125.133 E0.48164
G1 X126.527 Y125.149 E0.48934
G1 X126.889 Y125.133 E0.50139
G0 F6000 X126.841 Y124.735
;TYPE:WALL-OUTER
G1 F1200 X127.12 Y124.679 E0.51086
G1 X127.362 Y124.596 E0.51937
G1 X127.493 Y124.536 E0.52416
G1 X127.669 Y124.437 E0.53088
G1 X127.904 Y124.261 E0.54064
G1 X128.051 Y124.12 E0.54742
G1 X128.245 Y123.88 E0.55768
G1 X128.352 Y123.705 E0.5645
G1 X128.475 Y123.433 E0.57443
G1 X128.561 Y123.105 E0.58571
G1 X128.589 Y122.867 E0.59368
G1 X128.591 Y122.759 E0.59727
G1 X128.572 Y122.455 E0.6074
G1 X128.535 Y122.27 E0.61368
G1 X128.474 Y122.065 E0.62079
G1 X128.376 Y121.841 E0.62893
G1 X128.247 Y121.624 E0.63732
G1 X128.134 Y121.476 E0.64352
G1 X128 Y121.329 E0.65013
G1 X127.841 Y121.185 E0.65727
G1 X127.687 Y121.076 E0.66354
G1 X127.419 Y120.927 E0.67374
G1 X127.242 Y120.859 E0.68005
G1 X127.052 Y120.804 E0.68663
G1 X126.842 Y120.765 E0.69373
G1 X126.655 Y120.752 E0.69996
G1 X126.401 Y120.761 E0.70842
G1 X126.204 Y120.79 E0.71504
G1 X126.003 Y120.839 E0.72192
G1 X125.872 Y120.884 E0.72653
G1 X125.607 Y121.01 E0.73629
G1 X125.428 Y121.126 E0.74338
G1 X125.282 Y121.241 E0.74956
G1 X125.127 Y121.388 E0.75667
G1 X125.006 Y121.534 E0.76298
G1 X124.836 Y121.793 E0.77328
G1 X124.721 Y122.052 E0.78271
G1 X124.661 Y122.239 E0.78924
G1 X124.633 Y122.355 E0.79321
G1 X124.603 Y122.551 E0.7998
G1 X124.594 Y122.753 E0.80653
G1 X124.618 Y123.057 E0.81667
G1 X124.652 Y123.231 E0.82257
G1 X124.709 Y123.42 E0.82913
G1 X124.786 Y123.607 E0.83586
G1 X124.939 Y123.874 E0.84609
G1 X125.058 Y124.033 E0.8527
G1 X125.126 Y124.111 E0.85614
G1 X125.199 Y124.185 E0.8596
G1 X125.337 Y124.305 E0.86568
G1 X125.497 Y124.421 E0.87225
G1 X125.668 Y124.522 E0.87886
G1 X125.849 Y124.606 E0.8855
G1 X126.049 Y124.675 E0.89253
G1 X126.151 Y124.701 E0.89603
G1 X126.345 Y124.735 E0.90258
G1 X126.532 Y124.748 E0.90882
G1 X126.841 Y124.735 E0.9191
G0 F6000 X126.893 Y125.171
G0 X128.059 Y124.444
G0 X128.564 Y123.817
G0 X129.191 Y122.943
G0 X129.621 Y121.997
G0 X130.176 Y120.051
G0 X130.416 Y118.05
G0 X130.366 Y116.211
G0 X130.027 Y114.3
G0 X129.418 Y112.489
G0 X129.182 Y112.047
G0 X128.205 Y113.968
G0 X126.889 Y114.633
;TYPE:WALL-INNER
G1 F1200 X127.225 Y114.566 E0.9305
G1 X127.511 Y114.468 E0.94056
G1 X127.675 Y114.393 E0.94655
G1 X127.883 Y114.276 E0.95449
G1 X128.088 Y114.128 E0.9629
G1 X128.253 Y113.984 E0.97018
G1 X128.351 Y113.883 E0.97487
G1 X128.572 Y113.612 E0.9865
G1 X128.706 Y113.392 E0.99506
G1 X128.853 Y113.067 E1.00693
G1 X128.955 Y112.679 E1.02027
G1 X128.989 Y112.394 E1.02982
G1 X128.991 Y112.25 E1.03461
G1 X128.98 Y112.072 E1.04054
G1 X128.97 Y111.903 E1.04617
G1 X128.956 Y111.831 E1.04861
G1 X128.924 Y111.674 E1.05394
G1 X128.85 Y111.427 E1.06251
G1 X128.812 Y111.338 E1.06573
G1 X128.733 Y111.158 E1.07227
G1 X128.579 Y110.9 E1.08226
G1 X128.473 Y110.761 E1.08808
G1 X128.441 Y110.719 E1.08983
G1 X128.282 Y110.544 E1.0977
G1 X128.103 Y110.385 E1.10566
G1 X127.977 Y110.294 E1.11083
G1 X127.904 Y110.24 E1.11385
G1 X127.589 Y110.064 E1.12585
G1 X127.37 Y109.98 E1.13365
G1 X127.144 Y109.914 E1.14149
G1 X126.893 Y109.868 E1.14997
G1 X126.662 Y109.852 E1.15767
G1 X126.365 Y109.862 E1.16756
G1 X126.127 Y109.897 E1.17556
G1 X125.89 Y109.955 E1.18367
G1 X125.721 Y110.013 E1.18962
G1 X125.412 Y110.16 E1.201
G1 X125.195 Y110.3 E1.20959
G1 X125.02 Y110.438 E1.217
G1 X124.834 Y110.614 E1.22552
G1 X124.684 Y110.796 E1.23336
G1 X124.484 Y111.101 E1.24549
G1 X124.347 Y111.409 E1.2567
G1 X124.276 Y111.631 E1.26446
G1 X124.24 Y111.778 E1.26949
G1 X124.204 Y112.012 E1.27736
G1 X124.193 Y112.26 E1.28562
G1 X124.221 Y112.611 E1.29733
G1 X124.263 Y112.827 E1.30465
G1 X124.332 Y113.054 E1.31254
G1 X124.426 Y113.283 E1.32078
G1 X124.604 Y113.594 E1.33269
G1 X124.747 Y113.785 E1.34063
G1 X124.833 Y113.883 E1.34497
G1 X124.925 Y113.977 E1.34934
G1 X125.088 Y114.118 E1.35651
G1 X125.277 Y114.256 E1.36429
G1 X125.482 Y114.376 E1.37219
G1 X125.699 Y114.477 E1.38015
G1 X125.934 Y114.559 E1.38843
G1 X126.067 Y114.592 E1.39299
G1 X126.296 Y114.633 E1.40073
G1 X126.527 Y114.649 E1.40843
G1 X126.889 Y114.633 E1.42048
G0 F6000 X126.841 Y114.235
;TYPE:WALL-OUTER
G1 F1200 X127.12 Y114.179 E1.42995
G1 X127.362 Y114.096 E1.43846
G1 X127.493 Y114.036 E1.44325
G1 X127.667 Y113.938 E1.44989
G1 X127.839 Y113.814 E1.45694
G1 X127.978 Y113.693 E1.46307
G1 X128.052 Y113.617 E1.4666
G1 X128.245 Y113.38 E1.47677
G1 X128.352 Y113.205 E1.48359
G1 X128.475 Y112.933 E1.49352
G1 X128.561 Y112.605 E1.50479
G1 X128.589 Y112.367 E1.51276
G1 X128.591 Y112.259 E1.51636
G1 X128.572 Y111.955 E1.52649
G1 X128.535 Y111.77 E1.53276
G1 X128.474 Y111.565 E1.53988
G1 X128.376 Y111.341 E1.54801
G1 X128.247 Y111.124 E1.55641
G1 X128.134 Y110.976 E1.5626
G1 X128 Y110.829 E1.56921
G1 X127.851 Y110.696 E1.57586
G1 X127.688 Y110.577 E1.58257
G1 X127.419 Y110.427 E1.59281
G1 X127.242 Y110.359 E1.59912
G1 X127.052 Y110.304 E1.6057
G1 X126.842 Y110.265 E1.6128
G1 X126.655 Y110.252 E1.61904
G1 X126.401 Y110.261 E1.62749
G1 X126.204 Y110.29 E1.63411
G1 X126.003 Y110.339 E1.641
G1 X125.872 Y110.384 E1.6456
G1 X125.607 Y110.51 E1.65536
G1 X125.428 Y110.626 E1.66246
G1 X125.282 Y110.741 E1.66864
G1 X125.127 Y110.888 E1.67574
G1 X125.006 Y111.034 E1.68205
G1 X124.836 Y111.293 E1.69235
G1 X124.721 Y111.552 E1.70178
G1 X124.661 Y111.739 E1.70831
G1 X124.633 Y111.855 E1.71228
G1 X124.603 Y112.051 E1.71888
G1 X124.594 Y112.253 E1.7256
G1 X124.618 Y112.557 E1.73574
G1 X124.652 Y112.731 E1.74164
G1 X124.709 Y112.92 E1.74821
G1 X124.786 Y113.107 E1.75493
G1 X124.939 Y113.374 E1.76517
G1 X125.058 Y113.533 E1.77177
G1 X125.126 Y113.611 E1.77521
G1 X125.199 Y113.685 E1.77867
G1 X125.337 Y113.805 E1.78475
G1 X125.497 Y113.921 E1.79133
G1 X125.668 Y114.022 E1.79793
G1 X125.849 Y114.106 E1.80457
G1 X126.049 Y114.175 E1.81161
G1 X126.151 Y114.201 E1.81511
G1 X126.345 Y114.235 E1.82166
G1 X126.532 Y114.248 E1.82789
G1 X126.841 Y114.235 E1.83818
G0 F6000 X126.893 Y114.671
G0 X125.557 Y114.234
G0 X124.95 Y113.774
G0 X124.052 Y112.634
G0 X124.909 Y110.309
G0 X127.425 Y109.818
G0 X128.058 Y110.106
G0 X127.392 Y109.174
G0 X126.03 Y107.785
G0 X124.533 Y106.65
G0 X122.775 Y105.695
G0 X120.98 Y105.048
G0 X119.092 Y104.669
G0 X118.624 Y104.654
G0 X120.059 Y106.743
G0 X119.274 Y108.588
G0 X117.663 Y109.394
;TYPE:WALL-INNER
G1 F1200 X117.897 Y109.366 E1.84602
G1 X118.083 Y109.327 E1.85234
G1 X118.247 Y109.281 E1.858
G1 X118.423 Y109.215 E1.86426
G1 X118.582 Y109.143 E1.87006
G1 X118.787 Y109.026 E1.87791
G1 X118.983 Y108.888 E1.88588
G1 X119.186 Y108.711 E1.89484
G1 X119.477 Y108.365 E1.90988
G1 X119.609 Y108.146 E1.91838
G1 X119.706 Y107.945 E1.92581
G1 X119.788 Y107.722 E1.93371
G1 X119.848 Y107.492 E1.94162
G1 X119.889 Y107.24 E1.95011
G1 X119.898 Y107.015 E1.9576
G1 X119.889 Y106.76 E1.96608
G1 X119.834 Y106.438 E1.97695
G1 X119.797 Y106.303 E1.9816
G1 X119.72 Y106.086 E1.98926
G1 X119.638 Y105.908 E1.99578
G1 X119.524 Y105.709 E2.00341
G1 X119.439 Y105.586 E2.00838
G1 X119.272 Y105.381 E2.01718
G1 X119.102 Y105.213 E2.02512
G1 X118.904 Y105.052 E2.03361
G1 X118.712 Y104.928 E2.04121
G1 X118.547 Y104.842 E2.0474
G1 X118.483 Y104.809 E2.0498
G1 X118.374 Y104.77 E2.05365
G1 X118.156 Y104.69 E2.06137
G1 X117.929 Y104.64 E2.0691
G1 X117.783 Y104.621 E2.074
G1 X117.707 Y104.611 E2.07655
G1 X117.571 Y104.602 E2.08108
G1 X117.337 Y104.606 E2.08887
G1 X117.195 Y104.623 E2.09362
G1 X117.103 Y104.634 E2.09671
G1 X116.916 Y104.674 E2.10307
G1 X116.722 Y104.729 E2.10977
G1 X116.51 Y104.813 E2.11736
G1 X116.443 Y104.848 E2.11987
G1 X116.302 Y104.922 E2.12517
G1 X116.105 Y105.045 E2.13289
G1 X116.008 Y105.12 E2.13697
G1 X115.814 Y105.289 E2.14553
G1 X115.518 Y105.641 E2.16082
G1 X115.352 Y105.932 E2.17197
G1 X115.292 Y106.059 E2.17664
G1 X115.207 Y106.294 E2.18495
G1 X115.152 Y106.508 E2.1923
G1 X115.111 Y106.759 E2.20076
G1 X115.101 Y107 E2.20878
G1 X115.111 Y107.239 E2.21674
G1 X115.148 Y107.473 E2.22462
G1 X115.2 Y107.689 E2.23201
G1 X115.28 Y107.914 E2.23995
G1 X115.362 Y108.093 E2.2465
G1 X115.478 Y108.293 E2.25419
G1 X115.579 Y108.439 E2.26009
G1 X115.73 Y108.621 E2.26796
G1 X115.898 Y108.787 E2.27581
G1 X116.096 Y108.948 E2.2843
G1 X116.288 Y109.071 E2.29188
G1 X116.512 Y109.189 E2.30031
G1 X116.717 Y109.268 E2.30761
G1 X116.855 Y109.311 E2.31242
G1 X117.07 Y109.36 E2.31975
G1 X117.293 Y109.389 E2.32723
G1 X117.429 Y109.398 E2.33177
G1 X117.663 Y109.394 E2.33955
G0 F6000 X117.636 Y108.994
;TYPE:WALL-OUTER
G1 F1200 X117.832 Y108.971 E2.34611
G1 X117.987 Y108.938 E2.35139
G1 X118.123 Y108.9 E2.35608
G1 X118.27 Y108.845 E2.3613
G1 X118.4 Y108.786 E2.36605
G1 X118.573 Y108.688 E2.37266
G1 X118.736 Y108.573 E2.3793
G1 X118.9 Y108.43 E2.38654
G1 X119.151 Y108.131 E2.39952
G1 X119.257 Y107.956 E2.40632
G1 X119.337 Y107.789 E2.41248
G1 X119.406 Y107.602 E2.41911
G1 X119.456 Y107.41 E2.42571
G1 X119.49 Y107.199 E2.43282
G1 X119.498 Y107.014 E2.43898
G1 X119.49 Y106.801 E2.44607
G1 X119.443 Y106.525 E2.45538
G1 X119.415 Y106.423 E2.4589
G1 X119.349 Y106.237 E2.46546
G1 X119.282 Y106.091 E2.47081
G1 X119.185 Y105.922 E2.47729
G1 X119.119 Y105.826 E2.48116
G1 X118.976 Y105.651 E2.48868
G1 X118.834 Y105.511 E2.49531
G1 X118.669 Y105.376 E2.5024
G1 X118.511 Y105.275 E2.50864
G1 X118.321 Y105.176 E2.51576
G1 X118.044 Y105.075 E2.52557
G1 X117.86 Y105.034 E2.53184
G1 X117.668 Y105.009 E2.53828
G1 X117.562 Y105.002 E2.54181
G1 X117.364 Y105.006 E2.5484
G1 X117.168 Y105.029 E2.55496
G1 X117.012 Y105.062 E2.56027
G1 X116.851 Y105.108 E2.56584
G1 X116.677 Y105.177 E2.57206
G1 X116.501 Y105.269 E2.57867
G1 X116.334 Y105.374 E2.58523
G1 X116.261 Y105.43 E2.58829
G1 X116.1 Y105.57 E2.59539
G1 X115.847 Y105.871 E2.60846
G1 X115.707 Y106.116 E2.61785
G1 X115.662 Y106.212 E2.62138
G1 X115.59 Y106.412 E2.62845
G1 X115.544 Y106.59 E2.63456
G1 X115.51 Y106.8 E2.64164
G1 X115.501 Y107 E2.64829
G1 X115.51 Y107.199 E2.65492
G1 X115.541 Y107.395 E2.66152
G1 X115.584 Y107.575 E2.66768
G1 X115.651 Y107.763 E2.67431
G1 X115.718 Y107.909 E2.67966
G1 X115.816 Y108.079 E2.68618
G1 X115.898 Y108.197 E2.69096
G1 X116.025 Y108.35 E2.69758
G1 X116.166 Y108.489 E2.70416
G1 X116.331 Y108.624 E2.71125
G1 X116.489 Y108.725 E2.71749
G1 X116.677 Y108.824 E2.72456
G1 X116.849 Y108.89 E2.73068
G1 X116.96 Y108.925 E2.73455
G1 X117.14 Y108.966 E2.74069
G1 X117.332 Y108.991 E2.74713
G1 X117.438 Y108.998 E2.75067
G1 X117.636 Y108.994 E2.75725
G0 F6000 X117.666 Y109.432
G0 X115.604 Y108.736
G0 X115.044 Y106.243
G0 X116.372 Y104.657
G0 X115.243 Y104.768
G0 X113.391 Y105.24
G0 X111.602 Y105.994
G0 X109.952 Y107.001
G0 X108.472 Y108.245
G0 X107.192 Y109.692
G0 X106.937 Y110.102
G0 X109.458 Y109.902
G0 X110.966 Y112.002
G0 X110.698 Y113.447
G0 X109.974 Y113.9
G0 X108.634 Y114.638
;TYPE:WALL-INNER
G1 F1200 X108.868 Y114.605 E2.76511
G1 X108.994 Y114.576 E2.76941
G1 X109.154 Y114.531 E2.77494
G1 X109.33 Y114.465 E2.78119
G1 X109.496 Y114.389 E2.78727
G1 X109.801 Y114.205 E2.79911
G1 X109.982 Y114.061 E2.80681
G1 X110.171 Y113.88 E2.81551
G1 X110.386 Y113.609 E2.82702
G1 X110.516 Y113.397 E2.83529
G1 X110.612 Y113.195 E2.84273
G1 X110.695 Y112.975 E2.85055
G1 X110.759 Y112.729 E2.859
G1 X110.796 Y112.486 E2.86718
G1 X110.805 Y112.265 E2.87453
G1 X110.796 Y112.018 E2.88275
G1 X110.77 Y111.841 E2.8887
G1 X110.739 Y111.681 E2.89412
G1 X110.704 Y111.552 E2.89857
G1 X110.625 Y111.332 E2.90635
G1 X110.516 Y111.103 E2.91478
G1 X110.39 Y110.898 E2.92278
G1 X110.253 Y110.715 E2.93039
G1 X110.162 Y110.611 E2.93498
G1 X110.005 Y110.46 E2.94223
G1 X109.81 Y110.302 E2.95058
G1 X109.62 Y110.179 E2.9581
G1 X109.389 Y110.059 E2.96676
G1 X109.057 Y109.938 E2.97851
G1 X108.711 Y109.868 E2.99026
G1 X108.473 Y109.851 E2.99819
G1 X108.111 Y109.867 E3.01024
G1 X107.782 Y109.932 E3.0214
G1 X107.545 Y110.008 E3.02968
G1 X107.332 Y110.104 E3.03745
G1 X107.216 Y110.166 E3.04182
G1 X107.061 Y110.264 E3.04792
G1 X107.019 Y110.29 E3.04956
G1 X106.963 Y110.334 E3.05193
G1 X106.829 Y110.442 E3.05766
G1 X106.651 Y110.616 E3.06594
G1 X106.513 Y110.776 E3.07296
G1 X106.504 Y110.786 E3.07341
G1 X106.372 Y110.978 E3.08116
G1 X106.297 Y111.106 E3.08609
G1 X106.203 Y111.3 E3.09326
G1 X106.193 Y111.327 E3.09422
G1 X106.111 Y111.545 E3.10197
G1 X106.06 Y111.753 E3.10909
G1 X106.038 Y111.874 E3.11318
G1 X106.033 Y111.898 E3.114
G1 X106.017 Y112.066 E3.11961
G1 X106.01 Y112.133 E3.12185
G1 X106.01 Y112.354 E3.1292
G1 X106.033 Y112.605 E3.13758
G1 X106.081 Y112.839 E3.14553
G1 X106.149 Y113.072 E3.1536
G1 X106.267 Y113.342 E3.1634
G1 X106.421 Y113.601 E3.17343
G1 X106.554 Y113.774 E3.18068
G1 X106.641 Y113.874 E3.18509
G1 X106.8 Y114.032 E3.19255
G1 X106.915 Y114.13 E3.19757
G1 X107.085 Y114.252 E3.20453
G1 X107.196 Y114.322 E3.2089
G1 X107.417 Y114.439 E3.21721
G1 X107.631 Y114.521 E3.22484
G1 X107.87 Y114.589 E3.2331
G1 X108.108 Y114.632 E3.24114
G1 X108.338 Y114.648 E3.24881
G1 X108.634 Y114.638 E3.25866
G0 F6000 X108.599 Y114.239
;TYPE:WALL-OUTER
G1 F1200 X108.795 Y114.211 E3.26525
G1 X108.895 Y114.188 E3.26866
G1 X109.03 Y114.15 E3.27333
G1 X109.177 Y114.095 E3.27855
G1 X109.309 Y114.035 E3.28337
G1 X109.572 Y113.876 E3.29359
G1 X109.719 Y113.759 E3.29984
G1 X109.875 Y113.61 E3.30701
G1 X110.058 Y113.379 E3.31682
G1 X110.164 Y113.206 E3.32356
G1 X110.243 Y113.039 E3.32971
G1 X110.313 Y112.853 E3.33632
G1 X110.367 Y112.648 E3.34337
G1 X110.397 Y112.448 E3.3501
G1 X110.405 Y112.264 E3.35622
G1 X110.397 Y112.054 E3.36321
