;FLAVOR:Marlin
;TIME:6297
;Filament used: 3.67226m
;Layer height: 0.2
;MINX:92.835
;MINY:91.336
;MINZ:0.2
;MAXX:142.165
;MAXY:143.665
;MAXZ:15.4
;Generated with Cura_SteamEngine 4.6.1
M140 S60
M105
M190 S60
M104 S205
M105
M109 S205
M82 ;absolute extrusion mode
; Ender 3 Custom Start G-code
G92 E0 ; Reset Extruder
G28 ; Home all axes
G1 Z2.0 F3000 ; Move Z Axis up little to prevent scratching of Heat Bed
G1 X0.1 Y20 Z0.3 F5000.0 ; Move to start position
G1 X0.1 Y200.0 Z0.3 F1500.0 E15 ; Draw the first line
G1 X0.4 Y200.0 Z0.3 F5000.0 ; Move to side a little
G1 X0.4 Y20 Z0.3 F1500.0 E30 ; Draw the second line
G92 E0 ; Reset Extruder
G1 Z2.0 F3000 ; Move Z Axis up little to prevent scratching of Heat Bed
G1 X5 Y20 Z0.3 F5000.0 ; Move over to prevent blob squish
G92 E0
G92 E0
G1 F1500 E-6.5
;LAYER_COUNT:77
;LAYER:0
M107
G0 F6000 X112.9 Y131.9 Z0.2
;TYPE:SKIRT
G1 F1500 E0
G1 F1200 X113.1 Y131.9 E0.00665
G1 X113.1 Y136.1 E0.14634
G1 X112.9 Y136.1 E0.153
G1 X112.9 Y131.9 E0.29269
G0 F6000 X112.5 Y131.5
G1 F1200 X113.5 Y131.5 E0.32595
G1 X113.5 Y136.5 E0.49225
G1 X112.5 Y136.5 E0.52551
G1 X112.5 Y131.5 E0.69181
G0 F6000 X112.1 Y131.1
G1 F1200 X113.9 Y131.1 E0.75168
G1 X113.9 Y136.9 E0.94459
G1 X112.1 Y136.9 E1.00446
G1 X112.1 Y131.1 E1.19736
G0 F6000 X111.7 Y130.7
G1 F1200 X114.3 Y130.7 E1.28384
G1 X114.3 Y137.3 E1.50336
G1 X111.7 Y137.3 E1.58983
G1 X111.7 Y130.7 E1.80935
G0 F6000 X111.3 Y130.3
G1 F1200 X114.7 Y130.3 E1.92244
G1 X114.7 Y137.7 E2.16856
G1 X111.3 Y137.7 E2.28165
G1 X111.3 Y130.3 E2.52777
G0 F6000 X110.9 Y129.9
G1 F1200 X115.1 Y129.9 E2.66746
G1 X115.1 Y138.1 E2.9402
G1 X110.9 Y138.1 E3.07989
G1 X110.9 Y129.9 E3.35262
G0 F6000 X110.5 Y129.5
G1 F1200 X115.5 Y129.5 E3.51892
G1 X115.5 Y138.5 E3.81826
G1 X110.5 Y138.5 E3.98456
G1 X110.5 Y129.5 E4.28391
G0 F6000 X119.5 Y129.5
G1 F1200 X124.5 Y129.5 E4.45021
G1 X124.5 Y138.5 E4.74955
G1 X119.5 Y138.5 E4.91585
G1 X119.5 Y129.5 E5.21519
G0 F6000 X119.9 Y129.9
G1 F1200 X124.1 Y129.9 E5.35488
G1 X124.1 Y138.1 E5.62761
G1 X119.9 Y138.1 E5.76731
G1 X119.9 Y129.9 E6.04004
G0 F6000 X120.3 Y130.3
G1 F1200 X123.7 Y130.3 E6.15312
G1 X123.7 Y137.7 E6.39925
G1 X120.3 Y137.7 E6.51233
G1 X120.3 Y130.3 E6.75846
G0 F6000 X120.7 Y130.7
G1 F1200 X123.3 Y130.7 E6.84494
G1 X123.3 Y137.3 E7.06445
G1 X120.7 Y137.3 E7.15093
G1 X120.7 Y130.7 E7.37045
G0 F6000 X121.1 Y131.1
G1 F1200 X122.9 Y131.1 E7.43031
G1 X122.9 Y136.9 E7.62322
G1 X121.1 Y136.9 E7.68309
G1 X121.1 Y131.1 E7.876
G0 F6000 X121.5 Y131.5
G1 F1200 X122.5 Y131.5 E7.90926
G1 X122.5 Y136.5 E8.07556
G1 X121.5 Y136.5 E8.10882
G1 X121.5 Y131.5 E8.27512
G0 F6000 X121.9 Y131.9
G1 F1200 X122.1 Y131.9 E8.28177
G1 X122.1 Y136.1 E8.42147
G1 X121.9 Y136.1 E8.42812
G1 X121.9 Y131.9 E8.56781
G1 F1500 E2.06781
G0 F6000 X132.5 Y102.5
G1 F1500 E8.56781
G1 F1200 X132.5 Y99.5 E8.66759
G1 X136.196 Y99.5 E8.79052
G1 X136.196 Y102.5 E8.8903
G1 X132.5 Y102.5 E9.01323
G0 F6000 X132.9 Y102.1
G1 F1200 X132.9 Y99.9 E9.0864
G1 X135.796 Y99.9 E9.18272
G1 X135.796 Y102.1 E9.2559
G1 X132.9 Y102.1 E9.35222
G0 F6000 X133.3 Y101.7
G1 F1200 X133.3 Y100.3 E9.39878
G1 X135.396 Y100.3 E9.4685
G1 X135.396 Y101.7 E9.51506
G1 X133.3 Y101.7 E9.58477
G0 F6000 X133.7 Y101.3
G1 F1200 X133.7 Y100.7 E9.60473
G1 X134.996 Y100.7 E9.64783
G1 X134.996 Y101.3 E9.66779
G1 X133.7 Y101.3 E9.7109
G1 F1500 E3.2109
G0 F6000 X102.5 Y102.5
G1 F1500 E9.7109
G1 F1200 X98.803 Y102.5 E9.83386
G1 X98.807 Y99.5 E9.93364
G1 X102.5 Y99.5 E10.05647
G1 X102.5 Y102.5 E10.15625
G0 F6000 X102.1 Y102.1
G1 F1200 X99.204 Y102.1 E10.25257
G1 X99.206 Y99.9 E10.32574
G1 X102.1 Y99.9 E10.422
G1 X102.1 Y102.1 E10.49517
G0 F6000 X101.7 Y101.7
G1 F1200 X99.604 Y101.7 E10.56488
G1 X99.606 Y100.3 E10.61145
G1 X101.7 Y100.3 E10.68109
G1 X101.7 Y101.7 E10.72766
G0 F6000 X101.3 Y101.3
G1 F1200 X100.005 Y101.3 E10.77073
G1 X100.005 Y100.7 E10.79069
G1 X101.3 Y100.7 E10.83376
G1 X101.3 Y101.3 E10.85371
G1 F1500 E4.35371
;MESH:MAKITA_TERMINAL_v005.STL
G0 F6000 X103.9 Y101.3
G0 X104.1 Y104.1
;TYPE:WALL-INNER
G1 F1500 E10.85371
G1 F1200 X104.1 Y97.9 E11.05993
G1 X96.9 Y97.9 E11.2994
G1 X96.9 Y104.1 E11.50561
G1 X104.1 Y104.1 E11.74509
G0 F6000 X103.7 Y103.7
;TYPE:WALL-OUTER
G1 F1200 X103.7 Y98.3 E11.92469
G1 X97.3 Y98.3 E12.13755
G1 X97.3 Y103.7 E12.31716
G1 X103.7 Y103.7 E12.53002
G1 F1500 E6.03002
G0 F6000 X104 Y103.7
G0 X104.29 Y104.1
G0 X102.847 Y102.847
G0 X132.153 Y102.847
G0 X130.71 Y104.1
G0 X130.9 Y104.1
;TYPE:WALL-INNER
G1 F1500 E12.53002
G1 F1200 X138.1 Y104.1 E12.7695
G1 X138.1 Y97.9 E12.97571
G1 X130.9 Y97.9 E13.21518
G1 X130.9 Y104.1 E13.4214
G0 F6000 X131.3 Y103.7
;TYPE:WALL-OUTER
G1 F1200 X137.7 Y103.7 E13.63426
G1 X137.7 Y98.3 E13.81387
G1 X131.3 Y98.3 E14.02673
G1 X131.3 Y103.7 E14.20634
G1 F1500 E7.70634
G0 F6000 X131 Y103.7
G0 X130.73 Y102.173
G0 X132.165 Y102.173
G0 X121.964 Y129.165
G0 X121.964 Y127.73
G0 X118.072 Y128.072
G0 X117.9 Y140.1
;TYPE:WALL-INNER
G1 F1500 E14.20634
G1 F1200 X126.1 Y140.1 E14.47907
G1 X126.1 Y127.9 E14.88484
G1 X117.9 Y127.9 E15.15757
G1 X117.9 Y140.1 E15.56335
G0 F6000 X118.3 Y139.7
;TYPE:WALL-OUTER
G1 F1200 X125.7 Y139.7 E15.80947
G1 X125.7 Y128.3 E16.18864
G1 X118.3 Y128.3 E16.43476
G1 X118.3 Y139.7 E16.81393
G0 F6000 X118 Y139.7
G0 X117.71 Y140.1
G0 X117.29 Y140.1
G0 X117.1 Y140.1
;TYPE:WALL-INNER
G1 F1200 X117.1 Y127.9 E17.2197
G1 X108.9 Y127.9 E17.49244
G1 X108.9 Y140.1 E17.89821
G1 X117.1 Y140.1 E18.17094
G0 F6000 X116.7 Y139.7
;TYPE:WALL-OUTER
G1 F1200 X116.7 Y128.3 E18.55011
G1 X109.3 Y128.3 E18.79623
G1 X109.3 Y139.7 E19.1754
G1 X116.7 Y139.7 E19.42152
G1 F1500 E12.92152
G0 F6000 X117 Y139.7
G0 X117.296 Y140.296
G0 X117.296 Y141.641
G0 X128.35 Y141.85
;TYPE:WALL-INNER
G1 F1500 E19.42152
G1 F1200 X106.65 Y141.851 E20.14327
G1 X106.649 Y129.851 E20.54239
G1 X94.65 Y129.85 E20.94148
G1 X94.649 Y94.65 E22.11224
G1 X113.649 Y94.649 E22.74418
G1 X113.65 Y93.15 E22.79404
G1 X121.35 Y93.149 E23.05014
G1 X121.351 Y94.649 E23.10003
G1 X140.35 Y94.65 E23.73194
G1 X140.35 Y129.85 E24.90269
G1 X128.351 Y129.851 E25.30178
G1 X128.35 Y141.85 E25.70087
G0 F6000 X128.634 Y142.21
;TYPE:WALL-OUTER
G1 F1200 X128.577 Y142.236 E25.70296
G1 X128.502 Y142.25 E25.70549
G1 X106.516 Y142.251 E26.43675
G1 X106.449 Y142.243 E26.43899
G1 X106.384 Y142.22 E26.44129
G1 X106.333 Y142.184 E26.44336
G1 X106.29 Y142.134 E26.44556
G1 X106.263 Y142.076 E26.44769
G1 X106.25 Y142 E26.45025
G1 X106.249 Y130.251 E26.84102
G1 X94.513 Y130.25 E27.23136
G1 X94.449 Y130.243 E27.23351
G1 X94.384 Y130.22 E27.2358
G1 X94.333 Y130.184 E27.23787
G1 X94.29 Y130.134 E27.24007
G1 X94.263 Y130.076 E27.2422
G1 X94.25 Y130 E27.24476
G1 X94.249 Y94.515 E28.425
G1 X94.257 Y94.448 E28.42724
G1 X94.28 Y94.384 E28.4295
G1 X94.318 Y94.331 E28.43167
G1 X94.366 Y94.29 E28.43377
G1 X94.423 Y94.264 E28.43586
G1 X94.498 Y94.25 E28.43839
G1 X113.249 Y94.249 E29.06205
G1 X113.25 Y93.013 E29.10316
G1 X113.257 Y92.948 E29.10534
G1 X113.28 Y92.884 E29.1076
G1 X113.318 Y92.831 E29.10977
G1 X113.366 Y92.79 E29.11187
G1 X113.423 Y92.764 E29.11395
G1 X113.498 Y92.75 E29.11649
G1 X121.484 Y92.749 E29.3821
G1 X121.551 Y92.757 E29.38435
G1 X121.616 Y92.78 E29.38664
G1 X121.667 Y92.816 E29.38872
G1 X121.71 Y92.866 E29.39091
G1 X121.736 Y92.923 E29.393
G1 X121.75 Y92.999 E29.39557
G1 X121.751 Y94.249 E29.43714
G1 X140.487 Y94.25 E30.0603
G1 X140.551 Y94.257 E30.06244
G1 X140.616 Y94.28 E30.06474
G1 X140.667 Y94.316 E30.06681
G1 X140.71 Y94.366 E30.06901
G1 X140.736 Y94.423 E30.07109
G1 X140.75 Y94.498 E30.07363
G1 X140.75 Y129.985 E31.25393
G1 X140.743 Y130.051 E31.25614
G1 X140.721 Y130.114 E31.25836
G1 X140.684 Y130.167 E31.26051
G1 X140.634 Y130.21 E31.2627
G1 X140.577 Y130.236 E31.26479
G1 X140.502 Y130.25 E31.26732
G1 X128.751 Y130.251 E31.65816
G1 X128.75 Y141.985 E32.04844
G1 X128.743 Y142.051 E32.05064
G1 X128.721 Y142.114 E32.05286
G1 X128.684 Y142.167 E32.05501
G1 X128.634 Y142.21 E32.05721
G0 F6000 X128.311 Y141.84
G0 X127.96 Y141.46
;TYPE:SKIN
G1 F1200 X107.04 Y141.461 E32.75301
G1 X107.039 Y129.461 E33.15213
G1 X95.04 Y129.46 E33.55122
G1 X95.039 Y95.04 E34.69603
G1 X114.039 Y95.039 E35.32798
G1 X114.04 Y93.54 E35.37783
G1 X120.96 Y93.539 E35.60799
G1 X120.961 Y95.039 E35.65788
G1 X139.96 Y95.04 E36.28979
G1 X139.96 Y129.46 E37.43461
G1 X127.961 Y129.461 E37.83369
G1 X127.96 Y141.46 E38.23278
G1 F1500 E31.73278
G0 F6000 X128.24 Y141.461
G0 X128.16 Y140.242
G0 X126.29 Y140.242
G0 X126.21 Y140.24
G0 X126.49 Y140.49
G1 F1500 E38.23278
G1 F1200 X126.49 Y127.51 E38.6645
G1 X117.51 Y127.51 E38.96318
G1 X117.51 Y140.49 E39.39489
G1 X126.49 Y140.49 E39.69357
G1 F1500 E33.19357
G0 F6000 X126.21 Y140.24
G0 X117.71 Y140.24
G0 X117.29 Y140.24
G0 X117.21 Y140.24
G0 X117.49 Y140.49
G1 F1500 E39.69357
G1 F1200 X117.49 Y127.51 E40.12528
G1 X108.51 Y127.51 E40.42396
G1 X108.51 Y140.49 E40.85568
G1 X117.49 Y140.49 E41.15435
G1 F1500 E34.65435
G0 F6000 X117.21 Y140.24
G0 X117.27 Y136.238
G0 X115.835 Y136.238
G0 X102.173 Y102.835
G0 X102.173 Y104.27
G0 X104.21 Y104.24
G0 X104.49 Y104.49
G1 F1500 E41.15435
G1 F1200 X104.49 Y97.51 E41.38651
G1 X96.51 Y97.51 E41.65192
G1 X96.51 Y104.49 E41.88408
G1 X104.49 Y104.49 E42.1495
G1 F1500 E35.6495
G0 F6000 X104.21 Y104.24
G0 X104.29 Y104.24
G0 X102.847 Y102.847
G0 X132.153 Y102.847
G0 X130.71 Y104.24
G0 X130.79 Y104.24
G0 X130.51 Y104.49
G1 F1500 E42.1495
G1 F1200 X138.49 Y104.49 E42.41491
G1 X138.49 Y97.51 E42.64707
G1 X130.51 Y97.51 E42.91248
G1 X130.51 Y104.49 E43.14464
G1 F1500 E36.64464
G0 F6000 X130.79 Y104.24
G0 X137.928 Y103.928
G0 X138.296 Y97.704
G0 X140.14 Y97.704
G0 X140.24 Y95.675
G0 X139.799 Y95.675
G1 F1500 E43.14464
G1 F1200 X139.324 Y95.2 E43.16698
G0 F6000 X138.758 Y95.2
G1 F1200 X139.799 Y96.241 E43.21595
G0 F6000 X139.799 Y96.807
G1 F1200 X138.192 Y95.2 E43.29154
G0 F6000 X137.627 Y95.2
G1 F1200 X139.799 Y97.372 E43.3937
G0 F6000 X139.799 Y97.938
G1 F1200 X137.061 Y95.2 E43.52249
G0 F6000 X136.495 Y95.2
G1 F1200 X138.645 Y97.35 E43.62362
G0 F6000 X138.649 Y97.354
G1 F1200 X139.799 Y98.504 E43.67771
G0 F6000 X139.799 Y99.069
G1 F1200 X138.649 Y97.92 E43.73178
G0 F6000 X138.649 Y98.485
G1 F1200 X139.799 Y99.635 E43.78587
G0 F6000 X139.799 Y100.201
G1 F1200 X138.649 Y99.051 E43.83996
G0 F6000 X138.649 Y99.617
G1 F1200 X139.799 Y100.766 E43.89403
G0 F6000 X139.799 Y101.332
G1 F1200 X138.649 Y100.182 E43.94812
G0 F6000 X138.649 Y100.748
G1 F1200 X139.799 Y101.898 E44.00222
G0 F6000 X139.799 Y102.464
G1 F1200 X138.649 Y101.314 E44.05631
G0 F6000 X138.649 Y101.879
G1 F1200 X139.799 Y103.029 E44.1104
G0 F6000 X139.799 Y103.595
G1 F1200 X138.649 Y102.445 E44.16449
G0 F6000 X138.649 Y103.011
G1 F1200 X139.799 Y104.161 E44.21859
G0 F6000 X139.799 Y104.726
G1 F1200 X138.649 Y103.577 E44.27266
G0 F6000 X138.649 Y104.142
G1 F1200 X139.799 Y105.292 E44.32675
G0 F6000 X139.799 Y105.858
G1 F1200 X138.591 Y104.65 E44.38357
G0 F6000 X138.025 Y104.65
G1 F1200 X139.799 Y106.423 E44.46699
G0 F6000 X139.799 Y106.989
G1 F1200 X137.46 Y104.65 E44.57701
G0 F6000 X136.894 Y104.65
G1 F1200 X139.799 Y107.555 E44.71365
G0 F6000 X139.799 Y108.12
G1 F1200 X136.328 Y104.65 E44.87689
G0 F6000 X135.763 Y104.65
G1 F1200 X139.799 Y108.686 E45.06673
G0 F6000 X139.799 Y109.252
G1 F1200 X135.197 Y104.65 E45.2832
G0 F6000 X134.631 Y104.65
G1 F1200 X139.799 Y109.817 E45.52626
G0 F6000 X139.799 Y110.383
G1 F1200 X134.066 Y104.65 E45.79592
G0 F6000 X133.5 Y104.65
G1 F1200 X139.799 Y110.949 E46.09221
G0 F6000 X139.799 Y111.514
G1 F1200 X132.934 Y104.65 E46.41509
G0 F6000 X132.368 Y104.65
G1 F1200 X139.799 Y112.08 E46.7646
G0 F6000 X139.799 Y112.646
G1 F1200 X131.803 Y104.65 E47.14071
G0 F6000 X131.237 Y104.65
G1 F1200 X139.799 Y113.212 E47.54344
G0 F6000 X139.799 Y113.777
G1 F1200 X130.671 Y104.65 E47.97277
G0 F6000 X130.349 Y104.327
G1 F1200 X121.221 Y95.199 E48.40212
G0 F6000 X121.787 Y95.199
G1 F1200 X130.349 Y103.762 E48.80488
G0 F6000 X130.349 Y103.196
G1 F1200 X122.352 Y95.199 E49.18103
G0 F6000 X122.918 Y95.199
G1 F1200 X130.349 Y102.63 E49.53056
G0 F6000 X130.349 Y102.065
G1 F1200 X123.484 Y95.199 E49.85349
G0 F6000 X124.049 Y95.199
G1 F1200 X130.349 Y101.499 E50.14983
G0 F6000 X130.349 Y100.933
G1 F1200 X124.615 Y95.199 E50.41954
G0 F6000 X125.181 Y95.199
G1 F1200 X130.349 Y100.368 E50.66265
G0 F6000 X130.349 Y99.802
G1 F1200 X125.746 Y95.199 E50.87916
G0 F6000 X126.312 Y95.199
G1 F1200 X130.349 Y99.236 E51.06905
G0 F6000 X130.349 Y98.671
G1 F1200 X126.878 Y95.199 E51.23233
G0 F6000 X127.443 Y95.199
G1 F1200 X130.349 Y98.105 E51.36902
G0 F6000 X130.349 Y97.539
G1 F1200 X128.009 Y95.199 E51.47909
G0 F6000 X128.575 Y95.199
G1 F1200 X130.725 Y97.35 E51.58024
G0 F6000 X131.291 Y97.35
G1 F1200 X129.141 Y95.199 E51.6814
G0 F6000 X129.706 Y95.199
G1 F1200 X131.857 Y97.35 E51.78257
G0 F6000 X132.422 Y97.35
G1 F1200 X130.272 Y95.199 E51.88373
G0 F6000 X130.838 Y95.2
G1 F1200 X132.988 Y97.35 E51.98486
G0 F6000 X133.554 Y97.35
G1 F1200 X131.404 Y95.2 E52.08598
G0 F6000 X131.97 Y95.2
G1 F1200 X134.119 Y97.35 E52.18709
G0 F6000 X134.685 Y97.35
G1 F1200 X132.535 Y95.2 E52.28822
G0 F6000 X133.101 Y95.2
G1 F1200 X135.251 Y97.35 E52.38935
G0 F6000 X135.816 Y97.35
G1 F1200 X133.667 Y95.2 E52.49046
G0 F6000 X134.232 Y95.2
G1 F1200 X136.382 Y97.35 E52.59158
G0 F6000 X136.948 Y97.35
G1 F1200 X134.798 Y95.2 E52.69271
G0 F6000 X135.364 Y95.2
G1 F1200 X137.513 Y97.35 E52.79382
G0 F6000 X138.079 Y97.35
G1 F1200 X135.929 Y95.2 E52.89495
G0 F6000 X135.93 Y94.76
G0 X121.241 Y94.779
G0 X120.8 Y94.779
G1 F1200 X119.72 Y93.699 E52.94575
G0 F6000 X119.155 Y93.699
G1 F1200 X139.799 Y114.343 E53.91678
G0 F6000 X139.799 Y114.909
G1 F1200 X118.589 Y93.699 E54.91443
G0 F6000 X118.023 Y93.699
G1 F1200 X139.799 Y115.474 E55.93869
G0 F6000 X139.799 Y116.04
G1 F1200 X117.458 Y93.7 E56.98951
G0 F6000 X116.893 Y93.7
G1 F1200 X139.799 Y116.606 E58.06694
G0 F6000 X139.799 Y117.171
G1 F1200 X116.327 Y93.7 E59.17097
G0 F6000 X115.761 Y93.7
G1 F1200 X139.799 Y117.737 E60.30162
G0 F6000 X139.799 Y118.303
G1 F1200 X115.196 Y93.7 E61.45887
G0 F6000 X114.63 Y93.7
G1 F1200 X139.799 Y118.868 E62.64272
G0 F6000 X139.799 Y119.434
G1 F1200 X114.198 Y93.833 E63.84691
G0 F6000 X114.198 Y94.399
G1 F1200 X139.799 Y120 E65.0511
G0 F6000 X139.799 Y120.565
G1 F1200 X114.198 Y94.965 E66.25527
G0 F6000 X113.866 Y95.199
G1 F1200 X139.799 Y121.131 E67.47506
G0 F6000 X139.799 Y121.697
G1 F1200 X113.301 Y95.199 E68.72144
G0 F6000 X112.735 Y95.199
G1 F1200 X139.799 Y122.263 E69.99445
G0 F6000 X139.799 Y122.828
G1 F1200 X112.169 Y95.199 E71.29406
G0 F6000 X111.604 Y95.199
G1 F1200 X139.799 Y123.394 E72.62026
G0 F6000 X139.799 Y123.96
G1 F1200 X111.038 Y95.199 E73.97309
G0 F6000 X110.472 Y95.199
G1 F1200 X139.799 Y124.525 E75.35252
G0 F6000 X139.799 Y125.091
G1 F1200 X109.907 Y95.199 E76.75855
G0 F6000 X109.341 Y95.199
G1 F1200 X139.799 Y125.657 E78.1912
G0 F6000 X139.799 Y126.222
G1 F1200 X108.775 Y95.199 E79.65045
G0 F6000 X108.209 Y95.199
G1 F1200 X139.799 Y126.788 E81.13632
G0 F6000 X139.799 Y127.354
G1 F1200 X107.644 Y95.199 E82.6488
G0 F6000 X107.078 Y95.199
G1 F1200 X139.799 Y127.919 E84.18787
G0 F6000 X139.799 Y128.485
G1 F1200 X106.512 Y95.199 E85.75356
G0 F6000 X105.947 Y95.199
G1 F1200 X139.799 Y129.051 E87.34586
G0 F6000 X139.482 Y129.3
G1 F1200 X105.381 Y95.199 E88.94986
G0 F6000 X104.815 Y95.199
G1 F1200 X138.916 Y129.3 E90.55387
G0 F6000 X138.351 Y129.3
G1 F1200 X104.25 Y95.199 E92.15788
G0 F6000 X103.684 Y95.199
G1 F1200 X137.785 Y129.3 E93.76188
G0 F6000 X137.219 Y129.3
G1 F1200 X103.118 Y95.199 E95.36589
G0 F6000 X102.553 Y95.199
G1 F1200 X136.654 Y129.3 E96.9699
G0 F6000 X136.088 Y129.3
G1 F1200 X104.648 Y97.86 E98.44874
G0 F6000 X104.648 Y98.426
G1 F1200 X135.522 Y129.3 E99.90096
G0 F6000 X134.956 Y129.3
G1 F1200 X104.648 Y98.992 E101.32655
G0 F6000 X104.648 Y99.557
G1 F1200 X134.391 Y129.3 E102.72557
G0 F6000 X133.825 Y129.3
G1 F1200 X104.648 Y100.123 E104.09797
G0 F6000 X104.648 Y100.689
G1 F1200 X133.259 Y129.3 E105.44374
G0 F6000 X132.694 Y129.3
G1 F1200 X104.648 Y101.254 E106.76294
G0 F6000 X104.648 Y101.82
G1 F1200 X132.128 Y129.3 E108.05551
G0 F6000 X131.562 Y129.3
G1 F1200 X104.648 Y102.386 E109.32147
G0 F6000 X104.648 Y102.951
