;FLAVOR:Marlin
;TIME:7774
;Filament used: 4.51729m
;Layer height: 0.2
;MINX:86.835
;MINY:107.7
;MINZ:0.2
;MAXX:147.3
;MAXY:144.8
;MAXZ:35
;Generated with Cura_SteamEngine 4.6.1
M140 S60
M105
M190 S60
M104 S205
M105
M109 S205
M82 ;absolute extrusion mode
; Ender 3 Custom Start G-code
G92 E0 ; Reset Extruder
G28 ; Home all axes
G1 Z2.0 F3000 ; Move Z Axis up little to prevent scratching of Heat Bed
G1 X0.1 Y20 Z0.3 F5000.0 ; Move to start position
G1 X0.1 Y200.0 Z0.3 F1500.0 E15 ; Draw the first line
G1 X0.4 Y200.0 Z0.3 F5000.0 ; Move to side a little
G1 X0.4 Y20 Z0.3 F1500.0 E30 ; Draw the second line
G92 E0 ; Reset Extruder
G1 Z2.0 F3000 ; Move Z Axis up little to prevent scratching of Heat Bed
G1 X5 Y20 Z0.3 F5000.0 ; Move over to prevent blob squish
G92 E0
G92 E0
G1 F1500 E-6.5
;LAYER_COUNT:175
;LAYER:0
M107
;MESH:v3_tubeholder.stl
G0 F6000 X127.762 Y115.586 Z0.2
;TYPE:WALL-INNER
G1 F1500 E0
G1 F1200 X128.057 Y115.6 E0.00982
G1 X128.174 Y115.592 E0.01372
G1 X128.376 Y115.556 E0.02055
G1 X128.485 Y115.526 E0.02431
G1 X128.704 Y115.44 E0.03213
G1 X128.95 Y115.288 E0.04175
G1 X129.041 Y115.215 E0.04563
G1 X129.194 Y115.067 E0.05271
G1 X129.31 Y114.922 E0.05889
G1 X129.458 Y114.665 E0.06875
G1 X129.542 Y114.433 E0.07696
G1 X129.589 Y114.198 E0.08493
G1 X129.602 Y113.961 E0.09282
G1 X129.579 Y113.735 E0.10038
G1 X129.557 Y113.627 E0.10404
G1 X129.489 Y113.406 E0.11174
G1 X129.356 Y113.149 E0.12136
G1 X129.285 Y113.044 E0.12558
G1 X129.088 Y112.823 E0.13542
G1 X128.834 Y112.631 E0.14601
G1 X128.546 Y112.493 E0.15663
G1 X128.254 Y112.419 E0.16665
G1 X128.066 Y112.399 E0.17294
G1 X127.768 Y112.414 E0.18287
G1 X127.526 Y112.469 E0.19112
G1 X127.313 Y112.554 E0.19875
G1 X127.218 Y112.604 E0.20232
G1 X127.044 Y112.716 E0.2092
G1 X126.958 Y112.786 E0.21289
G1 X126.808 Y112.931 E0.21983
G1 X126.731 Y113.024 E0.22384
G1 X126.582 Y113.258 E0.23307
G1 X126.503 Y113.431 E0.2394
G1 X126.497 Y113.451 E0.24009
G1 X126.427 Y113.704 E0.24882
G1 X126.411 Y113.819 E0.25268
G1 X126.398 Y114.039 E0.26001
G1 X126.424 Y114.287 E0.26831
G1 X126.497 Y114.55 E0.27739
G1 X126.508 Y114.587 E0.27867
G1 X126.65 Y114.864 E0.28902
G1 X126.795 Y115.055 E0.297
G1 X126.919 Y115.181 E0.30288
G1 X127.098 Y115.324 E0.3105
G1 X127.299 Y115.439 E0.3182
G1 X127.467 Y115.51 E0.32427
G1 X127.762 Y115.586 E0.3344
G0 F6000 X127.822 Y115.188
;TYPE:WALL-OUTER
G1 F1200 X128.053 Y115.199 E0.34209
G1 X128.125 Y115.194 E0.34449
G1 X128.289 Y115.165 E0.35003
G1 X128.359 Y115.146 E0.35244
G1 X128.524 Y115.081 E0.35834
G1 X128.719 Y114.961 E0.36596
G1 X128.776 Y114.915 E0.36839
G1 X128.898 Y114.797 E0.37404
G1 X128.979 Y114.696 E0.37834
G1 X129.094 Y114.496 E0.38602
G1 X129.156 Y114.325 E0.39207
G1 X129.191 Y114.148 E0.39807
G1 X129.201 Y113.97 E0.404
G1 X129.183 Y113.795 E0.40985
G1 X129.169 Y113.726 E0.41219
G1 X129.117 Y113.558 E0.41804
G1 X129.012 Y113.354 E0.42567
G1 X128.969 Y113.291 E0.42821
G1 X128.815 Y113.118 E0.43591
G1 X128.625 Y112.974 E0.44384
G1 X128.41 Y112.871 E0.45177
G1 X128.183 Y112.814 E0.45955
G1 X128.055 Y112.8 E0.46384
G1 X127.823 Y112.812 E0.47156
G1 X127.645 Y112.852 E0.47763
G1 X127.482 Y112.917 E0.48347
G1 X127.42 Y112.95 E0.4858
G1 X127.279 Y113.04 E0.49137
G1 X127.224 Y113.085 E0.49373
G1 X127.102 Y113.203 E0.49938
G1 X127.055 Y113.26 E0.50183
G1 X126.934 Y113.449 E0.5093
G1 X126.88 Y113.568 E0.51364
G1 X126.819 Y113.786 E0.52117
G1 X126.809 Y113.858 E0.52359
G1 X126.799 Y114.03 E0.52932
G1 X126.818 Y114.212 E0.53541
G1 X126.882 Y114.44 E0.54328
G1 X126.99 Y114.65 E0.55114
G1 X127.098 Y114.793 E0.5571
G1 X127.187 Y114.883 E0.56131
G1 X127.324 Y114.992 E0.56713
G1 X127.477 Y115.08 E0.573
G1 X127.595 Y115.13 E0.57726
G1 X127.822 Y115.188 E0.58506
G0 F6000 X127.757 Y115.623
G1 F1500 E-5.91494
G0 F6000 X126.31 Y114.62
G0 X125.928 Y120.992
G0 X102.072 Y120.991
G0 X101.696 Y114.602
G0 X101.203 Y115.159
G0 X99.762 Y115.586
;TYPE:WALL-INNER
G1 F1500 E0.58506
G1 F1200 X100.057 Y115.6 E0.59488
G1 X100.174 Y115.592 E0.59878
G1 X100.376 Y115.556 E0.6056
G1 X100.485 Y115.526 E0.60936
G1 X100.704 Y115.44 E0.61719
G1 X100.95 Y115.288 E0.62681
G1 X101.041 Y115.215 E0.63069
G1 X101.194 Y115.067 E0.63777
G1 X101.31 Y114.922 E0.64394
G1 X101.458 Y114.665 E0.65381
G1 X101.503 Y114.542 E0.65816
G1 X101.542 Y114.433 E0.66202
G1 X101.589 Y114.198 E0.66999
G1 X101.602 Y113.961 E0.67788
G1 X101.579 Y113.735 E0.68544
G1 X101.557 Y113.627 E0.6891
G1 X101.503 Y113.45 E0.69526
G1 X101.489 Y113.406 E0.69679
G1 X101.356 Y113.149 E0.70642
G1 X101.285 Y113.044 E0.71063
G1 X101.088 Y112.823 E0.72048
G1 X100.834 Y112.631 E0.73107
G1 X100.546 Y112.493 E0.74169
G1 X100.254 Y112.419 E0.75171
G1 X100.066 Y112.399 E0.758
G1 X99.768 Y112.414 E0.76792
G1 X99.526 Y112.469 E0.77618
G1 X99.313 Y112.554 E0.78381
G1 X99.218 Y112.604 E0.78738
G1 X99.044 Y112.716 E0.79426
G1 X98.958 Y112.786 E0.79795
G1 X98.808 Y112.931 E0.80489
G1 X98.731 Y113.024 E0.8089
G1 X98.582 Y113.258 E0.81813
G1 X98.503 Y113.431 E0.82445
G1 X98.427 Y113.704 E0.83388
G1 X98.411 Y113.819 E0.83774
G1 X98.398 Y114.039 E0.84507
G1 X98.424 Y114.287 E0.85336
G1 X98.508 Y114.587 E0.86373
G1 X98.65 Y114.864 E0.87408
G1 X98.795 Y115.055 E0.88205
G1 X98.919 Y115.181 E0.88793
G1 X99.098 Y115.324 E0.89555
G1 X99.299 Y115.439 E0.90326
G1 X99.467 Y115.51 E0.90932
G1 X99.762 Y115.586 E0.91946
G0 F6000 X99.822 Y115.188
;TYPE:WALL-OUTER
G1 F1200 X100.053 Y115.199 E0.92715
G1 X100.125 Y115.194 E0.92955
G1 X100.289 Y115.165 E0.93509
G1 X100.359 Y115.146 E0.9375
G1 X100.524 Y115.081 E0.9434
G1 X100.719 Y114.961 E0.95101
G1 X100.776 Y114.915 E0.95345
G1 X100.898 Y114.797 E0.95909
G1 X100.979 Y114.696 E0.9634
G1 X101.094 Y114.496 E0.97107
G1 X101.156 Y114.325 E0.97712
G1 X101.191 Y114.148 E0.98312
G1 X101.201 Y113.97 E0.98905
G1 X101.183 Y113.795 E0.99491
G1 X101.169 Y113.726 E0.99725
G1 X101.117 Y113.558 E1.0031
G1 X101.012 Y113.354 E1.01073
G1 X100.969 Y113.291 E1.01326
G1 X100.815 Y113.118 E1.02097
G1 X100.625 Y112.974 E1.0289
G1 X100.41 Y112.871 E1.03683
G1 X100.183 Y112.814 E1.04461
G1 X100.055 Y112.8 E1.04889
G1 X99.823 Y112.812 E1.05662
G1 X99.645 Y112.852 E1.06269
G1 X99.482 Y112.917 E1.06852
G1 X99.42 Y112.95 E1.07086
G1 X99.279 Y113.04 E1.07642
G1 X99.224 Y113.085 E1.07879
G1 X99.102 Y113.203 E1.08443
G1 X99.055 Y113.26 E1.08689
G1 X98.934 Y113.449 E1.09435
G1 X98.88 Y113.568 E1.0987
G1 X98.819 Y113.786 E1.10623
G1 X98.809 Y113.858 E1.10865
G1 X98.799 Y114.03 E1.11438
G1 X98.818 Y114.212 E1.12046
G1 X98.882 Y114.44 E1.12834
G1 X98.99 Y114.65 E1.1362
G1 X99.098 Y114.793 E1.14216
G1 X99.187 Y114.883 E1.14637
G1 X99.324 Y114.992 E1.15219
G1 X99.477 Y115.08 E1.15806
G1 X99.595 Y115.13 E1.16232
G1 X99.822 Y115.188 E1.17011
G0 F6000 X99.757 Y115.623
G1 F1500 E-5.32989
G0 F6000 X98.348 Y114.65
G0 X98.944 Y112.578
G0 X100.924 Y112.485
G0 X101.69 Y113.385
G0 X101.718 Y108.282
G0 X98.242 Y108.298
G0 X97.822 Y108.475
G0 X97.416 Y108.921
G0 X97.272 Y109.447
G0 X97.282 Y120.782
G0 X88.282 Y120.782
G0 X88.282 Y139.654
G0 X96.9 Y139.836
;TYPE:WALL-INNER
G1 F1500 E1.17011
G1 F1200 X88.1 Y139.836 E1.4628
G1 X88.1 Y120.6 E2.10259
G1 X97.1 Y120.6 E2.40194
G1 X97.101 Y109.437 E2.77322
G1 X97.117 Y109.283 E2.77837
G1 X97.129 Y109.213 E2.78073
G1 X97.174 Y109.05 E2.78636
G1 X97.265 Y108.84 E2.79397
G1 X97.332 Y108.729 E2.79828
G1 X97.459 Y108.564 E2.8052
G1 X97.553 Y108.47 E2.80963
G1 X97.721 Y108.337 E2.81675
G1 X97.837 Y108.268 E2.82124
G1 X97.965 Y108.207 E2.82596
G1 X98.205 Y108.131 E2.83433
G1 X98.42 Y108.103 E2.84154
G1 X98.59 Y108.1 E2.8472
G1 X101.9 Y108.1 E2.95729
G1 X101.9 Y113.441 E3.13493
G1 X101.9 Y113.627 E3.14069
G1 X101.9 Y113.735 E3.14368
G1 X101.9 Y113.961 E3.14951
G1 X101.9 Y114.198 E3.15552
G1 X101.9 Y114.433 E3.16207
G1 X101.9 Y114.549 E3.16573
G1 X101.9 Y121.163 E3.38572
G1 X125.901 Y121.164 E4.18399
G1 X126.1 Y121.164 E4.19061
G1 X126.1 Y120.965 E4.19489
G1 X126.1 Y114.56 E4.40792
G1 X126.1 Y114.287 E4.41616
G1 X126.1 Y114.039 E4.42259
G1 X126.1 Y113.819 E4.42817
G1 X126.1 Y113.704 E4.43123
G1 X126.1 Y113.441 E4.4392
G1 X126.1 Y108.299 E4.61022
G1 X126.1 Y108.1 E4.61684
G1 X126.299 Y108.1 E4.62112
G1 X129.56 Y108.101 E4.72959
G1 X129.774 Y108.127 E4.73676
G1 X129.903 Y108.158 E4.74117
G1 X130.034 Y108.206 E4.74581
G1 X130.159 Y108.265 E4.75041
G1 X130.274 Y108.334 E4.75487
G1 X130.435 Y108.458 E4.76163
G1 X130.536 Y108.559 E4.76638
G1 X130.661 Y108.717 E4.77308
G1 X130.735 Y108.841 E4.77788
G1 X130.791 Y108.96 E4.78225
G1 X130.842 Y109.103 E4.7873
G1 X130.872 Y109.222 E4.79139
G1 X130.898 Y109.432 E4.79842
G1 X130.899 Y109.497 E4.80059
G1 X130.9 Y110.665 E4.83943
G1 X130.9 Y121.163 E5.1886
G1 X139.547 Y121.166 E5.4762
G1 X139.9 Y121.178 E5.48795
G1 X140.226 Y121.204 E5.49882
G1 X140.573 Y121.25 E5.51047
G1 X140.88 Y121.307 E5.52085
G1 X141.217 Y121.385 E5.53236
G1 X141.548 Y121.479 E5.5438
G1 X141.845 Y121.581 E5.55425
G1 X142.178 Y121.714 E5.56617
G1 X142.429 Y121.823 E5.57527
G1 X142.765 Y121.996 E5.58784
G1 X143.054 Y122.163 E5.59894
G1 X143.353 Y122.355 E5.61076
G1 X143.568 Y122.504 E5.61946
G1 X143.877 Y122.751 E5.63262
G1 X144.14 Y122.983 E5.64429
G1 X144.369 Y123.204 E5.65487
G1 X144.555 Y123.397 E5.66379
G1 X144.777 Y123.656 E5.67513
G1 X145.026 Y123.979 E5.6887
G1 X145.186 Y124.203 E5.69785
G1 X145.364 Y124.487 E5.709
G1 X145.558 Y124.837 E5.72231
G1 X145.697 Y125.12 E5.7328
G1 X145.837 Y125.443 E5.7445
G1 X145.935 Y125.692 E5.7534
G1 X146.058 Y126.078 E5.76688
G1 X146.128 Y126.322 E5.77532
G1 X146.14 Y126.383 E5.77739
G1 X146.2 Y126.638 E5.7861
G1 X146.269 Y127.063 E5.80042
G1 X146.307 Y127.393 E5.81147
G1 X146.329 Y127.67 E5.82071
G1 X146.336 Y128 E5.83169
G1 X146.336 Y139.972 E6.22988
G1 X146.327 Y140.167 E6.23637
G1 X146.299 Y140.337 E6.24211
G1 X146.28 Y140.393 E6.24407
G1 X143.718 Y140.394 E6.32928
G1 X143.702 Y140.345 E6.331
G1 X143.673 Y140.173 E6.3368
G1 X143.666 Y140.034 E6.34143
G1 X143.659 Y127.802 E6.74827
G1 X143.645 Y127.627 E6.75411
G1 X143.623 Y127.426 E6.76083
G1 X143.589 Y127.223 E6.76768
G1 X143.531 Y126.954 E6.77683
G1 X143.436 Y126.638 E6.78781
G1 X143.362 Y126.44 E6.79484
G1 X143.28 Y126.254 E6.8016
G1 X143.191 Y126.071 E6.80836
G1 X143.091 Y125.891 E6.81521
G1 X142.983 Y125.718 E6.822
G1 X142.867 Y125.551 E6.82876
G1 X142.741 Y125.386 E6.83566
G1 X142.558 Y125.175 E6.84495
G1 X142.329 Y124.945 E6.85575
G1 X142.17 Y124.805 E6.8628
G1 X142.009 Y124.678 E6.86962
G1 X141.845 Y124.56 E6.87634
G1 X141.675 Y124.45 E6.88307
G1 X141.497 Y124.346 E6.88993
G1 X141.315 Y124.253 E6.89673
G1 X141.13 Y124.168 E6.9035
G1 X140.938 Y124.092 E6.91036
G1 X140.744 Y124.027 E6.91717
G1 X140.548 Y123.971 E6.92395
G1 X140.35 Y123.924 E6.93072
G1 X140.148 Y123.887 E6.93755
G1 X139.945 Y123.861 E6.94436
G1 X139.741 Y123.843 E6.95117
G1 X139.54 Y123.838 E6.95785
G1 X97.099 Y123.836 E8.36945
G1 X96.9 Y123.836 E8.37607
G1 X96.9 Y124.035 E8.38035
G1 X96.9 Y139.836 E8.90589
G0 F6000 X97.263 Y140.236
;TYPE:WALL-OUTER
G1 F1200 X87.738 Y140.236 E9.22269
G1 X87.723 Y140.19 E9.2243
G1 X87.707 Y140.092 E9.22761
G1 X87.7 Y139.83 E9.23632
G1 X87.7 Y120.2 E9.88922
G1 X96.7 Y120.2 E10.18856
G1 X96.701 Y109.415 E10.54727
G1 X96.72 Y109.23 E10.55346
G1 X96.735 Y109.144 E10.55636
G1 X96.774 Y108.985 E10.56181
G1 X96.8 Y108.906 E10.56457
G1 X96.875 Y108.725 E10.57109
G1 X96.913 Y108.649 E10.57392
G1 X96.996 Y108.511 E10.57927
G1 X97.113 Y108.353 E10.58581
G1 X97.168 Y108.289 E10.58862
G1 X97.282 Y108.175 E10.59398
G1 X97.433 Y108.051 E10.60048
G1 X97.502 Y108.002 E10.60329
G1 X97.647 Y107.915 E10.60892
G1 X97.811 Y107.838 E10.61494
G1 X97.98 Y107.777 E10.62092
G1 X98.06 Y107.754 E10.62369
G1 X98.141 Y107.736 E10.62645
G1 X98.333 Y107.708 E10.6329
G1 X98.402 Y107.703 E10.6352
G1 X98.583 Y107.7 E10.64122
G1 X102.3 Y107.7 E10.76485
G1 X102.3 Y120.763 E11.19933
G1 X125.7 Y120.764 E11.97761
G1 X125.7 Y107.7 E12.41213
G1 X129.585 Y107.701 E12.54134
G1 X129.845 Y107.733 E12.55005
G1 X130.02 Y107.775 E12.55604
G1 X130.185 Y107.835 E12.56188
G1 X130.349 Y107.912 E12.5679
G1 X130.492 Y107.998 E12.57345
G1 X130.647 Y108.113 E12.57987
G1 X130.711 Y108.168 E12.58268
G1 X130.827 Y108.284 E12.58814
G1 X130.949 Y108.433 E12.59454
G1 X131 Y108.505 E12.59748
G1 X131.086 Y108.648 E12.60303
G1 X131.165 Y108.817 E12.60923
G1 X131.224 Y108.982 E12.61506
G1 X131.266 Y109.15 E12.62082
G1 X131.298 Y109.404 E12.62933
G1 X131.299 Y109.497 E12.63243
G1 X131.3 Y110.665 E12.67128
G1 X131.3 Y120.763 E13.00714
G1 X139.56 Y120.766 E13.28187
G1 X139.924 Y120.778 E13.29398
G1 X140.273 Y120.806 E13.30562
G1 X140.626 Y120.853 E13.31747
G1 X140.97 Y120.917 E13.32911
G1 X141.315 Y120.997 E13.34089
G1 X141.66 Y121.095 E13.35281
G1 X141.993 Y121.209 E13.36452
G1 X142.332 Y121.344 E13.37666
G1 X142.589 Y121.456 E13.38598
G1 X142.965 Y121.65 E13.40005
G1 X143.27 Y121.826 E13.41177
G1 X143.569 Y122.018 E13.42358
G1 X143.806 Y122.183 E13.43319
G1 X144.142 Y122.451 E13.44748
G1 X144.405 Y122.683 E13.45915
G1 X144.657 Y122.927 E13.47081
G1 X144.858 Y123.136 E13.48046
G1 X145.089 Y123.405 E13.49225
G1 X145.352 Y123.747 E13.5066
G1 X145.521 Y123.984 E13.51628
G1 X145.703 Y124.274 E13.52767
G1 X145.908 Y124.643 E13.54171
G1 X146.064 Y124.961 E13.55349
G1 X146.209 Y125.296 E13.56563
G1 X146.311 Y125.555 E13.57489
G1 X146.442 Y125.967 E13.58927
G1 X146.518 Y126.231 E13.59841
G1 X146.531 Y126.3 E13.60074
G1 X146.596 Y126.578 E13.61024
G1 X146.606 Y126.646 E13.61252
G1 X146.664 Y126.998 E13.62439
G1 X146.706 Y127.361 E13.63654
G1 X146.728 Y127.638 E13.64579
G1 X146.736 Y128 E13.65783
G1 X146.736 Y139.991 E14.05665
G1 X146.726 Y140.206 E14.06381
G1 X146.689 Y140.433 E14.07146
G1 X146.62 Y140.638 E14.07865
G1 X146.56 Y140.736 E14.08248
G1 X146.512 Y140.785 E14.08476
G1 X146.507 Y140.789 E14.08497
G1 X146.274 Y140.793 E14.09272
G1 X143.513 Y140.794 E14.18455
G1 X143.479 Y140.775 E14.18585
G1 X143.44 Y140.734 E14.18773
G1 X143.389 Y140.655 E14.19086
G1 X143.36 Y140.585 E14.19338
G1 X143.311 Y140.434 E14.19866
G1 X143.276 Y140.223 E14.20577
G1 X143.266 Y140.034 E14.21207
G1 X143.259 Y127.818 E14.61837
G1 X143.247 Y127.664 E14.62351
G1 X143.227 Y127.481 E14.62963
G1 X143.196 Y127.299 E14.63577
G1 X143.143 Y127.054 E14.64411
G1 X143.057 Y126.766 E14.65411
G1 X142.991 Y126.591 E14.66033
G1 X142.917 Y126.422 E14.66646
G1 X142.836 Y126.256 E14.67261
G1 X142.746 Y126.094 E14.67877
G1 X142.648 Y125.937 E14.68493
G1 X142.544 Y125.786 E14.69103
G1 X142.431 Y125.639 E14.69719
G1 X142.265 Y125.448 E14.70561
G1 X142.054 Y125.236 E14.71556
G1 X141.914 Y125.112 E14.72178
G1 X141.769 Y124.998 E14.72791
G1 X141.62 Y124.891 E14.73401
G1 X141.465 Y124.791 E14.74015
G1 X141.305 Y124.697 E14.74632
G1 X141.14 Y124.613 E14.75248
G1 X140.973 Y124.536 E14.7586
G1 X140.801 Y124.468 E14.76475
G1 X140.625 Y124.409 E14.77092
G1 X140.447 Y124.358 E14.77708
G1 X140.268 Y124.316 E14.78319
G1 X140.086 Y124.282 E14.78935
G1 X139.903 Y124.259 E14.79549
G1 X139.718 Y124.243 E14.80166
G1 X139.535 Y124.238 E14.80775
G1 X97.3 Y124.236 E16.21249
G1 X97.3 Y140.024 E16.7376
G1 X97.29 Y140.13 E16.74115
G1 X97.263 Y140.236 E16.74478
G0 F6000 X97.031 Y139.963
G0 X96.79 Y139.446
G0 X96.51 Y139.446
;TYPE:SKIN
G1 F1200 X88.49 Y139.446 E17.01153
G1 X88.49 Y120.99 E17.62538
G1 X97.49 Y120.99 E17.92472
G1 X97.491 Y109.458 E18.30828
G1 X97.51 Y109.299 E18.3136
G1 X97.541 Y109.184 E18.31756
G1 X97.615 Y109.014 E18.32373
G1 X97.658 Y108.943 E18.32649
G1 X97.753 Y108.82 E18.33166
G1 X97.805 Y108.768 E18.33411
G1 X97.945 Y108.657 E18.34005
G1 X98.019 Y108.613 E18.34291
G1 X98.107 Y108.571 E18.34616
G1 X98.295 Y108.511 E18.35272
G1 X98.441 Y108.493 E18.35761
G1 X98.598 Y108.49 E18.36283
G1 X101.51 Y108.49 E18.45969
G1 X101.51 Y112.711 E18.60008
G1 X101.354 Y112.535 E18.6079
G1 X101.038 Y112.296 E18.62108
G1 X100.679 Y112.124 E18.63432
G1 X100.323 Y112.035 E18.64652
G1 X100.078 Y112.007 E18.65473
G1 X99.715 Y112.026 E18.66682
G1 X99.409 Y112.095 E18.67725
G1 X99.149 Y112.199 E18.68656
G1 X99.021 Y112.267 E18.69138
G1 X98.814 Y112.4 E18.69957
G1 X98.699 Y112.494 E18.70451
G1 X98.521 Y112.666 E18.71274
G1 X98.415 Y112.794 E18.71827
G1 X98.239 Y113.071 E18.72918
G1 X98.136 Y113.297 E18.73744
G1 X98.045 Y113.624 E18.74873
