;FLAVOR:Marlin
;TIME:2024
;Filament used: 0.997406m
;Layer height: 0.2
;MINX:103.216
;MINY:103.496
;MINZ:0.2
;MAXX:131.2
;MAXY:131.492
;MAXZ:19
;Generated with Cura_SteamEngine 4.6.1
M140 S60
M105
M190 S60
M104 S205
M105
M109 S205
M82 ;absolute extrusion mode
; Ender 3 Custom Start G-code
G92 E0 ; Reset Extruder
G28 ; Home all axes
G1 Z2.0 F3000 ; Move Z Axis up little to prevent scratching of Heat Bed
G1 X0.1 Y20 Z0.3 F5000.0 ; Move to start position
G1 X0.1 Y200.0 Z0.3 F1500.0 E15 ; Draw the first line
G1 X0.4 Y200.0 Z0.3 F5000.0 ; Move to side a little
G1 X0.4 Y20 Z0.3 F1500.0 E30 ; Draw the second line
G92 E0 ; Reset Extruder
G1 Z2.0 F3000 ; Move Z Axis up little to prevent scratching of Heat Bed
G1 X5 Y20 Z0.3 F5000.0 ; Move over to prevent blob squish
G92 E0
G92 E0
G1 F1500 E-6.5
;LAYER_COUNT:95
;LAYER:0
M107
;MESH:stepper_coupler_v3.stl
G0 F6000 X108.954 Y125.191 Z0.2
;TYPE:WALL-INNER
G1 F1500 E0
G1 F1200 X109.189 Y125.125 E0.00812
G1 X109.425 Y125.034 E0.01653
G1 X109.54 Y124.979 E0.02077
G1 X109.755 Y124.856 E0.02901
G1 X110.061 Y124.628 E0.0417
G1 X110.308 Y124.375 E0.05346
G1 X110.458 Y124.179 E0.06167
G1 X110.535 Y124.062 E0.06633
G1 X110.652 Y123.85 E0.07438
G1 X110.75 Y123.621 E0.08267
G1 X110.821 Y123.391 E0.09067
G1 X110.853 Y123.265 E0.095
G1 X110.876 Y123.133 E0.09945
G1 X110.901 Y122.899 E0.10728
G1 X110.905 Y122.751 E0.11221
G1 X110.883 Y122.405 E0.12374
G1 X110.835 Y122.154 E0.13224
G1 X110.764 Y121.912 E0.14062
G1 X110.668 Y121.68 E0.14898
G1 X110.548 Y121.459 E0.15734
G1 X110.416 Y121.263 E0.1652
G1 X110.327 Y121.147 E0.17006
G1 X110.058 Y120.869 E0.18293
G1 X109.67 Y120.591 E0.1988
G1 X109.433 Y120.469 E0.20767
G1 X109.219 Y120.387 E0.21529
G1 X108.966 Y120.312 E0.22407
G1 X108.731 Y120.272 E0.232
G1 X108.485 Y120.252 E0.24021
G1 X108.236 Y120.257 E0.24849
G1 X107.858 Y120.309 E0.26118
G1 X107.625 Y120.375 E0.26923
G1 X107.371 Y120.472 E0.27828
G1 X107.046 Y120.653 E0.29065
G1 X106.848 Y120.793 E0.29872
G1 X106.677 Y120.945 E0.30633
G1 X106.583 Y121.04 E0.31077
G1 X106.444 Y121.201 E0.31785
G1 X106.264 Y121.461 E0.32836
G1 X106.105 Y121.769 E0.33989
G1 X106.033 Y121.963 E0.34677
G1 X105.966 Y122.203 E0.35506
G1 X105.923 Y122.476 E0.36425
G1 X105.912 Y122.607 E0.36863
G1 X105.909 Y122.684 E0.37119
G1 X105.907 Y122.756 E0.37359
G1 X105.92 Y123.004 E0.38184
G1 X105.95 Y123.183 E0.38788
G1 X105.98 Y123.357 E0.39375
G1 X106.054 Y123.602 E0.40227
G1 X106.096 Y123.704 E0.40594
G1 X106.13 Y123.786 E0.40889
G1 X106.209 Y123.942 E0.4147
G1 X106.373 Y124.204 E0.42498
G1 X106.439 Y124.291 E0.42862
G1 X106.492 Y124.361 E0.43154
G1 X106.646 Y124.524 E0.439
G1 X106.746 Y124.618 E0.44356
G1 X106.818 Y124.676 E0.44663
G1 X106.934 Y124.769 E0.45158
G1 X107.141 Y124.904 E0.4598
G1 X107.209 Y124.94 E0.46236
G1 X107.369 Y125.025 E0.46838
G1 X107.493 Y125.077 E0.47286
G1 X107.843 Y125.188 E0.48507
G1 X108.099 Y125.23 E0.4937
G1 X108.328 Y125.248 E0.50134
G1 X108.583 Y125.243 E0.50982
G1 X108.954 Y125.191 E0.52228
G0 F6000 X108.871 Y124.799
;TYPE:WALL-OUTER
G1 F1200 X109.062 Y124.745 E0.52888
G1 X109.267 Y124.666 E0.53619
G1 X109.355 Y124.624 E0.53943
G1 X109.536 Y124.521 E0.54636
G1 X109.797 Y124.326 E0.5572
G1 X110.005 Y124.113 E0.5671
G1 X110.131 Y123.948 E0.574
G1 X110.192 Y123.855 E0.5777
G1 X110.292 Y123.674 E0.58458
G1 X110.374 Y123.482 E0.59152
G1 X110.436 Y123.284 E0.59842
G1 X110.461 Y123.182 E0.60192
G1 X110.48 Y123.076 E0.6055
G1 X110.502 Y122.872 E0.61232
G1 X110.505 Y122.759 E0.61608
G1 X110.485 Y122.455 E0.62622
G1 X110.446 Y122.248 E0.63322
G1 X110.386 Y122.046 E0.64023
G1 X110.306 Y121.852 E0.64721
G1 X110.206 Y121.667 E0.6542
G1 X110.091 Y121.497 E0.66103
G1 X110.023 Y121.408 E0.66476
G1 X109.796 Y121.173 E0.67562
G1 X109.461 Y120.933 E0.68933
G1 X109.27 Y120.835 E0.69647
G1 X109.09 Y120.766 E0.70288
G1 X108.875 Y120.702 E0.71034
G1 X108.681 Y120.669 E0.71689
G1 X108.473 Y120.652 E0.72383
G1 X108.267 Y120.656 E0.73068
G1 X107.941 Y120.701 E0.74163
G1 X107.752 Y120.755 E0.74817
G1 X107.54 Y120.836 E0.75571
G1 X107.259 Y120.992 E0.7664
G1 X107.097 Y121.107 E0.77301
G1 X106.953 Y121.235 E0.77942
G1 X106.877 Y121.312 E0.78302
G1 X106.761 Y121.446 E0.78891
G1 X106.608 Y121.667 E0.79785
G1 X106.472 Y121.931 E0.80773
G1 X106.414 Y122.087 E0.81327
G1 X106.357 Y122.289 E0.82025
G1 X106.32 Y122.524 E0.82816
G1 X106.311 Y122.63 E0.8317
G1 X106.307 Y122.752 E0.83576
G1 X106.318 Y122.96 E0.84268
G1 X106.37 Y123.265 E0.85298
G1 X106.431 Y123.467 E0.85999
G1 X106.494 Y123.619 E0.86547
G1 X106.558 Y123.745 E0.87017
G1 X106.703 Y123.977 E0.87927
G1 X106.798 Y124.102 E0.88449
G1 X106.929 Y124.241 E0.89084
G1 X107.009 Y124.316 E0.89449
G1 X107.169 Y124.445 E0.90132
G1 X107.344 Y124.559 E0.90827
G1 X107.54 Y124.663 E0.91565
G1 X107.631 Y124.701 E0.91893
G1 X107.937 Y124.798 E0.92961
G1 X108.147 Y124.833 E0.93669
G1 X108.34 Y124.848 E0.94313
G1 X108.551 Y124.844 E0.95015
G1 X108.871 Y124.799 E0.96089
G0 F6000 X108.961 Y125.229
G0 X109.955 Y124.507
G0 X110.397 Y123.978
G0 X110.696 Y123.231
G0 X110.723 Y122.426
G0 X110.523 Y121.749
G0 X110.205 Y121.251
G0 X108.956 Y120.136
G0 X106.458 Y120.924
G0 X105.707 Y122.715
G0 X105.325 Y121.843
G0 X104.812 Y119.975
G0 X104.585 Y118.051
G0 X104.631 Y116.233
G0 X104.973 Y114.3
G0 X105.578 Y112.496
G0 X105.707 Y112.281
G0 X106.98 Y114.361
G0 X108.954 Y114.691
;TYPE:WALL-INNER
G1 F1200 X109.188 Y114.625 E0.96898
G1 X109.434 Y114.531 E0.97774
G1 X109.658 Y114.415 E0.98613
G1 X109.852 Y114.289 E0.99382
G1 X110.066 Y114.123 E1.00283
G1 X110.308 Y113.875 E1.01436
G1 X110.458 Y113.679 E1.02257
G1 X110.535 Y113.562 E1.02722
G1 X110.652 Y113.35 E1.03528
G1 X110.75 Y113.121 E1.04356
G1 X110.821 Y112.891 E1.05157
G1 X110.853 Y112.765 E1.05589
G1 X110.876 Y112.633 E1.06035
G1 X110.901 Y112.399 E1.06818
G1 X110.905 Y112.251 E1.0731
G1 X110.883 Y111.905 E1.08463
G1 X110.835 Y111.654 E1.09313
G1 X110.764 Y111.412 E1.10152
G1 X110.668 Y111.18 E1.10987
G1 X110.548 Y110.959 E1.11823
G1 X110.416 Y110.763 E1.12609
G1 X110.327 Y110.647 E1.13096
G1 X110.064 Y110.375 E1.14354
G1 X109.776 Y110.158 E1.15553
G1 X109.442 Y109.972 E1.16825
G1 X109.219 Y109.887 E1.17619
G1 X108.966 Y109.812 E1.18496
G1 X108.731 Y109.772 E1.19289
G1 X108.485 Y109.752 E1.2011
G1 X108.236 Y109.757 E1.20938
G1 X107.858 Y109.809 E1.22208
G1 X107.625 Y109.875 E1.23013
G1 X107.38 Y109.969 E1.23886
G1 X107.209 Y110.057 E1.24525
G1 X107.164 Y110.08 E1.24694
G1 X106.881 Y110.269 E1.25825
G1 X106.853 Y110.288 E1.25938
G1 X106.677 Y110.445 E1.26722
G1 X106.583 Y110.54 E1.27167
G1 X106.444 Y110.701 E1.27874
G1 X106.264 Y110.961 E1.28926
G1 X106.105 Y111.269 E1.30079
G1 X106.097 Y111.29 E1.30154
G1 X106.033 Y111.463 E1.30767
G1 X105.966 Y111.703 E1.31596
G1 X105.943 Y111.85 E1.32091
G1 X105.923 Y111.976 E1.32515
G1 X105.912 Y112.107 E1.32952
G1 X105.907 Y112.256 E1.33448
G1 X105.909 Y112.313 E1.33638
G1 X105.92 Y112.504 E1.34274
G1 X105.98 Y112.857 E1.35465
G1 X106.054 Y113.102 E1.36316
G1 X106.13 Y113.286 E1.36979
G1 X106.209 Y113.442 E1.3756
G1 X106.373 Y113.704 E1.38588
G1 X106.492 Y113.861 E1.39243
G1 X106.646 Y114.024 E1.39989
G1 X106.746 Y114.118 E1.40446
G1 X106.936 Y114.271 E1.41257
G1 X107.206 Y114.444 E1.42324
G1 X107.376 Y114.528 E1.42954
G1 X107.494 Y114.577 E1.43379
G1 X107.843 Y114.688 E1.44597
G1 X108.099 Y114.73 E1.4546
G1 X108.328 Y114.748 E1.46224
G1 X108.583 Y114.743 E1.47073
G1 X108.954 Y114.691 E1.48319
G0 F6000 X108.871 Y114.299
;TYPE:WALL-OUTER
G1 F1200 X109.062 Y114.245 E1.48979
G1 X109.27 Y114.165 E1.4972
G1 X109.457 Y114.069 E1.50419
G1 X109.62 Y113.963 E1.51066
G1 X109.799 Y113.824 E1.5182
G1 X110.005 Y113.613 E1.528
G1 X110.131 Y113.448 E1.53491
G1 X110.192 Y113.355 E1.53861
G1 X110.292 Y113.174 E1.54549
G1 X110.374 Y112.982 E1.55243
G1 X110.436 Y112.784 E1.55933
G1 X110.461 Y112.682 E1.56282
G1 X110.48 Y112.576 E1.56641
G1 X110.502 Y112.372 E1.57323
G1 X110.505 Y112.259 E1.57699
G1 X110.485 Y111.955 E1.58712
G1 X110.446 Y111.748 E1.59413
G1 X110.386 Y111.546 E1.60114
G1 X110.306 Y111.352 E1.60812
G1 X110.206 Y111.167 E1.61511
G1 X110.091 Y110.997 E1.62194
G1 X110.023 Y110.908 E1.62566
G1 X109.798 Y110.675 E1.63644
G1 X109.558 Y110.494 E1.64643
G1 X109.273 Y110.336 E1.65727
G1 X109.09 Y110.266 E1.66379
G1 X108.875 Y110.202 E1.67125
G1 X108.681 Y110.169 E1.6778
G1 X108.473 Y110.152 E1.68474
G1 X108.267 Y110.156 E1.69159
G1 X107.941 Y110.201 E1.70253
G1 X107.752 Y110.255 E1.70907
G1 X107.543 Y110.335 E1.71652
G1 X107.367 Y110.425 E1.72309
G1 X107.099 Y110.605 E1.73383
G1 X106.953 Y110.735 E1.74033
G1 X106.877 Y110.812 E1.74393
G1 X106.761 Y110.946 E1.74982
G1 X106.608 Y111.167 E1.75876
G1 X106.472 Y111.431 E1.76864
G1 X106.414 Y111.587 E1.77418
G1 X106.357 Y111.789 E1.78116
G1 X106.32 Y112.024 E1.78907
G1 X106.311 Y112.13 E1.79261
G1 X106.307 Y112.252 E1.79667
G1 X106.318 Y112.46 E1.8036
G1 X106.37 Y112.765 E1.81389
G1 X106.431 Y112.967 E1.8209
G1 X106.494 Y113.119 E1.82638
G1 X106.558 Y113.245 E1.83108
G1 X106.703 Y113.477 E1.84018
G1 X106.798 Y113.602 E1.8454
G1 X106.929 Y113.741 E1.85175
G1 X107.009 Y113.816 E1.8554
G1 X107.17 Y113.946 E1.86228
G1 X107.403 Y114.095 E1.87148
G1 X107.542 Y114.164 E1.87664
G1 X107.631 Y114.201 E1.87985
G1 X107.937 Y114.298 E1.89052
G1 X108.147 Y114.333 E1.89761
G1 X108.34 Y114.348 E1.90404
G1 X108.551 Y114.344 E1.91106
G1 X108.871 Y114.299 E1.92181
G0 F6000 X108.961 Y114.729
G0 X110.806 Y113.425
G0 X110.694 Y110.87
G0 X108.49 Y109.581
G0 X107.082 Y109.895
G0 X107.654 Y109.123
G0 X108.95 Y107.8
G0 X110.493 Y106.634
G0 X112.233 Y105.693
G0 X114.004 Y105.051
G0 X115.913 Y104.669
G0 X116.122 Y104.679
G0 X114.832 Y107.126
G0 X115.958 Y108.924
G0 X117.422 Y109.498
;TYPE:WALL-INNER
G1 F1200 X117.662 Y109.494 E1.92979
G1 X117.798 Y109.481 E1.93434
G1 X118.053 Y109.44 E1.94293
G1 X118.282 Y109.375 E1.95085
G1 X118.528 Y109.281 E1.95961
G1 X118.757 Y109.163 E1.96817
G1 X119.048 Y108.966 E1.97986
G1 X119.166 Y108.866 E1.98501
G1 X119.412 Y108.614 E1.99672
G1 X119.557 Y108.422 E2.00472
G1 X119.692 Y108.206 E2.01319
G1 X119.845 Y107.87 E2.02547
G1 X119.892 Y107.728 E2.03045
G1 X119.946 Y107.51 E2.03792
G1 X119.985 Y107.265 E2.04617
G1 X119.999 Y107.01 E2.05466
G1 X119.975 Y106.646 E2.0668
G1 X119.894 Y106.272 E2.07952
G1 X119.813 Y106.052 E2.08732
G1 X119.758 Y105.925 E2.09192
G1 X119.647 Y105.718 E2.09974
G1 X119.573 Y105.601 E2.10434
G1 X119.413 Y105.387 E2.11323
G1 X119.166 Y105.134 E2.12499
G1 X119.051 Y105.039 E2.12995
G1 X118.863 Y104.905 E2.13763
G1 X118.787 Y104.862 E2.14053
G1 X118.536 Y104.722 E2.15009
G1 X118.406 Y104.673 E2.15471
G1 X118.31 Y104.637 E2.15812
G1 X118.059 Y104.562 E2.16684
G1 X117.825 Y104.522 E2.17473
G1 X117.802 Y104.521 E2.1755
G1 X117.578 Y104.502 E2.18297
G1 X117.329 Y104.507 E2.19126
G1 X117.186 Y104.526 E2.19606
G1 X116.951 Y104.559 E2.20395
G1 X116.718 Y104.625 E2.212
G1 X116.692 Y104.635 E2.21293
G1 X116.473 Y104.719 E2.22073
G1 X116.256 Y104.83 E2.22884
G1 X116.197 Y104.87 E2.23121
G1 X115.954 Y105.034 E2.24096
G1 X115.839 Y105.13 E2.24594
G1 X115.68 Y105.286 E2.25335
G1 X115.544 Y105.442 E2.26023
G1 X115.44 Y105.582 E2.26603
G1 X115.304 Y105.804 E2.27469
G1 X115.205 Y106.01 E2.28229
G1 X115.126 Y106.214 E2.28957
G1 X115.051 Y106.502 E2.29947
G1 X115.015 Y106.735 E2.30731
G1 X115.001 Y106.99 E2.31581
G1 X115.003 Y107.116 E2.32
G1 X115.028 Y107.377 E2.32872
G1 X115.107 Y107.728 E2.34068
G1 X115.189 Y107.955 E2.34871
G1 X115.295 Y108.18 E2.35698
G1 X115.424 Y108.395 E2.36532
G1 X115.588 Y108.613 E2.3744
G1 X115.834 Y108.866 E2.38613
G1 X115.913 Y108.932 E2.38956
G1 X116.137 Y109.095 E2.39877
G1 X116.306 Y109.197 E2.40534
G1 X116.477 Y109.282 E2.41169
G1 X116.704 Y109.369 E2.41977
G1 X116.943 Y109.439 E2.42806
G1 X117.191 Y109.48 E2.43642
G1 X117.422 Y109.498 E2.44412
G0 F6000 X117.434 Y109.098
;TYPE:WALL-OUTER
G1 F1200 X117.64 Y109.094 E2.45098
G1 X117.748 Y109.084 E2.45458
G1 X117.966 Y109.049 E2.46193
G1 X118.155 Y108.995 E2.46846
G1 X118.364 Y108.915 E2.47591
G1 X118.552 Y108.818 E2.48294
G1 X118.806 Y108.646 E2.49315
G1 X118.894 Y108.572 E2.49697
G1 X119.108 Y108.353 E2.50716
G1 X119.227 Y108.195 E2.51373
G1 X119.339 Y108.016 E2.52076
G1 X119.472 Y107.723 E2.53146
G1 X119.508 Y107.616 E2.53521
G1 X119.554 Y107.43 E2.54159
G1 X119.587 Y107.223 E2.54856
G1 X119.598 Y107.012 E2.55559
G1 X119.578 Y106.702 E2.56592
G1 X119.509 Y106.384 E2.57674
G1 X119.442 Y106.201 E2.58322
G1 X119.398 Y106.1 E2.58689
G1 X119.301 Y105.92 E2.59369
G1 X119.243 Y105.828 E2.59731
G1 X119.108 Y105.648 E2.60479
G1 X118.894 Y105.428 E2.615
G1 X118.807 Y105.356 E2.61875
G1 X118.649 Y105.243 E2.62521
G1 X118.367 Y105.086 E2.63595
G1 X118.182 Y105.016 E2.64253
G1 X117.968 Y104.952 E2.64996
G1 X117.775 Y104.919 E2.65647
G1 X117.566 Y104.902 E2.66344
G1 X117.36 Y104.906 E2.6703
G1 X117.034 Y104.951 E2.68124
G1 X116.845 Y105.005 E2.68778
G1 X116.636 Y105.085 E2.69522
G1 X116.46 Y105.175 E2.7018
G1 X116.195 Y105.354 E2.71243
G1 X116.108 Y105.427 E2.71621
G1 X115.971 Y105.561 E2.72258
G1 X115.856 Y105.693 E2.72841
G1 X115.772 Y105.806 E2.73309
G1 X115.656 Y105.996 E2.74049
G1 X115.572 Y106.17 E2.74692
G1 X115.507 Y106.337 E2.75288
G1 X115.443 Y106.583 E2.76134
G1 X115.413 Y106.777 E2.76786
G1 X115.401 Y106.997 E2.77519
G1 X115.403 Y107.093 E2.77839
G1 X115.424 Y107.314 E2.78577
G1 X115.492 Y107.616 E2.79607
G1 X115.559 Y107.802 E2.80264
G1 X115.648 Y107.991 E2.80959
G1 X115.756 Y108.171 E2.81657
G1 X115.892 Y108.352 E2.8241
G1 X116.106 Y108.572 E2.83431
G1 X116.159 Y108.616 E2.8366
G1 X116.359 Y108.762 E2.84484
G1 X116.498 Y108.846 E2.85024
G1 X116.638 Y108.915 E2.85543
G1 X116.832 Y108.99 E2.86235
G1 X117.032 Y109.048 E2.86927
G1 X117.24 Y109.083 E2.87629
G1 X117.434 Y109.098 E2.88276
G0 F6000 X117.422 Y109.537
G0 X119.542 Y108.725
G0 X120.058 Y106.224
G0 X118.872 Y104.679
G0 X119.715 Y104.761
G0 X121.609 Y105.241
G0 X123.361 Y105.976
G0 X125.038 Y106.995
G0 X126.503 Y108.222
G0 X127.807 Y109.693
G0 X127.921 Y109.904
G0 X125.268 Y109.931
G0 X123.926 Y112.117
G0 X124.232 Y113.364
G0 X126.021 Y114.685
;TYPE:WALL-INNER
G1 F1200 X126.123 Y114.705 E2.88622
G1 X126.389 Y114.741 E2.89515
G1 X126.639 Y114.748 E2.90346
G1 X126.884 Y114.732 E2.91163
G1 X127.146 Y114.69 E2.92046
G1 X127.375 Y114.625 E2.92837
G1 X127.619 Y114.531 E2.93707
G1 X127.85 Y114.413 E2.9457
G1 X128.147 Y114.21 E2.95766
G1 X128.326 Y114.052 E2.9656
G1 X128.508 Y113.86 E2.9744
G1 X128.659 Y113.66 E2.98274
G1 X128.782 Y113.46 E2.99055
G1 X128.892 Y113.233 E2.99894
G1 X128.946 Y113.101 E3.00368
G1 X129.018 Y112.863 E3.01195
G1 X129.062 Y112.632 E3.01977
G1 X129.091 Y112.334 E3.02973
G1 X129.092 Y112.315 E3.03036
G1 X129.092 Y112.173 E3.03509
G1 X129.065 Y111.882 E3.04481
G1 X129.052 Y111.81 E3.04724
G1 X129.018 Y111.638 E3.05307
G1 X128.963 Y111.45 E3.05959
G1 X128.904 Y111.292 E3.0652
G1 X128.897 Y111.275 E3.06581
G1 X128.796 Y111.067 E3.0735
G1 X128.661 Y110.843 E3.0822
G1 X128.553 Y110.7 E3.08816
G1 X128.508 Y110.641 E3.09062
G1 X128.349 Y110.471 E3.09837
G1 X128.154 Y110.295 E3.1071
G1 X127.956 Y110.154 E3.11519
G1 X127.798 Y110.066 E3.1212
G1 X127.629 Y109.972 E3.12764
G1 X127.403 Y109.887 E3.13567
G1 X127.152 Y109.812 E3.14438
G1 X126.918 Y109.772 E3.15228
G1 X126.673 Y109.752 E3.16045
G1 X126.417 Y109.757 E3.16897
G1 X126.046 Y109.809 E3.18143
G1 X125.811 Y109.875 E3.18955
G1 X125.57 Y109.968 E3.19814
G1 X125.354 Y110.079 E3.20621
G1 X125.156 Y110.205 E3.21402
G1 X125.045 Y110.287 E3.21861
G1 X124.864 Y110.444 E3.22658
G1 X124.765 Y110.545 E3.23128
G1 X124.603 Y110.739 E3.23969
G1 X124.47 Y110.93 E3.24743
G1 X124.351 Y111.145 E3.2556
G1 X124.287 Y111.288 E3.26082
G1 X124.206 Y111.513 E3.26877
G1 X124.149 Y111.729 E3.2762
G1 X124.121 Y111.883 E3.28141
G1 X124.097 Y112.126 E3.28953
G1 X124.096 Y112.358 E3.29724
G1 X124.12 Y112.607 E3.30556
G1 X124.171 Y112.87 E3.31447
G1 X124.279 Y113.198 E3.32596
G1 X124.393 Y113.438 E3.3348
G1 X124.585 Y113.74 E3.3467
G1 X124.749 Y113.938 E3.35525
G1 X124.931 Y114.118 E3.36376
G1 X125.033 Y114.203 E3.36818
G1 X125.337 Y114.415 E3.38051
G1 X125.633 Y114.561 E3.39148
G1 X126.021 Y114.685 E3.40503
G0 F6000 X126.12 Y114.297
;TYPE:WALL-OUTER
