;FLAVOR:Marlin
;TIME:2283
;Filament used: 1.02792m
;Layer height: 0.2
;MINX:102.935
;MINY:102.938
;MINZ:0.2
;MAXX:132.065
;MAXY:132.088
;MAXZ:19
;Generated with Cura_SteamEngine 4.6.1
M140 S60
M105
M190 S60
M104 S205
M105
M109 S205
M82 ;absolute extrusion mode
; Ender 3 Custom Start G-code
G92 E0 ; Reset Extruder
G28 ; Home all axes
G1 Z2.0 F3000 ; Move Z Axis up little to prevent scratching of Heat Bed
G1 X0.1 Y20 Z0.3 F5000.0 ; Move to start position
G1 X0.1 Y200.0 Z0.3 F1500.0 E15 ; Draw the first line
G1 X0.4 Y200.0 Z0.3 F5000.0 ; Move to side a little
G1 X0.4 Y20 Z0.3 F1500.0 E30 ; Draw the second line
G92 E0 ; Reset Extruder
G1 Z2.0 F3000 ; Move Z Axis up little to prevent scratching of Heat Bed
G1 X5 Y20 Z0.3 F5000.0 ; Move over to prevent blob squish
G92 E0
G92 E0
G1 F1500 E-6.5
;LAYER_COUNT:95
;LAYER:0
M107
G0 F6000 X117.204 Y106.733 Z0.2
;TYPE:SKIRT
G1 F1500 E0
G1 F1200 X117.261 Y106.68 E0.00259
G1 X117.31 Y106.649 E0.00452
G1 X117.401 Y106.613 E0.00777
G1 X117.478 Y106.599 E0.01038
G1 X117.566 Y106.607 E0.01331
G1 X117.652 Y106.631 E0.01628
G1 X117.705 Y106.658 E0.01826
G1 X117.773 Y106.709 E0.02109
G1 X117.834 Y106.781 E0.02423
G1 X117.864 Y106.838 E0.02637
G1 X117.889 Y106.908 E0.02884
G1 X117.896 Y106.958 E0.03052
G1 X117.896 Y107.048 E0.03352
G1 X117.883 Y107.109 E0.03559
G1 X117.827 Y107.227 E0.03993
G1 X117.784 Y107.281 E0.04223
G1 X117.715 Y107.336 E0.04516
G1 X117.64 Y107.374 E0.04796
G1 X117.56 Y107.395 E0.05071
G1 X117.457 Y107.396 E0.05414
G1 X117.392 Y107.383 E0.05634
G1 X117.335 Y107.364 E0.05834
G1 X117.249 Y107.31 E0.06172
G1 X117.192 Y107.253 E0.0644
G1 X117.159 Y107.209 E0.06623
G1 X117.123 Y107.13 E0.06912
G1 X117.107 Y107.071 E0.07115
G1 X117.101 Y107.005 E0.07335
G1 X117.115 Y106.899 E0.07691
G1 X117.137 Y106.834 E0.07919
G1 X117.17 Y106.775 E0.08144
G1 X117.204 Y106.733 E0.08324
G0 F6000 X116.913 Y106.458
G1 F1200 X116.963 Y106.407 E0.08561
G1 X117.072 Y106.325 E0.09015
G1 X117.139 Y106.286 E0.09273
G1 X117.27 Y106.234 E0.09742
G1 X117.389 Y106.207 E0.10148
G1 X117.511 Y106.194 E0.10556
G1 X117.657 Y106.216 E0.11047
G1 X117.782 Y106.252 E0.11479
G1 X117.837 Y106.275 E0.11678
G1 X117.908 Y106.313 E0.11945
G1 X118.01 Y106.385 E0.12361
G1 X118.087 Y106.458 E0.12714
G1 X118.144 Y106.526 E0.13009
G1 X118.19 Y106.595 E0.13285
G1 X118.228 Y106.671 E0.13567
G1 X118.26 Y106.752 E0.13857
G1 X118.277 Y106.811 E0.14061
G1 X118.296 Y106.932 E0.14468
G1 X118.296 Y107.069 E0.14924
G1 X118.277 Y107.186 E0.15318
G1 X118.252 Y107.269 E0.15607
G1 X118.228 Y107.328 E0.15818
G1 X118.164 Y107.445 E0.16262
G1 X118.079 Y107.552 E0.16717
G1 X118.013 Y107.611 E0.17011
G1 X117.898 Y107.694 E0.17483
G1 X117.776 Y107.75 E0.17929
G1 X117.656 Y107.784 E0.18344
G1 X117.601 Y107.793 E0.18529
G1 X117.41 Y107.794 E0.19165
G1 X117.316 Y107.777 E0.19482
G1 X117.215 Y107.747 E0.19833
G1 X117.143 Y107.715 E0.20095
G1 X117.077 Y107.678 E0.20347
G1 X117.029 Y107.645 E0.2054
G1 X116.942 Y107.574 E0.20914
G1 X116.885 Y107.509 E0.21201
G1 X116.788 Y107.365 E0.21779
G1 X116.74 Y107.249 E0.22196
G1 X116.722 Y107.184 E0.22421
G1 X116.704 Y107.07 E0.22804
G1 X116.702 Y106.988 E0.23077
G1 X116.722 Y106.82 E0.2364
G1 X116.743 Y106.744 E0.23902
G1 X116.787 Y106.639 E0.24281
G1 X116.835 Y106.556 E0.246
G1 X116.913 Y106.458 E0.25016
G0 F6000 X116.625 Y106.181
G1 F1200 X116.681 Y106.123 E0.25285
G1 X116.802 Y106.025 E0.25802
G1 X116.86 Y105.985 E0.26037
G1 X117.005 Y105.907 E0.26584
G1 X117.065 Y105.882 E0.26801
G1 X117.173 Y105.846 E0.27179
G1 X117.371 Y105.806 E0.27851
G1 X117.528 Y105.791 E0.28376
G1 X117.747 Y105.826 E0.29113
G1 X117.903 Y105.87 E0.29652
G1 X117.997 Y105.909 E0.29991
G1 X118.111 Y105.967 E0.30416
G1 X118.305 Y106.109 E0.31216
G1 X118.388 Y106.193 E0.31609
G1 X118.465 Y106.287 E0.32013
G1 X118.527 Y106.379 E0.32382
G1 X118.619 Y106.566 E0.33075
G1 X118.651 Y106.661 E0.33408
G1 X118.675 Y106.759 E0.33744
G1 X118.696 Y106.902 E0.34225
G1 X118.696 Y107.095 E0.34867
G1 X118.682 Y107.206 E0.35239
G1 X118.649 Y107.341 E0.35701
G1 X118.601 Y107.474 E0.36171
G1 X118.517 Y107.635 E0.36775
G1 X118.446 Y107.736 E0.37186
G1 X118.332 Y107.866 E0.37761
G1 X118.184 Y107.985 E0.38393
G1 X118.098 Y108.04 E0.38732
G1 X118.03 Y108.077 E0.3899
G1 X117.936 Y108.118 E0.39331
G1 X117.87 Y108.141 E0.39563
G1 X117.693 Y108.184 E0.40169
G1 X117.596 Y108.196 E0.40494
G1 X117.395 Y108.194 E0.41163
G1 X117.226 Y108.168 E0.41731
G1 X117.006 Y108.093 E0.42504
G1 X116.895 Y108.035 E0.42921
G1 X116.785 Y107.962 E0.4336
G1 X116.648 Y107.847 E0.43955
G1 X116.547 Y107.726 E0.44479
G1 X116.487 Y107.643 E0.4482
G1 X116.435 Y107.554 E0.45163
G1 X116.364 Y107.385 E0.45772
G1 X116.333 Y107.277 E0.46146
G1 X116.306 Y107.115 E0.46692
G1 X116.304 Y106.919 E0.47344
G1 X116.329 Y106.739 E0.47949
G1 X116.382 Y106.566 E0.48551
G1 X116.408 Y106.502 E0.4878
G1 X116.495 Y106.344 E0.4938
G1 X116.527 Y106.298 E0.49567
G1 X116.625 Y106.181 E0.50074
G0 F6000 X116.338 Y105.901
G1 F1200 X116.427 Y105.813 E0.5049
G1 X116.522 Y105.735 E0.50899
G1 X116.697 Y105.617 E0.51601
G1 X116.773 Y105.574 E0.51892
G1 X116.913 Y105.511 E0.52402
G1 X117.051 Y105.464 E0.52887
G1 X117.219 Y105.425 E0.53461
G1 X117.325 Y105.408 E0.53818
G1 X117.548 Y105.387 E0.54563
G1 X117.611 Y105.4 E0.54777
G1 X117.808 Y105.43 E0.5544
G1 X118.016 Y105.486 E0.56156
G1 X118.223 Y105.573 E0.56903
G1 X118.366 Y105.656 E0.57453
G1 X118.504 Y105.756 E0.5802
G1 X118.572 Y105.812 E0.58313
G1 X118.709 Y105.953 E0.58967
G1 X118.834 Y106.116 E0.5965
G1 X118.877 Y106.184 E0.59917
G1 X118.985 Y106.404 E0.60732
G1 X119.049 Y106.601 E0.61421
G1 X119.068 Y106.681 E0.61695
G1 X119.094 Y106.861 E0.623
G1 X119.096 Y107.106 E0.63115
G1 X119.07 Y107.307 E0.63789
G1 X119.035 Y107.448 E0.64272
G1 X118.976 Y107.615 E0.64861
G1 X118.944 Y107.688 E0.65126
G1 X118.854 Y107.851 E0.65745
G1 X118.756 Y107.989 E0.66308
G1 X118.675 Y108.086 E0.66729
G1 X118.564 Y108.194 E0.67244
G1 X118.374 Y108.339 E0.68039
G1 X118.299 Y108.386 E0.68333
G1 X118.209 Y108.435 E0.68674
G1 X117.951 Y108.535 E0.69594
G1 X117.834 Y108.564 E0.69995
G1 X117.564 Y108.599 E0.70901
G1 X117.368 Y108.594 E0.71553
G1 X117.225 Y108.575 E0.72033
G1 X117.064 Y108.538 E0.72582
G1 X116.849 Y108.462 E0.73341
G1 X116.778 Y108.428 E0.73602
G1 X116.682 Y108.374 E0.73969
G1 X116.561 Y108.294 E0.74451
G1 X116.379 Y108.143 E0.75238
G1 X116.229 Y107.969 E0.76002
G1 X116.157 Y107.87 E0.76409
G1 X116.06 Y107.701 E0.77057
G1 X115.974 Y107.48 E0.77846
G1 X115.933 Y107.322 E0.78389
G1 X115.908 Y107.159 E0.78937
G1 X115.901 Y107.004 E0.79453
G1 X115.904 Y106.896 E0.79813
G1 X115.935 Y106.667 E0.80581
G1 X115.977 Y106.512 E0.81115
G1 X116.05 Y106.323 E0.81789
G1 X116.183 Y106.091 E0.82679
G1 X116.338 Y105.901 E0.83494
G0 F6000 X116.027 Y105.648
G1 F1200 X116.162 Y105.513 E0.84129
G1 X116.321 Y105.385 E0.84808
G1 X116.482 Y105.279 E0.85449
G1 X116.593 Y105.217 E0.85872
G1 X116.782 Y105.133 E0.8656
G1 X116.954 Y105.076 E0.87163
G1 X117.07 Y105.047 E0.8756
G1 X117.265 Y105.012 E0.88219
G1 X117.58 Y104.982 E0.89272
G1 X117.652 Y105.001 E0.89519
G1 X117.931 Y105.046 E0.90459
G1 X118.143 Y105.106 E0.91192
G1 X118.217 Y105.133 E0.91454
G1 X118.405 Y105.217 E0.92139
G1 X118.577 Y105.316 E0.92799
G1 X118.754 Y105.444 E0.93526
G1 X118.877 Y105.55 E0.94066
G1 X119.021 Y105.702 E0.94762
G1 X119.158 Y105.881 E0.95512
G1 X119.243 Y106.019 E0.96051
G1 X119.346 Y106.23 E0.96832
G1 X119.374 Y106.302 E0.97089
G1 X119.438 Y106.506 E0.978
G1 X119.461 Y106.6 E0.98122
G1 X119.496 Y106.875 E0.99044
G1 X119.492 Y107.183 E1.00068
G1 X119.463 Y107.384 E1.00744
G1 X119.441 Y107.483 E1.01081
G1 X119.377 Y107.688 E1.01795
G1 X119.349 Y107.76 E1.02052
G1 X119.303 Y107.864 E1.02431
G1 X119.201 Y108.05 E1.03136
G1 X119.16 Y108.114 E1.03389
G1 X119.039 Y108.277 E1.04064
G1 X118.973 Y108.353 E1.04399
G1 X118.899 Y108.43 E1.04754
G1 X118.749 Y108.56 E1.05414
G1 X118.663 Y108.626 E1.05775
G1 X118.498 Y108.733 E1.06429
G1 X118.35 Y108.811 E1.06985
G1 X118.132 Y108.898 E1.07766
G1 X118.06 Y108.92 E1.08016
G1 X117.845 Y108.97 E1.08751
G1 X117.657 Y108.994 E1.09381
G1 X117.56 Y108.999 E1.09704
G1 X117.341 Y108.993 E1.10433
G1 X117.263 Y108.985 E1.10693
G1 X117.046 Y108.948 E1.11426
G1 X116.766 Y108.861 E1.12401
G1 X116.598 Y108.785 E1.13014
G1 X116.422 Y108.684 E1.13689
G1 X116.253 Y108.562 E1.14382
G1 X116.1 Y108.43 E1.15054
G1 X116.044 Y108.371 E1.15325
G1 X115.907 Y108.207 E1.16036
G1 X115.796 Y108.049 E1.16678
G1 X115.704 Y107.883 E1.17309
G1 X115.613 Y107.662 E1.18104
G1 X115.591 Y107.595 E1.18339
G1 X115.538 Y107.388 E1.19049
G1 X115.509 Y107.194 E1.19702
G1 X115.501 Y107.009 E1.20318
G1 X115.508 Y106.828 E1.2092
G1 X115.542 Y106.59 E1.2172
G1 X115.557 Y106.527 E1.21935
G1 X115.622 Y106.313 E1.22679
G1 X115.694 Y106.14 E1.23302
G1 X115.745 Y106.042 E1.2367
G1 X115.851 Y105.868 E1.24347
G1 X115.895 Y105.807 E1.24597
G1 X116.027 Y105.648 E1.25285
G0 F6000 X110.118 Y111.215
G1 F1200 X110.208 Y111.382 E1.25916
G1 X110.256 Y111.486 E1.26297
G1 X110.314 Y111.65 E1.26875
G1 X110.343 Y111.749 E1.27218
G1 X110.365 Y111.842 E1.27536
G1 X110.397 Y112.041 E1.28207
G1 X110.403 Y112.126 E1.2849
G1 X110.403 Y112.363 E1.29278
G1 X110.389 Y112.518 E1.29796
G1 X110.348 Y112.729 E1.30511
G1 X110.287 Y112.932 E1.31216
G1 X110.257 Y113.008 E1.31488
G1 X110.164 Y113.203 E1.32206
G1 X110.072 Y113.357 E1.32803
G1 X109.998 Y113.462 E1.3323
G1 X109.887 Y113.595 E1.33806
G1 X109.737 Y113.742 E1.34505
G1 X109.561 Y113.883 E1.35255
G1 X109.409 Y113.981 E1.35856
G1 X109.221 Y114.076 E1.36557
G1 X109.139 Y114.111 E1.36854
G1 X108.963 Y114.171 E1.37472
G1 X108.744 Y114.221 E1.38219
G1 X108.467 Y114.249 E1.39145
G1 X108.248 Y114.243 E1.39874
G1 X108.17 Y114.235 E1.40135
G1 X107.957 Y114.198 E1.40854
G1 X107.756 Y114.141 E1.41549
G1 X107.681 Y114.114 E1.41814
G1 X107.505 Y114.035 E1.42455
G1 X107.339 Y113.94 E1.43091
G1 X107.158 Y113.812 E1.43829
G1 X106.96 Y113.632 E1.44719
G1 X106.798 Y113.436 E1.45565
G1 X106.746 Y113.364 E1.4586
G1 X106.694 Y113.283 E1.4618
G1 X106.633 Y113.176 E1.4659
G1 X106.562 Y113.02 E1.4716
G1 X106.498 Y112.843 E1.47786
G1 X106.445 Y112.638 E1.4849
G1 X106.416 Y112.44 E1.49156
G1 X106.407 Y112.257 E1.49765
G1 X106.415 Y112.062 E1.50414
G1 X106.443 Y111.872 E1.51053
G1 X106.465 Y111.777 E1.51377
G1 X106.501 Y111.648 E1.51823
G1 X106.571 Y111.456 E1.52502
G1 X106.654 Y111.273 E1.53171
G1 X106.814 Y111.043 E1.54103
G1 X106.933 Y110.899 E1.54724
G1 X107.082 Y110.753 E1.55418
G1 X107.226 Y110.637 E1.56033
G1 X107.397 Y110.525 E1.56713
G1 X107.5 Y110.467 E1.57106
G1 X107.68 Y110.387 E1.57761
G1 X107.857 Y110.327 E1.58383
G1 X108.067 Y110.279 E1.59099
G1 X108.245 Y110.255 E1.59696
G1 X108.454 Y110.251 E1.60392
G1 X108.551 Y110.256 E1.60715
G1 X108.779 Y110.285 E1.61479
G1 X109.052 Y110.357 E1.62418
G1 X109.298 Y110.459 E1.63304
G1 X109.493 Y110.571 E1.64052
G1 X109.647 Y110.682 E1.64683
G1 X109.731 Y110.752 E1.65047
G1 X109.872 Y110.887 E1.65696
G1 X109.991 Y111.03 E1.66315
G1 X110.118 Y111.215 E1.67061
G0 F6000 X109.771 Y111.415
G1 F1200 X109.845 Y111.549 E1.67571
G1 X109.884 Y111.634 E1.67882
G1 X109.93 Y111.762 E1.68334
G1 X109.971 Y111.913 E1.68854
G1 X109.993 Y112.036 E1.6927
G1 X110.003 Y112.141 E1.69621
G1 X109.998 Y112.421 E1.70552
G1 X109.971 Y112.581 E1.71092
G1 X109.91 Y112.797 E1.71838
G1 X109.816 Y113.006 E1.72601
G1 X109.768 Y113.091 E1.72925
G1 X109.671 Y113.23 E1.73489
G1 X109.594 Y113.322 E1.73888
G1 X109.472 Y113.443 E1.7446
G1 X109.28 Y113.59 E1.75264
G1 X109.146 Y113.668 E1.7578
G1 X109.062 Y113.709 E1.7609
G1 X108.926 Y113.764 E1.76578
G1 X108.851 Y113.787 E1.76839
G1 X108.687 Y113.825 E1.77399
G1 X108.471 Y113.849 E1.78122
G1 X108.275 Y113.844 E1.78774
G1 X108.132 Y113.825 E1.79254
G1 X107.975 Y113.789 E1.7979
G1 X107.76 Y113.714 E1.80547
G1 X107.685 Y113.678 E1.80824
G1 X107.589 Y113.624 E1.8119
G1 X107.404 Y113.496 E1.81938
G1 X107.279 Y113.387 E1.8249
G1 X107.118 Y113.196 E1.83321
G1 X107.04 Y113.081 E1.83783
G1 X106.985 Y112.985 E1.84151
G1 X106.927 Y112.857 E1.84618
G1 X106.881 Y112.727 E1.85077
G1 X106.835 Y112.549 E1.85688
G1 X106.809 Y112.326 E1.86435
G1 X106.807 Y112.253 E1.86678
G1 X106.815 Y112.092 E1.87214
G1 X106.837 Y111.943 E1.87715
G1 X106.882 Y111.771 E1.88306
G1 X106.942 Y111.606 E1.8889
G1 X107.004 Y111.471 E1.89385
G1 X107.139 Y111.277 E1.90171
G1 X107.281 Y111.114 E1.9089
G1 X107.339 Y111.06 E1.91153
G1 X107.43 Y110.984 E1.91548
G1 X107.606 Y110.866 E1.92252
G1 X107.741 Y110.796 E1.92758
G1 X107.828 Y110.759 E1.93073
G1 X107.972 Y110.711 E1.93577
G1 X108.131 Y110.674 E1.9412
G1 X108.231 Y110.658 E1.94457
G1 X108.454 Y110.651 E1.95199
G1 X108.721 Y110.681 E1.96093
G1 X108.931 Y110.739 E1.96818
G1 X109.123 Y110.819 E1.97509
G1 X109.341 Y110.952 E1.98359
G1 X109.462 Y111.048 E1.98872
G1 X109.541 Y111.122 E1.99232
G1 X109.673 Y111.273 E1.999
G1 X109.771 Y111.415 E2.00473
G0 F6000 X109.408 Y111.59
G1 F1200 X109.451 Y111.659 E2.00744
G1 X109.526 Y111.816 E2.01322
G1 X109.555 Y111.904 E2.01631
G1 X109.594 Y112.07 E2.02198
G1 X109.601 Y112.126 E2.02386
G1 X109.603 Y112.338 E2.03091
G1 X109.598 Y112.398 E2.03291
G1 X109.582 Y112.488 E2.03595
G1 X109.527 Y112.68 E2.04259
G1 X109.45 Y112.842 E2.04856
G1 X109.414 Y112.902 E2.05089
G1 X109.355 Y112.985 E2.05427
G1 X109.3 Y113.052 E2.05716
G1 X109.244 Y113.109 E2.05981
G1 X109.164 Y113.179 E2.06335
G1 X109.047 Y113.264 E2.06816
G1 X108.971 Y113.308 E2.07108
G1 X108.879 Y113.352 E2.07447
G1 X108.781 Y113.39 E2.07797
G1 X108.595 Y113.435 E2.08433
G1 X108.503 Y113.446 E2.08741
G1 X108.302 Y113.444 E2.0941
G1 X108.142 Y113.419 E2.09949
G1 X108.062 Y113.398 E2.10224
G1 X107.964 Y113.365 E2.10568
G1 X107.861 Y113.318 E2.10944
G1 X107.802 Y113.285 E2.11169
G1 X107.683 Y113.206 E2.11644
G1 X107.554 Y113.095 E2.1221
G1 X107.434 Y112.95 E2.12836
G1 X107.341 Y112.803 E2.13415
G1 X107.295 Y112.7 E2.1379
G1 X107.231 Y112.485 E2.14536
G1 X107.207 Y112.253 E2.15312
G1 X107.21 Y112.159 E2.15625
G1 X107.23 Y112.015 E2.16108
G1 X107.261 Y111.898 E2.16511
G1 X107.313 Y111.756 E2.17014
G1 X107.352 Y111.672 E2.17322
G1 X107.468 Y111.505 E2.17998
G1 X107.608 Y111.356 E2.18678
G1 X107.671 Y111.303 E2.18952
G1 X107.808 Y111.211 E2.19501
G1 X107.866 Y111.179 E2.19721
G1 X107.968 Y111.134 E2.20092
G1 X108.085 Y111.094 E2.20503
G1 X108.276 Y111.056 E2.21151
G1 X108.354 Y111.051 E2.21411
G1 X108.484 Y111.053 E2.21843
G1 X108.638 Y111.073 E2.2236
G1 X108.811 Y111.12 E2.22956
G1 X108.895 Y111.154 E2.23257
G1 X108.997 Y111.207 E2.2364
G1 X109.114 Y111.281 E2.241
G1 X109.187 Y111.34 E2.24412
G1 X109.268 Y111.415 E2.24779
G1 X109.326 Y111.48 E2.25069
G1 X109.408 Y111.59 E2.25525
G0 F6000 X109.074 Y111.811
G1 F1200 X109.132 Y111.914 E2.25919
G1 X109.155 Y111.967 E2.26111
G1 X109.175 Y112.027 E2.26321
G1 X109.201 Y112.146 E2.26726
G1 X109.203 Y112.32 E2.27305
G1 X109.189 Y112.412 E2.27615
G1 X109.154 Y112.534 E2.28037
G1 X109.105 Y112.638 E2.28419
G1 X109.072 Y112.692 E2.2863
G1 X109.03 Y112.751 E2.2887
G1 X108.92 Y112.862 E2.2939
G1 X108.815 Y112.937 E2.29819
G1 X108.701 Y112.993 E2.30242
G1 X108.653 Y113.011 E2.30412
G1 X108.537 Y113.039 E2.30809
G1 X108.464 Y113.048 E2.31054
G1 X108.317 Y113.044 E2.31543
G1 X108.222 Y113.027 E2.31864
G1 X108.132 Y113.001 E2.32176
G1 X108.05 Y112.965 E2.32473
G1 X107.982 Y112.927 E2.32733
G1 X107.895 Y112.864 E2.3309
G1 X107.843 Y112.817 E2.33323
G1 X107.754 Y112.71 E2.33786
G1 X107.721 Y112.661 E2.33982
G1 X107.668 Y112.553 E2.34382
G1 X107.627 Y112.424 E2.34833
G1 X107.611 Y112.318 E2.35189
G1 X107.609 Y112.19 E2.35615
G1 X107.617 Y112.125 E2.35833
G1 X107.632 Y112.055 E2.36071
G1 X107.702 Y111.868 E2.36735
G1 X107.78 Y111.756 E2.37189
G1 X107.857 Y111.67 E2.37573
G1 X107.918 Y111.618 E2.37839
G1 X108.046 Y111.536 E2.38345
G1 X108.102 Y111.511 E2.38549
G1 X108.199 Y111.478 E2.3889
G1 X108.331 Y111.452 E2.39337
G1 X108.434 Y111.451 E2.3968
G1 X108.561 Y111.466 E2.40105
G1 X108.686 Y111.501 E2.40537
G1 X108.75 Y111.528 E2.40768
G1 X108.875 Y111.602 E2.41251
G1 X108.975 Y111.688 E2.4169
G1 X109.012 Y111.728 E2.41871
G1 X109.074 Y111.811 E2.42216
G0 F6000 X108.77 Y112.083
G1 F1200 X108.794 Y112.152 E2.42459
