;FLAVOR:Marlin
;TIME:2697
;Filament used: 1.40042m
;Layer height: 0.2
;MINX:102.935
;MINY:102.94
;MINZ:0.2
;MAXX:132.065
;MAXY:132.09
;MAXZ:22
;Generated with Cura_SteamEngine 4.6.1
M140 S60
M105
M190 S60
M104 S205
M105
M109 S205
M82 ;absolute extrusion mode
; Ender 3 Custom Start G-code
G92 E0 ; Reset Extruder
G28 ; Home all axes
G1 Z2.0 F3000 ; Move Z Axis up little to prevent scratching of Heat Bed
G1 X0.1 Y20 Z0.3 F5000.0 ; Move to start position
G1 X0.1 Y200.0 Z0.3 F1500.0 E15 ; Draw the first line
G1 X0.4 Y200.0 Z0.3 F5000.0 ; Move to side a little
G1 X0.4 Y20 Z0.3 F1500.0 E30 ; Draw the second line
G92 E0 ; Reset Extruder
G1 Z2.0 F3000 ; Move Z Axis up little to prevent scratching of Heat Bed
G1 X5 Y20 Z0.3 F5000.0 ; Move over to prevent blob squish
G92 E0
G92 E0
G1 F1500 E-6.5
;LAYER_COUNT:110
;LAYER:0
M107
G0 F6000 X110.02 Y109.991 Z0.2
;TYPE:SKIRT
G1 F1500 E0
G1 F1200 X109.62 Y110.411 E0.01929
G1 X109.29 Y110.796 E0.03616
G1 X108.973 Y111.203 E0.05331
G1 X108.678 Y111.625 E0.07044
G1 X108.392 Y112.078 E0.08826
G1 X108.135 Y112.535 E0.1057
G1 X107.887 Y113.033 E0.1242
G1 X107.689 Y113.488 E0.1407
G1 X107.487 Y114.022 E0.15969
G1 X107.328 Y114.517 E0.17699
G1 X107.199 Y114.998 E0.19355
G1 X107.087 Y115.513 E0.21108
G1 X107.004 Y116.015 E0.228
G1 X106.947 Y116.511 E0.24461
G1 X106.908 Y117.097 E0.26414
G1 X106.9 Y117.595 E0.28071
G1 X106.914 Y118.021 E0.29488
G1 X106.942 Y118.458 E0.30945
G1 X106.962 Y118.662 E0.31627
G1 X107.026 Y119.119 E0.33161
G1 X107.139 Y119.727 E0.35218
G1 X107.262 Y120.241 E0.36976
G1 X107.357 Y120.578 E0.38141
G1 X107.409 Y120.744 E0.38719
G1 X107.59 Y121.259 E0.40535
G1 X107.775 Y121.713 E0.42165
G1 X108 Y122.2 E0.4395
G1 X108.248 Y122.669 E0.45714
G1 X108.525 Y123.138 E0.47526
G1 X108.822 Y123.584 E0.49308
G1 X109.142 Y124.018 E0.51102
G1 X109.45 Y124.393 E0.52716
G1 X109.808 Y124.791 E0.54496
G1 X110.207 Y125.192 E0.56378
G1 X110.569 Y125.518 E0.57998
G1 X110.998 Y125.871 E0.59846
G1 X111.415 Y126.177 E0.61566
G1 X111.853 Y126.47 E0.63319
G1 X112.345 Y126.762 E0.65222
G1 X112.767 Y126.983 E0.66806
G1 X113.204 Y127.191 E0.68416
G1 X113.56 Y127.342 E0.69702
G1 X113.735 Y127.41 E0.70326
G1 X114.209 Y127.575 E0.71996
G1 X114.555 Y127.683 E0.73201
G1 X114.717 Y127.728 E0.7376
G1 X115.185 Y127.843 E0.75363
G1 X115.629 Y127.934 E0.76871
G1 X115.807 Y127.965 E0.77472
G1 X116.307 Y128.033 E0.7915
G1 X116.857 Y128.08 E0.80986
G1 X117.376 Y128.099 E0.82713
G1 X117.723 Y128.098 E0.83867
G1 X117.902 Y128.092 E0.84463
G1 X118.448 Y128.055 E0.86283
G1 X118.953 Y127.997 E0.87974
G1 X119.464 Y127.914 E0.89696
G1 X119.965 Y127.806 E0.914
G1 X120.515 Y127.66 E0.93293
G1 X120.978 Y127.511 E0.94911
G1 X121.515 Y127.309 E0.96819
G1 X121.995 Y127.098 E0.98563
G1 X122.409 Y126.893 E1.001
G1 X122.717 Y126.728 E1.01262
G1 X122.887 Y126.63 E1.01914
G1 X123.328 Y126.353 E1.03646
G1 X123.624 Y126.153 E1.04835
G1 X123.762 Y126.053 E1.05401
G1 X124.158 Y125.747 E1.07066
G1 X124.587 Y125.38 E1.08944
G1 X124.97 Y125.022 E1.10687
G1 X125.215 Y124.772 E1.11852
G1 X125.335 Y124.642 E1.1244
G1 X125.661 Y124.263 E1.14103
G1 X126.016 Y123.81 E1.16017
G1 X126.32 Y123.378 E1.17774
G1 X126.608 Y122.922 E1.19568
G1 X126.865 Y122.465 E1.21312
G1 X127.112 Y121.97 E1.23152
G1 X127.311 Y121.511 E1.24815
G1 X127.505 Y121.001 E1.2663
G1 X127.611 Y120.685 E1.27739
G1 X127.661 Y120.52 E1.28312
G1 X127.774 Y120.099 E1.29762
G1 X127.877 Y119.661 E1.31259
G1 X127.917 Y119.465 E1.31924
G1 X128.001 Y118.938 E1.33699
G1 X128.061 Y118.397 E1.35509
G1 X128.092 Y117.895 E1.37182
G1 X128.1 Y117.405 E1.38812
G1 X128.086 Y116.978 E1.40233
G1 X128.058 Y116.544 E1.4168
G1 X128.039 Y116.348 E1.42335
G1 X127.98 Y115.911 E1.43801
G1 X127.911 Y115.5 E1.45187
G1 X127.873 Y115.315 E1.45816
G1 X127.759 Y114.837 E1.4745
G1 X127.599 Y114.281 E1.49374
G1 X127.488 Y113.949 E1.50539
G1 X127.426 Y113.781 E1.51134
G1 X127.234 Y113.308 E1.52832
G1 X127.088 Y112.978 E1.54032
G1 X126.999 Y112.794 E1.54712
G1 X126.751 Y112.328 E1.56468
G1 X126.5 Y111.901 E1.58115
G1 X126.302 Y111.592 E1.59336
G1 X126.205 Y111.45 E1.59908
G1 X125.906 Y111.044 E1.61585
G1 X125.561 Y110.617 E1.63411
G1 X125.323 Y110.345 E1.64613
G1 X125.204 Y110.217 E1.65194
G1 X124.884 Y109.895 E1.66704
G1 X124.586 Y109.614 E1.68066
G1 X124.43 Y109.477 E1.68757
G1 X124.102 Y109.209 E1.70166
G1 X123.776 Y108.957 E1.71536
G1 X123.617 Y108.843 E1.72187
G1 X123.148 Y108.531 E1.7406
G1 X122.661 Y108.242 E1.75944
G1 X122.219 Y108.009 E1.77606
G1 X121.797 Y107.81 E1.79158
G1 X121.347 Y107.623 E1.80778
G1 X120.767 Y107.417 E1.82825
G1 X120.291 Y107.274 E1.84479
G1 X119.935 Y107.182 E1.85702
G1 X119.759 Y107.143 E1.86301
G1 X119.292 Y107.054 E1.87882
G1 X118.701 Y106.969 E1.89868
G1 X118.143 Y106.92 E1.91731
G1 X117.624 Y106.901 E1.93459
G1 X117.277 Y106.902 E1.94613
G1 X116.552 Y106.945 E1.97028
G1 X116.047 Y107.003 E1.98719
G1 X115.536 Y107.086 E2.00441
G1 X115.035 Y107.194 E2.02145
G1 X114.485 Y107.34 E2.04038
G1 X114.022 Y107.489 E2.05656
G1 X113.483 Y107.691 E2.0757
G1 X113.014 Y107.898 E2.09275
G1 X112.556 Y108.125 E2.10976
G1 X112.079 Y108.392 E2.12794
G1 X111.648 Y108.664 E2.14489
G1 X111.219 Y108.965 E2.16232
G1 X110.793 Y109.293 E2.1802
G1 X110.514 Y109.528 E2.19233
G1 X110.396 Y109.634 E2.19761
G1 X110.02 Y109.991 E2.21485
G0 F6000 X109.887 Y109.699
G1 F1200 X110.273 Y109.343 E2.23232
G1 X110.708 Y108.978 E2.25121
G1 X111.143 Y108.645 E2.26943
G1 X111.543 Y108.374 E2.2855
G1 X112.087 Y108.039 E2.30675
G1 X112.502 Y107.815 E2.32243
G1 X113.028 Y107.563 E2.34183
G1 X113.462 Y107.379 E2.35751
G1 X114.06 Y107.16 E2.37869
G1 X114.521 Y107.017 E2.39474
G1 X115.102 Y106.868 E2.41469
G1 X115.594 Y106.768 E2.43139
G1 X116.094 Y106.692 E2.44821
G1 X116.707 Y106.63 E2.4687
G1 X117.201 Y106.604 E2.48516
G1 X117.795 Y106.604 E2.50491
G1 X118.285 Y106.629 E2.52123
G1 X118.834 Y106.68 E2.53957
G1 X119.345 Y106.759 E2.55677
G1 X119.936 Y106.877 E2.57681
G1 X120.445 Y107.006 E2.59428
G1 X120.974 Y107.169 E2.61269
G1 X121.413 Y107.328 E2.62822
G1 X122.508 Y107.82 E2.66815
G1 X122.955 Y108.065 E2.6851
G1 X123.461 Y108.379 E2.70491
G1 X123.871 Y108.656 E2.72136
G1 X124.287 Y108.973 E2.73876
G1 X124.667 Y109.293 E2.75528
G1 X125.116 Y109.706 E2.77557
G1 X125.484 Y110.082 E2.79307
G1 X125.824 Y110.466 E2.81013
G1 X126.171 Y110.898 E2.82856
G1 X126.508 Y111.365 E2.84772
G1 X126.787 Y111.796 E2.86479
G1 X127.093 Y112.328 E2.8852
G1 X127.297 Y112.723 E2.89999
G1 X127.521 Y113.211 E2.91785
G1 X127.75 Y113.799 E2.93884
G1 X127.905 Y114.251 E2.95473
G1 X128.055 Y114.777 E2.97292
G1 X128.166 Y115.259 E2.98937
G1 X128.26 Y115.784 E3.00711
G1 X128.342 Y116.417 E3.02834
G1 X128.383 Y116.928 E3.04539
G1 X128.4 Y117.499 E3.06439
G1 X128.384 Y118.024 E3.08186
G1 X128.341 Y118.611 E3.10144
G1 X128.283 Y119.096 E3.11769
G1 X128.192 Y119.627 E3.1356
G1 X128.066 Y120.175 E3.15431
G1 X127.927 Y120.676 E3.1716
G1 X127.758 Y121.182 E3.18934
G1 X127.555 Y121.708 E3.20809
G1 X127.323 Y122.222 E3.22685
G1 X127.093 Y122.669 E3.24357
G1 X126.816 Y123.161 E3.26235
G1 X126.494 Y123.655 E3.28196
G1 X126.234 Y124.018 E3.29681
G1 X125.813 Y124.549 E3.31935
G1 X125.498 Y124.905 E3.33516
G1 X125.113 Y125.298 E3.35346
G1 X124.729 Y125.654 E3.37088
G1 X124.283 Y126.032 E3.39032
G1 X123.842 Y126.365 E3.4087
G1 X123.472 Y126.618 E3.42361
G1 X122.961 Y126.933 E3.44358
G1 X122.485 Y127.19 E3.46157
G1 X121.967 Y127.441 E3.48071
G1 X121.528 Y127.625 E3.49654
G1 X120.929 Y127.844 E3.51776
G1 X120.487 Y127.982 E3.53316
G1 X119.935 Y128.123 E3.55211
G1 X119.366 Y128.237 E3.57141
G1 X118.829 Y128.318 E3.58947
G1 X117.804 Y128.421 E3.62373
G1 X116.594 Y128.36 E3.66403
G1 X116.16 Y128.316 E3.67854
G1 X115.606 Y128.231 E3.69718
G1 X115.325 Y128.174 E3.70672
G1 X114.497 Y127.976 E3.73503
G1 X114.063 Y127.843 E3.75013
G1 X113.534 Y127.65 E3.76886
G1 X113.01 Y127.431 E3.78775
G1 X112.529 Y127.2 E3.8055
G1 X112.097 Y126.964 E3.82187
G1 X111.608 Y126.668 E3.84088
G1 X111.13 Y126.341 E3.86014
G1 X110.71 Y126.026 E3.8776
G1 X110.302 Y125.679 E3.89542
G1 X109.859 Y125.272 E3.91543
G1 X109.542 Y124.945 E3.93058
G1 X109.138 Y124.491 E3.95079
G1 X108.787 Y124.047 E3.96961
G1 X108.507 Y123.661 E3.98547
G1 X108.202 Y123.186 E4.00425
G1 X107.932 Y122.72 E4.02216
G1 X107.687 Y122.24 E4.04009
G1 X107.439 Y121.692 E4.06009
G1 X107.264 Y121.245 E4.07606
G1 X107.087 Y120.711 E4.09477
G1 X106.954 Y120.246 E4.11086
G1 X106.821 Y119.661 E4.13081
G1 X106.72 Y119.086 E4.15023
G1 X106.662 Y118.61 E4.16618
G1 X106.618 Y118.054 E4.18473
G1 X106.601 Y117.515 E4.20266
G1 X106.616 Y116.947 E4.22156
G1 X106.651 Y116.426 E4.23893
G1 X106.722 Y115.889 E4.25694
G1 X106.812 Y115.358 E4.27486
G1 X106.93 Y114.852 E4.29214
G1 X107.084 Y114.297 E4.31129
G1 X107.274 Y113.725 E4.33134
G1 X107.448 Y113.284 E4.34711
G1 X107.672 Y112.789 E4.36518
G1 X107.936 Y112.274 E4.38443
G1 X108.192 Y111.83 E4.40148
G1 X108.523 Y111.313 E4.42189
G1 X108.755 Y110.994 E4.43501
G1 X109.162 Y110.483 E4.45674
G1 X109.506 Y110.094 E4.47401
G1 X109.887 Y109.699 E4.49227
G0 F6000 X109.611 Y109.41
G1 F1200 X110.005 Y109.046 E4.51011
G1 X110.469 Y108.658 E4.53022
G1 X110.902 Y108.326 E4.54837
G1 X111.341 Y108.028 E4.56602
G1 X111.885 Y107.693 E4.58727
G1 X112.326 Y107.455 E4.60394
G1 X112.851 Y107.203 E4.6233
G1 X113.324 Y107.003 E4.64039
G1 X113.925 Y106.783 E4.66167
G1 X114.41 Y106.633 E4.67856
G1 X115.015 Y106.477 E4.69934
G1 X115.517 Y106.375 E4.71638
G1 X116.035 Y106.297 E4.7338
G1 X116.684 Y106.231 E4.7555
G1 X117.2 Y106.204 E4.77268
G1 X117.797 Y106.204 E4.79254
G1 X118.318 Y106.231 E4.80989
G1 X118.885 Y106.283 E4.82883
G1 X119.411 Y106.365 E4.84653
G1 X120.034 Y106.489 E4.86766
G1 X120.558 Y106.622 E4.88564
G1 X121.096 Y106.787 E4.90436
G1 X121.563 Y106.957 E4.92089
G1 X122.682 Y107.459 E4.96168
G1 X123.15 Y107.716 E4.97944
G1 X123.672 Y108.04 E4.99987
G1 X124.117 Y108.339 E5.0177
G1 X124.526 Y108.651 E5.03481
G1 X124.93 Y108.992 E5.0524
G1 X125.39 Y109.415 E5.07318
G1 X125.776 Y109.809 E5.09153
G1 X126.133 Y110.213 E5.10946
G1 X126.495 Y110.663 E5.12867
G1 X126.83 Y111.126 E5.14768
G1 X127.134 Y111.598 E5.16635
G1 X127.446 Y112.14 E5.18715
G1 X127.655 Y112.543 E5.20225
G1 X127.894 Y113.066 E5.22137
G1 X128.126 Y113.661 E5.24261
G1 X128.285 Y114.122 E5.25883
G1 X128.443 Y114.68 E5.27812
G1 X128.559 Y115.186 E5.29539
G1 X128.656 Y115.721 E5.31347
G1 X128.741 Y116.376 E5.33544
G1 X128.782 Y116.897 E5.35282
G1 X128.8 Y117.486 E5.37242
G1 X128.784 Y118.039 E5.39082
G1 X128.74 Y118.644 E5.411
G1 X128.679 Y119.153 E5.42805
G1 X128.587 Y119.689 E5.44614
G1 X128.448 Y120.296 E5.46685
G1 X128.313 Y120.782 E5.48362
G1 X128.133 Y121.321 E5.50253
G1 X127.919 Y121.874 E5.52225
G1 X127.69 Y122.383 E5.54081
G1 X127.449 Y122.851 E5.55832
G1 X127.155 Y123.372 E5.57822
G1 X126.821 Y123.885 E5.59858
G1 X126.553 Y124.26 E5.61391
G1 X126.13 Y124.793 E5.63654
G1 X125.79 Y125.177 E5.6536
G1 X125.378 Y125.599 E5.67321
G1 X125.005 Y125.945 E5.69014
G1 X124.539 Y126.339 E5.71043
G1 X124.073 Y126.691 E5.72986
G1 X123.681 Y126.959 E5.74565
G1 X123.163 Y127.279 E5.7659
G1 X122.691 Y127.534 E5.78374
G1 X122.124 Y127.809 E5.8047
G1 X121.659 Y128.003 E5.82146
G1 X121.066 Y128.221 E5.84248
G1 X120.594 Y128.368 E5.85892
G1 X120.034 Y128.511 E5.87814
G1 X119.421 Y128.634 E5.89894
G1 X118.886 Y128.714 E5.91693
G1 X117.817 Y128.821 E5.95266
G1 X116.555 Y128.758 E5.99469
G1 X116.116 Y128.714 E6.00936
G1 X115.532 Y128.624 E6.02902
G1 X115.236 Y128.565 E6.03905
G1 X114.394 Y128.363 E6.06785
G1 X113.929 Y128.22 E6.08403
G1 X113.388 Y128.023 E6.10318
G1 X112.853 Y127.799 E6.12247
G1 X112.351 Y127.558 E6.141
G1 X111.89 Y127.306 E6.15847
G1 X111.389 Y127.002 E6.17796
G1 X110.882 Y126.655 E6.1984
G1 X110.468 Y126.346 E6.21558
G1 X110.041 Y125.983 E6.23422
G1 X109.569 Y125.549 E6.25554
G1 X109.25 Y125.219 E6.27081
G1 X108.834 Y124.752 E6.29161
G1 X108.466 Y124.287 E6.31133
G1 X108.176 Y123.886 E6.32779
G1 X107.859 Y123.392 E6.34732
G1 X107.583 Y122.917 E6.36559
G1 X107.317 Y122.395 E6.38507
G1 X107.075 Y121.858 E6.40467
G1 X106.889 Y121.386 E6.42154
G1 X106.702 Y120.822 E6.4413
G1 X106.566 Y120.348 E6.4577
G1 X106.43 Y119.746 E6.47823
G1 X106.325 Y119.149 E6.49839
G1 X106.266 Y118.665 E6.51461
G1 X106.219 Y118.072 E6.53439
G1 X106.201 Y117.501 E6.5534
G1 X106.215 Y116.941 E6.57203
G1 X106.253 Y116.392 E6.59033
G1 X106.329 Y115.816 E6.60965
G1 X106.425 Y115.25 E6.62875
G1 X106.548 Y114.732 E6.64646
G1 X106.7 Y114.185 E6.66534
G1 X106.899 Y113.584 E6.6864
G1 X107.084 Y113.117 E6.7031
G1 X107.307 Y112.624 E6.7211
G1 X107.581 Y112.089 E6.74109
G1 X107.852 Y111.62 E6.75911
G1 X108.203 Y111.072 E6.78075
G1 X108.44 Y110.745 E6.79418
G1 X108.851 Y110.229 E6.81612
G1 X109.201 Y109.834 E6.83368
G1 X109.611 Y109.41 E6.8533
G0 F6000 X109.326 Y109.129
G1 F1200 X109.749 Y108.738 E6.87245
G1 X110.201 Y108.359 E6.89207
G1 X110.683 Y107.99 E6.91226
G1 X111.11 Y107.701 E6.92941
G1 X111.685 Y107.346 E6.95189
G1 X112.133 Y107.105 E6.96881
G1 X112.692 Y106.837 E6.98943
G1 X113.175 Y106.632 E7.00688
G1 X113.819 Y106.396 E7.02969
G1 X114.299 Y106.248 E7.0464
G1 X114.914 Y106.089 E7.06752
G1 X115.456 Y105.979 E7.08592
G1 X115.976 Y105.901 E7.10341
G1 X116.662 Y105.831 E7.12634
G1 X117.179 Y105.804 E7.14356
G1 X117.817 Y105.804 E7.16478
G1 X118.328 Y105.83 E7.1818
G1 X118.934 Y105.886 E7.20204
G1 X119.508 Y105.975 E7.22136
G1 X120.109 Y106.096 E7.24175
G1 X120.659 Y106.234 E7.26061
G1 X121.23 Y106.41 E7.28048
G1 X121.714 Y106.586 E7.29761
G1 X122.869 Y107.106 E7.33974
G1 X123.353 Y107.371 E7.3581
G1 X123.883 Y107.7 E7.37884
G1 X124.341 Y108.008 E7.3972
G1 X124.786 Y108.347 E7.41581
G1 X125.188 Y108.685 E7.43328
G1 X125.674 Y109.133 E7.45526
G1 X126.07 Y109.537 E7.47408
G1 X126.433 Y109.948 E7.49231
G1 X126.818 Y110.428 E7.51278
G1 X127.158 Y110.896 E7.53202
G1 X127.481 Y111.398 E7.55187
G1 X127.793 Y111.94 E7.57267
G1 X128.017 Y112.371 E7.58883
G1 X128.262 Y112.909 E7.60849
G1 X128.497 Y113.512 E7.63002
G1 X128.668 Y114.008 E7.64747
G1 X128.832 Y114.583 E7.66735
G1 X128.951 Y115.104 E7.68513
G1 X129.048 Y115.644 E7.70338
G1 X129.14 Y116.35 E7.72706
G1 X129.182 Y116.882 E7.74481
G1 X129.2 Y117.459 E7.76401
G1 X129.184 Y118.039 E7.78331
G1 X129.137 Y118.698 E7.80528
G1 X129.076 Y119.211 E7.82246
G1 X128.981 Y119.766 E7.84119
G1 X128.834 Y120.401 E7.86287
G1 X128.697 Y120.895 E7.87992
G1 X128.513 Y121.446 E7.89924
G1 X128.292 Y122.019 E7.91967
G1 X128.041 Y122.575 E7.93996
G1 X127.808 Y123.028 E7.9569
G1 X127.492 Y123.588 E7.97829
G1 X127.157 Y124.103 E7.99872
G1 X126.881 Y124.489 E8.0145
G1 X126.419 Y125.07 E8.03919
G1 X126.084 Y125.449 E8.05602
G1 X125.664 Y125.879 E8.07601
G1 X125.269 Y126.245 E8.09392
G1 X124.773 Y126.665 E8.11554
G1 X124.327 Y127.002 E8.13413
G1 X123.893 Y127.298 E8.1516
G1 X123.355 Y127.63 E8.17263
G1 X122.867 Y127.893 E8.19107
G1 X122.296 Y128.171 E8.21219
G1 X121.811 Y128.373 E8.22966
G1 X121.202 Y128.597 E8.25124
G1 X120.697 Y128.754 E8.26883
G1 X120.114 Y128.902 E8.28884
G1 X119.497 Y129.026 E8.30977
G1 X118.926 Y129.112 E8.32898
G1 X117.823 Y129.223 E8.36585
G1 X116.534 Y129.158 E8.40878
G1 X116.074 Y129.112 E8.42415
G1 X115.455 Y129.017 E8.44498
G1 X115.141 Y128.953 E8.45564
G1 X114.294 Y128.751 E8.4846
G1 X113.801 Y128.599 E8.50176
G1 X113.242 Y128.395 E8.52155
G1 X112.681 Y128.16 E8.54178
G1 X112.157 Y127.909 E8.56111
G1 X111.695 Y127.657 E8.57861
G1 X111.164 Y127.333 E8.5993
G1 X110.663 Y126.991 E8.61947
G1 X110.214 Y126.655 E8.63813
G1 X109.755 Y126.264 E8.65818
G1 X109.308 Y125.853 E8.67838
G1 X108.956 Y125.49 E8.69519
G1 X108.53 Y125.01 E8.71654
G1 X108.134 Y124.511 E8.73773
G1 X107.853 Y124.124 E8.75364
G1 X107.512 Y123.592 E8.77465
G1 X107.235 Y123.113 E8.79306
G1 X106.955 Y122.566 E8.81349
G1 X106.703 Y122.006 E8.83392
G1 X106.52 Y121.541 E8.85054
G1 X106.316 Y120.926 E8.87209
G1 X106.175 Y120.432 E8.88918
G1 X106.038 Y119.826 E8.90984
G1 X105.929 Y119.21 E8.93065
G1 X105.867 Y118.695 E8.9479
G1 X105.818 Y118.041 E8.96971
G1 X105.801 Y117.503 E8.98762
G1 X105.816 Y116.927 E9.00678
G1 X105.855 Y116.345 E9.02618
G1 X105.933 Y115.759 E9.04584
G1 X106.033 Y115.17 E9.06571
G1 X106.161 Y114.631 E9.08414
G1 X106.321 Y114.054 E9.10406
