(Block-name: Header)
(Block-expand: 0)
(Block-enable: 1)
%
(Header)
(Generated by gcodetools from Inkscape.)
(Using default header. To add your own header create file "header" in the output dir.)
M3
(Header end.)
G21 (All units in mm)

(Start cutting path id: path3018)
(Change tool to Cylindrical cutter)

G0 Z0.1
(Block-name: block)
(Block-expand: 0)
(Block-enable: 1)
G0 X12.1703 Y-26.6406

G1 Z-0.05 F10000.0
G2 X12.3867 Y-24.4626 Z-0.05 I11.181 J-0.011 F5000
G2 X12.894 Y-23.0158 Z-0.05 I5.3798 J-1.0741
G2 X13.3122 Y-22.387 Z-0.05 I3.0737 J-1.591
G2 X14.084 Y-21.5924 Z-0.05 I5.7045 J-4.7686
G3 X14.5731 Y-21.1449 Z-0.05 I-14.2459 J16.0572
G1 X14.5733 Y-21.1304 Z-0.05
G1 X14.5261 Y-21.1211 Z-0.05
G3 X13.6103 Y-21.5262 Z-0.05 I7.091 J-17.2676
G3 X12.4538 Y-22.4994 Z-0.05 I1.2796 J-2.6943
G3 X11.2556 Y-24.8591 Z-0.05 I7.4684 J-5.2764
G2 X11.0352 Y-25.4861 Z-0.05 I-23.6506 J7.9612
G2 X11.0102 Y-25.5286 Z-0.05 I-0.1295 J0.0475
G2 X10.7069 Y-25.6171 Z-0.05 I-0.2205 J0.1918
G2 X9.9997 Y-25.2297 Z-0.05 I0.5381 J1.8211
G2 X9.9474 Y-25.0278 Z-0.05 I0.1202 J0.1389
G2 X10.7902 Y-23.0648 Z-0.05 I18.1162 J-6.615
G2 X11.9082 Y-21.4209 Z-0.05 I6.5605 J-3.2594
G2 X13.0469 Y-20.5602 Z-0.05 I2.8035 J-2.5258
G1 X13.0336 Y-20.4985 Z-0.05
G3 X12.7005 Y-20.5489 Z-0.05 I-0.0302 J-0.9257
G3 X10.9557 Y-21.4468 Z-0.05 I2.2735 J-6.5627
G3 X10.0626 Y-22.4205 Z-0.05 I1.8198 J-2.5655
G2 X9.9255 Y-22.6157 Z-0.05 I-1.2648 J0.7428
G2 X9.8842 Y-22.6351 Z-0.05 I-0.0413 J0.0343
G2 X9.8349 Y-22.6232 Z-0.05 I0 J0.108
G2 X9.3842 Y-22.3791 Z-0.05 I5.0709 J9.9035
G1 X8.9366 Y-22.123 Z-0.05
G1 X9.1191 Y-21.8359 Z-0.05
G2 X10.3287 Y-20.5509 Z-0.05 I3.9587 J-2.5148
G2 X12.3385 Y-19.5068 Z-0.05 I4.5265 J-6.2568
G2 X14.0195 Y-19.1031 Z-0.05 I2.9308 J-8.5021
G2 X15.5551 Y-19.0556 Z-0.05 I0.9862 J-7.0273
G2 X16.7338 Y-19.2467 Z-0.05 I-0.555 J-7.1521
G2 X16.9468 Y-19.4024 Z-0.05 I-0.0845 J-0.3392
G3 X16.9865 Y-19.4365 Z-0.05 I0.0698 J0.041
G3 X17.0635 Y-19.4513 Z-0.05 I0.0771 J0.1921
G1 X17.111 Y-19.4087 Z-0.05
G3 X17.5969 Y-14.4606 Z-0.05 I-288.3034 J30.8119
G2 X18.0463 Y-9.4703 Z-0.05 I5279.8725 J-472.8956
G2 X18.0703 Y-9.2317 Z-0.05 I11.9446 J-1.0812
G1 X18.0967 Y-8.9934 Z-0.05
G1 X17.4707 Y-9.2629 Z-0.05
G2 X15.6449 Y-9.9533 Z-0.05 I-8.5709 J19.9049
G2 X13.824 Y-10.4573 Z-0.05 I-6.3246 J19.3114
G3 X13.3383 Y-10.5803 Z-0.05 I2.2564 J-9.9294
G1 X13.3108 Y-10.6011 Z-0.05
G3 X13.2965 Y-10.6342 Z-0.05 I0.0991 J-0.0624
G3 X12.2918 Y-14.5492 Z-0.05 I1434.9306 J-370.3657
G2 X11.2883 Y-18.4642 Z-0.05 I-1931.879 J493.0826
G2 X11.2789 Y-18.484 Z-0.05 I-0.056 J0.0144
G1 X11.2605 Y-18.4921 Z-0.05
G2 X10.878 Y-18.4161 Z-0.05 I1.2768 J7.4274
G3 X10.49 Y-18.3492 Z-0.05 I-0.8944 J-4.0337
G3 X10.3686 Y-18.3532 Z-0.05 I-0.048 J-0.389
G2 X10.2552 Y-18.3554 Z-0.05 I-0.0642 J0.3797
G1 X10.2199 Y-18.3334 Z-0.05
G3 X9.9573 Y-18.2531 Z-0.05 I-0.1771 J-0.1095
G3 X8.0223 Y-19.324 Z-0.05 I5.5371 J-12.2883
G3 X7.2529 Y-19.9941 Z-0.05 I2.1993 J-3.3017
G3 X6.7415 Y-20.7686 Z-0.05 I2.4593 J-2.1801
G3 X6.4334 Y-21.5659 Z-0.05 I5.3056 J-2.5083
G3 X6.1272 Y-22.7843 Z-0.05 I12.1267 J-3.6961
G2 X5.9976 Y-23.4102 Z-0.05 I-41.5115 J8.265
G1 X5.9904 Y-23.4213 Z-0.05
G1 X5.977 Y-23.425 Z-0.05
G2 X5.4608 Y-23.3307 Z-0.05 I5.8696 J33.5664
G2 X5.1048 Y-23.0952 Z-0.05 I0.1034 J0.5432
G2 X5.0184 Y-22.6702 Z-0.05 I0.4744 J0.3177
G2 X5.3872 Y-21.1897 Z-0.05 I13.6254 J-2.6079
G2 X5.7806 Y-20.199 Z-0.05 I6.4654 J-1.994
G2 X6.4291 Y-19.2448 Z-0.05 I3.7058 J-1.8212
G2 X7.4135 Y-18.4005 Z-0.05 I3.8598 J-3.504
G3 X7.9563 Y-18.0114 Z-0.05 I-4.939 J7.4622
G1 X7.9477 Y-17.9863 Z-0.05
G3 X7.857 Y-17.9955 Z-0.05 I-0 J-0.4529
G3 X7.3106 Y-18.1168 Z-0.05 I3.3342 J-16.3047
G3 X6.5402 Y-18.4302 Z-0.05 I0.6403 J-2.6777
G3 X5.8246 Y-19.0038 Z-0.05 I1.7119 J-2.869
G3 X5.2817 Y-19.6826 Z-0.05 I3.8063 J-3.601
G3 X4.5896 Y-20.8417 Z-0.05 I10.5113 J-7.0624
G2 X4.2697 Y-21.4478 Z-0.05 I-284.4049 J149.7354
G2 X4.2633 Y-21.4588 Z-0.05 I-0.1468 J0.0777
G1 X4.2544 Y-21.4612 Z-0.05
G2 X3.7641 Y-21.2153 Z-0.05 I10.8702 J22.2878
G1 X3.2717 Y-20.9614 Z-0.05
G1 X3.5858 Y-20.3709 Z-0.05
G2 X4.5182 Y-18.8645 Z-0.05 I11.9644 J-6.3639
G2 X5.3064 Y-17.9591 Z-0.05 I5.063 J-3.612
G2 X6.0783 Y-17.3888 Z-0.05 I2.7172 J-2.8698
G2 X6.8713 Y-17.0742 Z-0.05 I1.538 J-2.72
G1 X7.2423 Y-16.983 Z-0.05
G1 X6.9583 Y-16.9802 Z-0.05
G3 X6.2608 Y-17.0377 Z-0.05 I-0.0537 J-3.6069
G3 X5.4387 Y-17.2542 Z-0.05 I0.9727 J-5.3624
G3 X4.6702 Y-17.6189 Z-0.05 I1.3145 J-3.762
G3 X4.0791 Y-18.088 Z-0.05 I1.6371 J-2.67
G1 X3.7462 Y-18.4248 Z-0.05
G1 X3.3465 Y-18.1055 Z-0.05
G2 X2.9567 Y-17.7794 Z-0.05 I6.9328 J8.6827
G2 X2.9323 Y-17.7426 Z-0.05 I0.0557 J0.0635
G2 X2.9644 Y-17.5967 Z-0.05 I0.1381 J0.046
G2 X3.6732 Y-16.9567 Z-0.05 I4.3271 J-4.0795
G2 X4.6357 Y-16.3879 Z-0.05 I2.8343 J-3.6975
G2 X5.8777 Y-15.9893 Z-0.05 I2.5505 J-5.8132
G2 X7.0063 Y-15.8533 Z-0.05 I1.34 J-6.3692
G2 X8.1911 Y-15.914 Z-0.05 I0.2306 J-7.0952
G2 X9.5849 Y-16.2612 Z-0.05 I-0.8842 J-6.521
G2 X10.3511 Y-16.711 Z-0.05 I-0.8719 J-2.3629
G3 X10.5467 Y-16.8697 Z-0.05 I3.1558 J3.6874
G1 X10.5531 Y-16.8667 Z-0.05
G2 X10.5556 Y-16.8514 Z-0.05 I0.0839 J-0.0056
G2 X11.3323 Y-13.818 Z-0.05 I2198.6899 J-561.3485
G3 X12.104 Y-10.7874 Z-0.05 I-750.1492 J192.6239
G1 X12.1006 Y-10.7752 Z-0.05
G1 X12.0882 Y-10.7708 Z-0.05
G3 X11.7637 Y-10.8097 Z-0.05 I0.6321 J-6.6374
G2 X9.5892 Y-10.9647 Z-0.05 I-2.26 J16.3833
G2 X6.9896 Y-10.8352 Z-0.05 I-0.1226 J23.7076
G2 X0.6755 Y-9.3324 Z-0.05 I2.6617 J25.1993
G2 X-6.8582 Y-5.5897 Z-0.05 I15.0737 J39.7951
G2 X-9.237 Y-3.9275 Z-0.05 I15.4801 J24.6882
G2 X-11.172 Y-2.2443 Z-0.05 I13.9739 J18.017
G2 X-13.8957 Y0.9295 Z-0.05 I16.3719 J16.8059
G2 X-16.2584 Y4.8805 Z-0.05 I23.143 J16.5215
G2 X-17.4932 Y7.7165 Z-0.05 I29.3587 J14.4698
G2 X-18.5837 Y10.9955 Z-0.05 I38.1824 J14.5195
G2 X-19.1326 Y13.0565 Z-0.05 I55.5241 J15.8894
G2 X-19.4686 Y14.5837 Z-0.05 I30.1037 J7.424
G3 X-19.5806 Y15.1388 Z-0.05 I-35.5942 J-6.8957
G3 X-19.6254 Y15.3303 Z-0.05 I-4.2466 J-0.8917
G1 X-19.6745 Y15.5211 Z-0.05
G1 X-20.9231 Y14.3488 Z-0.05
G2 X-22.1726 Y13.1773 Z-0.05 I-709.2416 J755.2305
G2 X-22.1853 Y13.1674 Z-0.05 I-0.0605 J0.0646
G1 X-22.1887 Y13.1546 Z-0.05
G3 X-22.0213 Y12.7841 Z-0.05 I9.863 J4.2342
G2 X-21.3753 Y10.6004 Z-0.05 I-6.6289 J-3.1483
G2 X-21.6098 Y9.681 Z-0.05 I-1.2629 J-0.1675
G2 X-21.6868 Y9.6534 Z-0.05 I-0.0589 J0.0431
G2 X-22.0853 Y9.8025 Z-0.05 I0.4898 J1.9167
G3 X-22.501 Y9.9975 Z-0.05 I-3.7987 J-7.5564
G3 X-22.5622 Y10.0103 Z-0.05 I-0.0613 J-0.1404
G1 X-22.5969 Y10.0402 Z-0.05
G2 X-22.6313 Y10.4777 Z-0.05 I3.185 J0.4706
G3 X-22.6537 Y10.9432 Z-0.05 I-6.1079 J-0.0604
G3 X-22.6977 Y11.2483 Z-0.05 I-2.6902 J-0.2325
G3 X-22.9646 Y12.2784 Z-0.05 I-9.8162 J-1.9932
G3 X-23.0416 Y12.3348 Z-0.05 I-0.077 J-0.0244
G1 X-23.0702 Y12.3236 Z-0.05
G3 X-24.801 Y10.7073 Z-0.05 I171.5698 J-185.4539
G1 X-25.1604 Y10.3684 Z-0.05
G1 X-25.5517 Y10.7619 Z-0.05
G1 X-25.943 Y11.1557 Z-0.05
G1 X-24.8532 Y12.1794 Z-0.05
G3 X-23.794 Y13.2073 Z-0.05 I-31.0531 J33.0571
G1 X-23.7896 Y13.2455 Z-0.05
G3 X-23.8252 Y13.2736 Z-0.05 I-0.0584 J-0.0373
G3 X-24.0978 Y13.3511 Z-0.05 I-0.8064 J-2.3187
G3 X-24.3801 Y13.3824 Z-0.05 I-0.2822 J-1.2582
G3 X-24.6908 Y13.3511 Z-0.05 I-0 J-1.5598
G3 X-25.3586 Y13.1256 Z-0.05 I0.5734 J-2.7995
G3 X-26.2053 Y12.6207 Z-0.05 I2.4239 J-5.0269
G2 X-26.6031 Y12.3461 Z-0.05 I-6.5984 J9.1344
G2 X-26.6348 Y12.3376 Z-0.05 I-0.0287 J0.0435
G1 X-26.663 Y12.351 Z-0.05
G2 X-26.9863 Y12.7668 Z-0.05 I8.8405 J7.2068
G1 X-27.3029 Y13.194 Z-0.05
G1 X-26.961 Y13.4451 Z-0.05
G2 X-24.9574 Y14.4096 Z-0.05 I3.5797 J-4.8731
G2 X-23.5788 Y14.3584 Z-0.05 I0.6067 J-2.2473
G2 X-23.2974 Y14.2425 Z-0.05 I-0.9539 J-2.7152
G2 X-23.0982 Y14.1299 Z-0.05 I-0.6951 J-1.4627
G1 X-22.9063 Y14.0031 Z-0.05
G1 X-21.4145 Y15.4019 Z-0.05
G3 X-19.9427 Y16.8094 Z-0.05 I-71.3226 J76.0528
G3 X-19.9243 Y16.8551 Z-0.05 I-0.0428 J0.0439
G3 X-19.9295 Y16.9087 Z-0.05 I-0.3979 J-0.0113
G3 X-20.1674 Y18.3241 Z-0.05 I-284.9863 J-47.1816
G3 X-20.4381 Y19.7088 Z-0.05 I-28.9302 J-4.9365
G3 X-20.4816 Y19.7489 Z-0.05 I-0.0504 J-0.0111
G3 X-20.5524 Y19.7415 Z-0.05 I-0.0205 J-0.145
G3 X-23.1809 Y18.7634 Z-0.05 I81.6147 J-223.3656
G1 X-25.8075 Y17.7683 Z-0.05
G1 X-25.7837 Y17.5155 Z-0.05
G2 X-25.7623 Y16.4928 Z-0.05 I-6.9992 J-0.6579
G2 X-25.8851 Y15.5638 Z-0.05 I-5.8913 J0.3061
G2 X-26.1704 Y14.5866 Z-0.05 I-6.8222 J1.4611
G2 X-26.3465 Y14.327 Z-0.05 I-0.6206 J0.2315
G2 X-26.4446 Y14.316 Z-0.05 I-0.0567 J0.0626
G2 X-26.8091 Y14.5877 Z-0.05 I0.8776 J1.5576
G3 X-27.1741 Y14.9356 Z-0.05 I-28.0727 J-29.0882
G3 X-27.19 Y14.9461 Z-0.05 I-0.0381 J-0.0405
G1 X-27.1964 Y14.9574 Z-0.05
G2 X-27.079 Y15.3614 Z-0.05 I8.6883 J-2.3058
G3 X-26.8686 Y16.3818 Z-0.05 I-4.8476 J1.5312
G3 X-26.8835 Y17.2973 Z-0.05 I-3.9068 J0.3946
G3 X-27.2392 Y18.3258 Z-0.05 I-2.7159 J-0.3634
G3 X-27.7915 Y18.8368 Z-0.05 I-1.1276 J-0.665
G3 X-28.0874 Y18.9342 Z-0.05 I-0.5011 J-1.0234
G3 X-28.662 Y18.9961 Z-0.05 I-0.7065 J-3.8593
G3 X-29.2444 Y18.9876 Z-0.05 I-0.2036 J-5.9772
G3 X-29.6262 Y18.9333 Z-0.05 I0.1569 J-2.472
G3 X-30.0053 Y18.8513 Z-0.05 I103.2479 J-478.2087
G2 X-30.1368 Y18.8229 Z-0.05 I-19.0717 J87.9953
G2 X-30.226 Y18.8622 Z-0.05 I-0.0178 J0.0805
G2 X-30.379 Y19.2419 Z-0.05 I1.2631 J0.7297
G3 X-30.4914 Y19.6882 Z-0.05 I-57.6796 J-14.2831
G3 X-30.5154 Y19.7747 Z-0.05 I-2.1746 J-0.5564
G2 X-30.496 Y19.8352 Z-0.05 I0.0538 J0.0162
G2 X-30.3319 Y19.9168 Z-0.05 I0.2855 J-0.3683
G2 X-28.4447 Y20.1243 Z-0.05 I1.6144 J-5.9967
G2 X-27.1839 Y19.7783 Z-0.05 I-0.1294 J-2.9417
G2 X-26.7282 Y19.4575 Z-0.05 I-1.0842 J-2.0239
G2 X-26.2648 Y18.9469 Z-0.05 I-2.3483 J-2.597
G1 X-26.1643 Y18.8116 Z-0.05
G1 X-23.3846 Y19.8627 Z-0.05
G1 X-20.6049 Y20.9139 Z-0.05
G1 X-20.6213 Y21.0594 Z-0.05
G3 X-20.8331 Y22.5751 Z-0.05 I-28.2641 J-3.1766
G3 X-21.3899 Y25.6541 Z-0.05 I-117.074 J-19.583
G3 X-22.0982 Y28.6158 Z-0.05 I-35.0498 J-6.8158
G3 X-22.5691 Y29.7961 Z-0.05 I-5.9845 J-1.7039
G3 X-23.0413 Y30.448 Z-0.05 I-2.4715 J-1.2933
G3 X-23.8314 Y31.0933 Z-0.05 I-3.2059 J-3.1191
G3 X-26.9296 Y32.2031 Z-0.05 I-3.953 J-6.1558
G3 X-33.8203 Y32.2684 Z-0.05 I-3.7475 J-31.8515
G3 X-35.0799 Y32.1208 Z-0.05 I3.3401 J-33.9478
G3 X-37.1065 Y31.8214 Z-0.05 I12.1 J-88.9146
G2 X-39.7171 Y31.5077 Z-0.05 I-5.3733 J33.701
G2 X-41.5788 Y31.4579 Z-0.05 I-1.3895 J17.107
G2 X-43.7524 Y31.6311 Z-0.05 I0.5784 J20.9843
G2 X-45.5199 Y31.9788 Z-0.05 I1.8821 J14.2334
G2 X-47.1572 Y32.5525 Z-0.05 I2.7596 J10.4985
G2 X-48.0573 Y33.103 Z-0.05 I1.6255 J3.669
G2 X-48.5963 Y34.4521 Z-0.05 I0.9359 J1.1561
G2 X-47.7224 Y35.6625 Z-0.05 I1.5575 J-0.2038
G3 X-47.3404 Y35.8474 Z-0.05 I-312.5348 J646.1847
G3 X-47.2691 Y35.8822 Z-0.05 I-6.1815 J12.7614
G3 X-47.2196 Y35.9373 Z-0.05 I-0.0461 J0.0911
G3 X-46.2776 Y38.517 Z-0.05 I-128.6121 J48.427
G2 X-45.3432 Y41.0847 Z-0.05 I146.5242 J-51.863
G1 X-45.3128 Y41.0977 Z-0.05
G2 X-45.2756 Y41.068 Z-0.05 I-0.0413 J-0.0895
G2 X-43.735 Y39.0257 Z-0.05 I-212.6003 J-161.9863
G3 X-42.1975 Y36.9764 Z-0.05 I478.3318 J357.2677
G3 X-42.1364 Y36.9048 Z-0.05 I0.6231 J0.4696
G3 X-42.0604 Y36.8709 Z-0.05 I0.0797 J0.0767
G3 X-41.7996 Y36.8934 Z-0.05 I0.0369 J1.0935
G1 X-41.5283 Y36.9501 Z-0.05
G1 X-40.624 Y39.5135 Z-0.05
G2 X-39.7149 Y42.0752 Z-0.05 I657.7633 J-231.9915
G2 X-39.6843 Y42.1452 Z-0.05 I0.5233 J-0.1869
G1 X-39.6436 Y42.149 Z-0.05
G2 X-38.0408 Y40.0605 Z-0.05 I-79.3322 J-62.5407
G3 X-36.417 Y37.9402 Z-0.05 I89.2849 J66.6971
G3 X-36.3525 Y37.9098 Z-0.05 I0.0627 J0.0492
G3 X-35.581 Y37.9969 Z-0.05 I0 J3.4597
G3 X-35.3642 Y38.1167 Z-0.05 I-0.0999 J0.4369
G3 X-35.3499 Y38.1402 Z-0.05 I-0.0503 J0.0467
G3 X-34.4859 Y40.5613 Z-0.05 I-518.8723 J186.5216
G2 X-33.6251 Y42.9862 Z-0.05 I1583.5951 J-560.8199
G2 X-33.5707 Y43.1335 Z-0.05 I6.2988 J-2.2415
G1 X-33.4961 Y43.1459 Z-0.05
G2 X-31.9945 Y41.2382 Z-0.05 I-34.7318 J-28.884
G3 X-30.4723 Y39.1985 Z-0.05 I982.6513 J731.7156
G3 X-30.4385 Y39.1577 Z-0.05 I0.4267 J0.3191
G3 X-30.3951 Y39.1403 Z-0.05 I0.0387 J0.0337
G3 X-30.1059 Y39.1863 Z-0.05 I-0.2056 J2.2242
G1 X-29.809 Y39.2536 Z-0.05
G1 X-28.8964 Y41.8398 Z-0.05
G2 X-27.9746 Y44.4133 Z-0.05 I275.7274 J-97.3107
G1 X-27.9561 Y44.4264 Z-0.05
G1 X-27.934 Y44.4158 Z-0.05
G2 X-26.8519 Y42.9869 Z-0.05 I-114.3411 J-87.7144
G3 X-25.7717 Y41.5535 Z-0.05 I187.3419 J140.0475
G1 X-25.7576 Y41.5465 Z-0.05
G1 X-25.7489 Y41.5591 Z-0.05
G3 X-26.8127 Y44.2755 Z-0.05 I-312.9387 J-120.9842
G3 X-27.8206 Y46.6741 Z-0.05 I-59.8161 J-23.7243
G3 X-27.9014 Y46.7266 Z-0.05 I-0.0808 J-0.0359
G3 X-27.9905 Y46.6781 Z-0.05 I0 J-0.1061
G3 X-29.5423 Y44.1895 Z-0.05 I74.5369 J-48.2046
G2 X-31.0735 Y41.6634 Z-0.05 I-315.2817 J189.3891
G1 X-31.0955 Y41.6498 Z-0.05
G1 X-31.1152 Y41.6631 Z-0.05
G2 X-32.1998 Y44.3642 Z-0.05 I276.4738 J112.5775
G3 X-33.283 Y47.0755 Z-0.05 I-436.9684 J-173.0131
G3 X-33.3081 Y47.1131 Z-0.05 I-0.1033 J-0.0416
G1 X-33.3361 Y47.1094 Z-0.05
G3 X-34.8823 Y44.579 Z-0.05 I162.8164 J-101.2301
G2 X-36.4256 Y42.0241 Z-0.05 I-511.4821 J307.2077
G1 X-36.4354 Y42.0226 Z-0.05
G1 X-36.444 Y42.035 Z-0.05
G2 X-37.4374 Y44.5303 Z-0.05 I963.5807 J385.022
G3 X-38.4322 Y47.0255 Z-0.05 I-699.5413 J-277.4738
G3 X-38.4648 Y47.0935 Z-0.05 I-0.5362 J-0.2149
G1 X-38.5029 Y47.0946 Z-0.05
G3 X-40.0105 Y44.656 Z-0.05 I106.093 J-67.2746
G2 X-41.5212 Y42.1683 Z-0.05 I-367.4656 J221.4342
G1 X-41.5337 Y42.1667 Z-0.05
G2 X-41.5449 Y42.1843 Z-0.05 I0.0408 J0.0384
G2 X-42.591 Y44.8078 Z-0.05 I907.4251 J363.3586
G3 X-43.6416 Y47.4293 Z-0.05 I-407.5627 J-161.8047
G3 X-43.6677 Y47.4698 Z-0.05 I-0.1191 J-0.0482
G1 X-43.6974 Y47.4668 Z-0.05
G3 X-45.2682 Y44.9049 Z-0.05 I163.7327 J-102.1536
G2 X-46.841 Y42.3163 Z-0.05 I-356.5389 J214.8497
G1 X-46.8602 Y42.306 Z-0.05
G1 X-46.8775 Y42.3177 Z-0.05
G2 X-47.8962 Y44.8678 Z-0.05 I314.7977 J127.2349
G3 X-48.9111 Y47.4264 Z-0.05 I-805.9595 J-318.194
G3 X-48.9953 Y47.6258 Z-0.05 I-4.9517 J-1.9731
G1 X-49.0835 Y47.8234 Z-0.05
G1 X-49.5758 Y47.8064 Z-0.05
G1 X-50.0681 Y47.7894 Z-0.05
G1 X-50.2324 Y48.1727 Z-0.05
G2 X-50.4852 Y49.017 Z-0.05 I3.5619 J1.5267
G2 X-50.53 Y49.8365 Z-0.05 I3.3078 J0.5918
G2 X-48.8761 Y54.1974 Z-0.05 I8.0112 J-0.5442
G2 X-44.4679 Y57.6931 Z-0.05 I9.2496 J-7.1368
G2 X-41.8658 Y58.7851 Z-0.05 I19.526 J-42.8816
G2 X-38.3004 Y60.0669 Z-0.05 I30.5531 J-79.3871
G2 X-34.8329 Y61.1228 Z-0.05 I21.1795 J-63.3294
G2 X-33.125 Y61.4903 Z-0.05 I4.1024 J-14.9126
G3 X-32.9199 Y61.5406 Z-0.05 I-0.2305 J1.3815
G3 X-32.8788 Y61.5729 Z-0.05 I-0.0237 J0.0724
G3 X-32.8563 Y61.6272 Z-0.05 I-0.1837 J0.108
G3 X-32.7554 Y62.0483 Z-0.05 I-10.4863 J2.736
G2 X-32.2734 Y63.4216 Z-0.05 I5.8226 J-1.2723
G2 X-31.5961 Y64.3887 Z-0.05 I3.5166 J-1.7421
G2 X-30.763 Y64.9992 Z-0.05 I2.1336 J-2.0376
G2 X-29.8656 Y65.2382 Z-0.05 I1.0501 J-2.1381
G1 X-29.4732 Y65.2637 Z-0.05
G1 X-29.8495 Y65.4274 Z-0.05
G2 X-31.5786 Y66.3092 Z-0.05 I6.262 J14.4139
G2 X-31.6984 Y66.519 Z-0.05 I0.1239 J0.2098
G2 X-31.6865 Y66.5618 Z-0.05 I0.0832 J0
G2 X-31.4124 Y66.9952 Z-0.05 I9.2867 J-5.5701
G1 X-31.1265 Y67.4249 Z-0.05
G1 X-30.9955 Y67.3386 Z-0.05
G3 X-28.4239 Y66.3503 Z-0.05 I3.5437 J5.3813
G3 X-26.446 Y66.6444 Z-0.05 I0.512 J3.3547
G3 X-25.7029 Y67.0276 Z-0.05 I-6.1186 J12.7781
G3 X-24.0524 Y67.9696 Z-0.05 I-35.3197 J63.801
G2 X-23.1558 Y68.4821 Z-0.05 I21.3443 J-36.296
G1 X-23.1352 Y68.4789 Z-0.05
G2 X-22.688 Y67.8848 Z-0.05 I-2.3344 J-2.2228
G2 X-22.6013 Y67.5673 Z-0.05 I-0.5454 J-0.3194
G1 X-22.6144 Y67.5438 Z-0.05
G2 X-23.5819 Y66.9609 Z-0.05 I-22.6559 J36.5084
G3 X-24.55 Y66.386 Z-0.05 I42.3389 J-72.4066
G1 X-24.5514 Y66.376 Z-0.05
G1 X-24.5387 Y66.3725 Z-0.05
G3 X-24.3671 Y66.414 Z-0.05 I-0.5051 J2.4631
G2 X-24.1913 Y66.4469 Z-0.05 I0.2458 J-0.8272
G2 X-23.7819 Y66.4635 Z-0.05 I0.4093 J-5.0293
G2 X-22.8183 Y66.2675 Z-0.05 I-0 J-2.4675
G2 X-21.8769 Y65.6553 Z-0.05 I-1.2564 J-2.9615
G2 X-20.6975 Y63.9026 Z-0.05 I-3.2128 J-3.4352
G2 X-20.1663 Y61.1902 Z-0.05 I-7.5216 J-2.8813
G1 X-20.1541 Y60.6087 Z-0.05
G1 X-19.7537 Y60.3989 Z-0.05
G2 X-19.3586 Y60.18 Z-0.05 I-4.3607 J-8.3344
G2 X-18.4417 Y59.63 Z-0.05 I-26.4325 J-45.1061
G2 X-12.8406 Y55.2987 Z-0.05 I-17.1989 J-28.0279
G2 X-10.1803 Y51.6812 Z-0.05 I-9.1702 J-9.5308
G2 X-9.4535 Y49.8707 Z-0.05 I-10.6863 J-5.3412
G2 X-8.6011 Y46.5766 Z-0.05 I-34.7182 J-10.7405
G3 X-7.0742 Y40.9285 Z-0.05 I49.679 J10.4004
G3 X-5.4097 Y37.001 Z-0.05 I25.5937 J8.5301
G3 X-1.0279 Y30.9538 Z-0.05 I22.6069 J11.7698
G3 X9.4111 Y21.8407 Z-0.05 I62.7493 J61.3442
G3 X14.0356 Y18.6245 Z-0.05 I54.2799 J73.1131
G3 X16.6689 Y17.1192 Z-0.05 I14.4029 J22.1398
G3 X20.7188 Y15.5085 Z-0.05 I11.667 J23.4389
G3 X24.6936 Y14.6792 Z-0.05 I6.6089 J21.7339
G3 X26.4298 Y14.5753 Z-0.05 I1.7896 J15.3599
G3 X31.2991 Y14.6565 Z-0.05 I0.4179 J121.0021
G2 X33.9013 Y14.6649 Z-0.05 I1.426 J-38.5977
G2 X35.3928 Y14.532 Z-0.05 I-0.3902 J-12.8072
G2 X40.489 Y12.7746 Z-0.05 I-2.1579 J-14.5256
G2 X45.9703 Y8.5226 Z-0.05 I-12.0143 J-21.1467
G2 X48.8617 Y4.9551 Z-0.05 I-19.0536 J-18.3978
G2 X49.4481 Y3.3764 Z-0.05 I-2.9513 J-1.9945
G2 X49.4408 Y3.1049 Z-0.05 I-0.9424 J-0.1107
G2 X49.3685 Y2.9141 Z-0.05 I-0.5273 J0.0907
G2 X49.2385 Y2.7506 Z-0.05 I-0.748 J0.4616
G2 X49.0967 Y2.6452 Z-0.05 I-0.4451 J0.4503
G2 X48.6615 Y2.5394 Z-0.05 I-0.415 J0.7596
G2 X47.7324 Y2.6772 Z-0.05 I0.0889 J3.8031
G2 X46.9192 Y2.9446 Z-0.05 I2.4665 J8.8684
G2 X45.1974 Y3.6439 Z-0.05 I15.3998 J40.3857
G3 X39.7057 Y5.7067 Z-0.05 I-24.2361 J-56.1826
G3 X37.9197 Y5.9857 Z-0.05 I-1.778 J-5.5249
G3 X36.9306 Y5.8546 Z-0.05 I0 J-3.7949
G3 X35.6821 Y5.3827 Z-0.05 I1.7845 J-6.6099
G3 X33.0356 Y3.6249 Z-0.05 I5.5376 J-11.2085
G3 X27.6636 Y-1.5611 Z-0.05 I45.2056 J-52.2015
G2 X25.6737 Y-3.6068 Z-0.05 I-46.0761 J42.8268
G2 X24.2094 Y-4.9549 Z-0.05 I-21.4836 J21.8668
G2 X21.9946 Y-6.7009 Z-0.05 I-20.9316 J24.275
G2 X19.9306 Y-8.0325 Z-0.05 I-14.1848 J19.7205
G3 X19.2983 Y-8.4069 Z-0.05 I14.6417 J-25.4477
G3 X19.2708 Y-8.4342 Z-0.05 I0.0434 J-0.0713
G3 X19.2584 Y-8.473 Z-0.05 I0.0812 J-0.0474
G3 X18.7177 Y-14.4023 Z-0.05 I1960.4339 J-181.7528
G2 X18.1833 Y-20.3359 Z-0.05 I-7343.4721 J658.4442
G2 X18.1541 Y-20.6316 Z-0.05 I-18.1789 J1.6448
G1 X18.1225 Y-20.9271 Z-0.05
G1 X17.6736 Y-20.8918 Z-0.05
G3 X17.2484 Y-20.8954 Z-0.05 I-0.1921 J-2.4173
G3 X17.194 Y-20.9365 Z-0.05 I0.0063 J-0.0649
G2 X17.1478 Y-20.976 Z-0.05 I-0.0596 J0.0229
G2 X17.0642 Y-20.9648 Z-0.05 I-0.0263 J0.1215
G3 X16.7778 Y-20.968 Z-0.05 I-0.1403 J-0.2621
G3 X15.455 Y-21.8735 Z-0.05 I4.5764 J-8.1041
G3 X14.2751 Y-22.9661 Z-0.05 I8.4163 J-10.2726
G3 X13.8788 Y-23.5212 Z-0.05 I1.7266 J-1.6517
G3 X13.5114 Y-24.5529 Z-0.05 I3.6178 J-1.8696
G3 X13.297 Y-26.2882 Z-0.05 I10.1633 J-2.1368
G1 X13.2662 Y-27.084 Z-0.05
G1 X12.718 Y-27.084 Z-0.05
G1 X12.1699 Y-27.084 Z-0.05
G1 X12.1705 Y-26.6418 Z-0.05
G1 X12.1703 Y-26.6406 Z-0.05
G0 Z0.1
(Block-name: path3018)
(Block-expand: 0)
(Block-enable: 1)

(End cutting path id: path3018)


(Start cutting path id: path3018)
(Change tool to Cylindrical cutter)

G0 Z0.1
G0 X10.5021 Y-9.7982

G1 Z-0.05 F10000.0
G3 X12.6255 Y-9.5615 Z-0.05 I-1.7042 J24.928 F5000
G3 X14.1096 Y-9.2391 Z-0.05 I-1.9363 J12.4907
G1 X14.3057 Y-9.1839 Z-0.05
G1 X14.2717 Y-8.7963 Z-0.05
G3 X11.8309 Y-1.6714 Z-0.05 I-15.6171 J-1.3694
G3 X4.7357 Y5.9957 Z-0.05 I-25.3481 J-16.3412
G3 X-3.3311 Y10.6221 Z-0.05 I-21.8179 J-28.6963
G3 X-12.645 Y13.168 Z-0.05 I-14.8243 J-35.9235
G3 X-17.8108 Y13.6636 Z-0.05 I-7.898 J-55.1522
G3 X-18.0527 Y13.4333 Z-0.05 I-0.0113 J-0.2303
G3 X-18.0171 Y13.1568 Z-0.05 I1.0912 J0
G3 X-17.3952 Y10.9219 Z-0.05 I73.2232 J19.1723
G3 X-13.296 Y2.1033 Z-0.05 I31.5565 J9.3065
G3 X-7.785 Y-3.6363 Z-0.05 I18.3808 J12.1335
G3 X-4.8246 Y-5.5327 Z-0.05 I18.8955 J26.2378
G3 X-1.1219 Y-7.4105 Z-0.05 I22.2582 J39.2979
G3 X5.1421 Y-9.4375 Z-0.05 I12.2762 J27.2448
G3 X10.5021 Y-9.7982 Z-0.05 I4.0038 J19.4933
G1 X10.5021 Y-9.7982 Z-0.05
G0 Z0.1
(Block-name: path3018)
(Block-expand: 0)
(Block-enable: 1)

(End cutting path id: path3018)


(Start cutting path id: path3018)
(Change tool to Cylindrical cutter)

G0 Z0.1
G0 X16.1878 Y-8.5857

G1 Z-0.05 F10000.0
G3 X17.9218 Y-7.881 Z-0.05 I-11.9155 J31.8052 F5000
G3 X18.1588 Y-7.7208 Z-0.05 I-0.3199 J0.7289
G3 X18.1882 Y-7.6597 Z-0.05 I-0.0752 J0.0739
G3 X18.3428 Y-6.2051 Z-0.05 I-48.0553 J5.8428
G2 X18.4842 Y-4.7432 Z-0.05 I130.3583 J-11.8706
G1 X18.4945 Y-4.7245 Z-0.05
G2 X18.9964 Y-4.5784 Z-0.05 I0.4417 J-0.582
G2 X19.5459 Y-4.8273 Z-0.05 I-0.0741 J-0.8947
G1 X19.5575 Y-4.8582 Z-0.05
G2 X19.4134 Y-6.7068 Z-0.05 I-125.6323 J8.8669
G1 X19.3818 Y-7.0768 Z-0.05
G1 X19.8569 Y-6.7889 Z-0.05
G3 X22.9426 Y-4.5576 Z-0.05 I-12.0897 J19.9694
G3 X26.8538 Y-0.803 Z-0.05 I-30.775 J35.972
G2 X32.2126 Y4.3867 Z-0.05 I51.6615 J-47.9838
G2 X34.9759 Y6.2694 Z-0.05 I9.2983 J-10.6781
G2 X37.2732 Y7.0015 Z-0.05 I3.2639 J-6.2719
G2 X39.5799 Y6.905 Z-0.05 I0.8866 J-6.4243
G2 X41.1397 Y6.4513 Z-0.05 I-2.8593 J-12.7382
G2 X44.5657 Y5.1113 Z-0.05 I-22.6199 J-62.8809
G3 X48.0724 Y3.7161 Z-0.05 I34.0029 J80.3608
G3 X48.154 Y3.7728 Z-0.05 I0.0211 J0.0567
G3 X48.114 Y3.9219 Z-0.05 I-0.2981 J0
G3 X47.4831 Y4.9332 Z-0.05 I-15.2957 J-8.8398
G3 X43.4501 Y9.3959 Z-0.05 I-17.4662 J-11.7308
G3 X38.3746 Y12.4891 Z-0.05 I-13.1174 J-15.8128
G3 X35.4338 Y13.3154 Z-0.05 I-4.6743 J-10.9904
G3 X31.1648 Y13.5468 Z-0.05 I-3.3954 J-23.1447
G2 X29.2266 Y13.4918 Z-0.05 I-3.9999 J106.8062
G2 X27.4137 Y13.4743 Z-0.05 I-1.8129 J93.9614
G1 X25.6006 Y13.4743 Z-0.05
G1 X22.666 Y9.0913 Z-0.05
G2 X19.7298 Y4.7265 Z-0.05 I-978.4472 J655.0337
G1 X19.7148 Y4.7251 Z-0.05
G1 X19.7066 Y4.7442 Z-0.05
G2 X19.8001 Y9.2595 Z-0.05 I1198.5034 J-22.5637
G3 X19.8978 Y13.7772 Z-0.05 I-2328.0029 J52.6057
G3 X19.9018 Y14.1818 Z-0.05 I-18.667 J0.3856
G1 X19.9013 Y14.586 Z-0.05
G1 X19.4595 Y14.7324 Z-0.05
G2 X18.3931 Y15.1197 Z-0.05 I6.4464 J19.4137
G2 X17.1697 Y15.6372 Z-0.05 I10.1121 J25.6091
G1 X16.8883 Y15.7643 Z-0.05
G1 X13.5065 Y11.9787 Z-0.05
G2 X10.1146 Y8.2156 Z-0.05 I-421.7866 J376.7756
G2 X10.0636 Y8.1931 Z-0.05 I-0.051 J0.0464
G2 X10.0099 Y8.2068 Z-0.05 I-0 J0.112
G2 X9.9719 Y8.2426 Z-0.05 I0.0495 J0.0906
G2 X9.9641 Y8.2972 Z-0.05 I0.0615 J0.0366
G2 X11.2312 Y13.0819 Z-0.05 I572.9763 J-149.1766
G3 X12.5143 Y17.8733 Z-0.05 I-1693.3289 J456.0154
G3 X12.5469 Y18.0232 Z-0.05 I-1.6099 J0.4287
G3 X12.5016 Y18.1452 Z-0.05 I-0.1284 J0.0218
G3 X10.9687 Y19.3316 Z-0.05 I-18.4537 J-22.2598
G3 X9.3619 Y20.4817 Z-0.05 I-154.3788 J-213.9885
G3 X9.3315 Y20.494 Z-0.05 I-0.0412 J-0.0581
G1 X9.3033 Y20.4844 Z-0.05
G3 X5.7511 Y16.7246 Z-0.05 I705.7246 J-670.315
G2 X2.1946 Y12.9914 Z-0.05 I-276.5697 J259.9218
G2 X2.1329 Y12.9777 Z-0.05 I-0.0412 J0.0398
G2 X2.0813 Y13.018 Z-0.05 I0.0361 J0.0996
G2 X2.0618 Y13.0814 Z-0.05 I0.0937 J0.0634
G2 X2.0738 Y13.1561 Z-0.05 I0.2406 J0
G2 X3.7549 Y18.259 Z-0.05 I1152.339 J-376.8146
G3 X5.4374 Y23.3617 Z-0.05 I-1304.9869 J433.0989
G3 X5.4455 Y23.4204 Z-0.05 I-0.1581 J0.0518
G3 X5.4215 Y23.4698 Z-0.05 I-0.0688 J-0.0029
G3 X4.5508 Y24.1882 Z-0.05 I-18.7906 J-21.8872
G2 X3.6648 Y24.9034 Z-0.05 I41.7889 J52.6772
G2 X2.7766 Y25.6456 Z-0.05 I43.0173 J52.3791
G1 X1.8946 Y26.3955 Z-0.05
G1 X0.879 Y25.39 Z-0.05
G2 X-0.493 Y24.0402 Z-0.05 I-210.3393 J212.4405
G2 X-5.0512 Y19.5935 Z-0.05 I-2298.1366 J2351.1777
G2 X-5.2409 Y19.707 Z-0.05 I-0.0798 J0.0819
G2 X-3.6245 Y24.5659 Z-0.05 I58.9929 J-16.9269
G1 X-1.639 Y29.7953 Z-0.05
G1 X-1.8228 Y30.0059 Z-0.05
G2 X-2.7996 Y31.1313 Z-0.05 I201.2903 J175.6981
G2 X-3.0834 Y31.4667 Z-0.05 I16.9826 J14.6574
G3 X-3.1801 Y31.5589 Z-0.05 I-0.4423 J-0.3672
G1 X-3.1924 Y31.5488 Z-0.05
G2 X-3.16 Y31.4341 Z-0.05 I-0.3005 J-0.1467
G2 X-3.1769 Y31.3883 Z-0.05 I-0.056 J-0.0054
G2 X-3.2253 Y31.3557 Z-0.05 I-0.1161 J0.1201
G2 X-7.5406 Y29.4527 Z-0.05 I-435.5707 J981.8924
G2 X-11.8524 Y27.6114 Z-0.05 I-98.813 J225.4188
G2 X-11.9325 Y27.6265 Z-0.05 I-0.0286 J0.0687
G2 X-11.9385 Y27.6989 Z-0.05 I0.0379 J0.0396
G2 X-8.9435 Y31.623 Z-0.05 I202.4279 J-151.3984
G1 X-5.8837 Y35.5518 Z-0.05
G1 X-6.0575 Y35.859 Z-0.05
G2 X-7.4736 Y38.7899 Z-0.05 I21.7022 J12.2928
G2 X-8.7753 Y42.5705 Z-0.05 I34.8645 J14.1186
G2 X-9.1766 Y44.0994 Z-0.05 I34.896 J9.9766
G2 X-9.7379 Y46.5927 Z-0.05 I92.3632 J22.1053
G3 X-10.4672 Y49.4252 Z-0.05 I-32.5581 J-6.8719
G3 X-11.078 Y50.9876 Z-0.05 I-10.4636 J-3.1903
G3 X-12.917 Y53.7449 Z-0.05 I-10.7896 J-5.2042
G3 X-16.3092 Y56.8687 Z-0.05 I-17.3262 J-15.4116
G3 X-19.977 Y59.4084 Z-0.05 I-34.4122 J-45.7801
G3 X-20.2529 Y59.3781 Z-0.05 I-0.1191 J-0.1871
G3 X-20.2679 Y59.3535 Z-0.05 I0.0379 J-0.0399
G3 X-20.4042 Y58.8575 Z-0.05 I17.4217 J-5.0548
G2 X-21.0123 Y57.3066 Z-0.05 I-6.7656 J1.758
G2 X-21.8164 Y56.2295 Z-0.05 I-4.01 J2.1549
G2 X-24.3344 Y55.5908 Z-0.05 I-1.8005 J1.8155
G2 X-26.7662 Y57.6767 Z-0.05 I1.0914 J3.7329
G1 X-26.9804 Y58.135 Z-0.05
G1 X-27.0897 Y57.8494 Z-0.05
G2 X-28.0592 Y56.364 Z-0.05 I-3.9223 J1.5011
G2 X-29.2649 Y55.6986 Z-0.05 I-1.7799 J1.8002
G2 X-29.9332 Y55.6471 Z-0.05 I-0.503 J2.1648
G2 X-30.5925 Y55.798 Z-0.05 I0.1678 J2.2493
G2 X-31.9044 Y56.8683 Z-0.05 I1.0199 J2.5893
G2 X-32.8301 Y59.2329 Z-0.05 I5.2455 J3.4171
G2 X-32.8944 Y59.7106 Z-0.05 I6.7477 J1.1514
G2 X-32.9114 Y60.0541 Z-0.05 I3.4738 J0.3435
G3 X-32.9411 Y60.3693 Z-0.05 I-1.6869 J-0
G1 X-32.9769 Y60.399 Z-0.05
G3 X-33.4824 Y60.3344 Z-0.05 I0 J-2.01
G3 X-36.4519 Y59.4961 Z-0.05 I18.5607 J-71.4353
G3 X-42.0553 Y57.5737 Z-0.05 I25.0653 J-82.1836
G3 X-44.5876 Y56.3877 Z-0.05 I6.8429 J-17.9081
G3 X-47.295 Y54.2233 Z-0.05 I5.2159 J-9.2999
G3 X-49.006 Y51.4816 Z-0.05 I6.8881 J-6.2033
G3 X-49.4073 Y50.0485 Z-0.05 I6.3123 J-2.5403
G3 X-49.3888 Y49.1607 Z-0.05 I2.3901 J-0.3942
G1 X-49.327 Y48.8643 Z-0.05
G1 X-49.0665 Y48.8898 Z-0.05
G2 X-47.6522 Y48.9504 Z-0.05 I1.2481 J-12.5951
G2 X-40.5175 Y48.7777 Z-0.05 I-4.2347 J-322.394
G2 X-23.4078 Y47.2576 Z-0.05 I-5.7073 J-161.2857
G2 X-18.4571 Y45.6271 Z-0.05 I-2.1009 J-14.7106
G2 X-16.9372 Y44.3616 Z-0.05 I-2.3631 J-4.3834
G2 X-16.5256 Y43.2219 Z-0.05 I-1.4581 J-1.1708
G2 X-16.6366 Y42.7226 Z-0.05 I-1.0964 J-0.0183
G2 X-17.0184 Y42.2121 Z-0.05 I-1.5326 J0.748
G2 X-17.5554 Y41.8128 Z-0.05 I-2.2352 J2.4458
G2 X-18.5904 Y41.2736 Z-0.05 I-5.1757 J8.6711
G2 X-24.2951 Y39.3532 Z-0.05 I-12.6637 J28.1856
G2 X-44.1927 Y35.3559 Z-0.05 I-79.0677 J342.063
G3 X-46.4245 Y34.9482 Z-0.05 I16.9278 J-98.9574
G3 X-46.825 Y34.8441 Z-0.05 I0.6355 J-3.2685
G3 X-47.499 Y34.5313 Z-0.05 I0.9757 J-2.9849
G3 X-47.6575 Y34.3306 Z-0.05 I0.1961 J-0.3177
G3 X-47.6061 Y34.1549 Z-0.05 I0.1532 J-0.0505
G3 X-46.8022 Y33.635 Z-0.05 I2.7798 J3.4166
G3 X-44.7934 Y32.941 Z-0.05 I3.6026 J7.1735
G3 X-41.5536 Y32.5717 Z-0.05 I3.7525 J18.5238
G3 X-39.7629 Y32.6226 Z-0.05 I0.4375 J16.1299
G3 X-37.0458 Y32.951 Z-0.05 I-3.1589 J37.5341
G2 X-35.0346 Y33.2435 Z-0.05 I13.1971 J-83.6786
G2 X-33.7958 Y33.3839 Z-0.05 I4.1951 J-31.4923
G2 X-27.3669 Y33.3709 Z-0.05 I3.1463 J-33.6909
G2 X-23.9388 Y32.423 Z-0.05 I-1.0046 J-10.3064
G2 X-22.4341 Y31.4082 Z-0.05 I-2.5846 J-5.4554
G2 X-21.527 Y30.2021 Z-0.05 I-2.8281 J-3.071
G2 X-21.2076 Y29.4309 Z-0.05 I-5.3239 J-2.657
G2 X-20.7316 Y27.8215 Z-0.05 I-22.7633 J-7.6069
G2 X-20.3609 Y26.1697 Z-0.05 I-25.7377 J-6.6441
G2 X-19.7711 Y22.7982 Z-0.05 I-106.7182 J-20.4059
G3 X-18.9632 Y17.7986 Z-0.05 I900.2929 J142.9199
G3 X-18.9421 Y17.7576 Z-0.05 I0.0745 J0.0122
G1 X-18.9223 Y17.7569 Z-0.05
G3 X-16.7066 Y19.8189 Z-0.05 I-237.7489 J257.6913
G1 X-14.4903 Y21.8991 Z-0.05
G1 X-14.1251 Y21.5022 Z-0.05
G2 X-13.7767 Y21.1017 Z-0.05 I-7.0641 J-6.4993
G1 X-13.7711 Y21.0719 Z-0.05
G2 X-13.7903 Y21.0409 Z-0.05 I-0.0683 J0.021
G2 X-16.2458 Y18.7298 Z-0.05 I-522.9609 J553.1585
G3 X-18.6586 Y16.4053 Z-0.05 I82.6638 J-88.2187
G3 X-18.6867 Y16.3121 Z-0.05 I0.0717 J-0.0724
G2 X-18.6642 Y16.2029 Z-0.05 I-23.5172 J-4.899
G2 X-18.5025 Y15.407 Z-0.05 I-1269.1349 J-258.2388
G1 X-18.3411 Y14.611 Z-0.05
G1 X-17.1482 Y14.611 Z-0.05
G2 X-6.7926 Y13.0599 Z-0.05 I-0.0147 J-35.4441
G2 X3.3002 Y8.3544 Z-0.05 I-11.7293 J-38.3349
G2 X10.8081 Y1.743 Z-0.05 I-18.6702 J-28.7703
G2 X14.5945 Y-4.9886 Z-0.05 I-15.6023 J-13.2068
G2 X15.0915 Y-6.7836 Z-0.05 I-16.9287 J-5.6533
G2 X15.3294 Y-8.3077 Z-0.05 I-11.9518 J-2.6463
G3 X15.4132 Y-8.7999 Z-0.05 I3.239 J0.2983
G3 X15.4623 Y-8.8382 Z-0.05 I0.0491 J0.0123
G3 X15.5119 Y-8.8298 Z-0.05 I0 J0.1506
G3 X16.1877 Y-8.5854 Z-0.05 I-10.2077 J29.2825
G1 X16.1878 Y-8.5857 Z-0.05
G0 Z0.1
(Block-name: path3018)
(Block-expand: 0)
(Block-enable: 1)

(End cutting path id: path3018)


(Start cutting path id: path3018)
(Change tool to Cylindrical cutter)

G0 Z0.1
G0 X22.6776 Y9.4834

G1 Z-0.05 F10000.0
G1 X25.353 Y13.4743 Z-0.05 F5000
G1 X22.7443 Y13.991 Z-0.05
G3 X20.1382 Y14.5006 Z-0.05 I-113.6176 J-574.1001
G1 X20.1266 Y14.4963 Z-0.05
G1 X20.122 Y14.4843 Z-0.05
G3 X20.0349 Y10.2903 Z-0.05 I2033.8439 J-44.2912
G2 X19.945 Y6.0958 Z-0.05 I-1210.3616 J23.8597
G2 X19.9296 Y5.7465 Z-0.05 I-8.4053 J0.1948
G3 X19.9322 Y5.4535 Z-0.05 I1.9836 J-0.1288
G1 X19.9546 Y5.4453 Z-0.05
G3 X19.997 Y5.496 Z-0.05 I-0.2243 J0.2305
G3 X22.6776 Y9.4834 Z-0.05 I-1555.4747 J1048.5878
G1 X22.6776 Y9.4834 Z-0.05
G0 Z0.1
(Block-name: path3018)
(Block-expand: 0)
(Block-enable: 1)

(End cutting path id: path3018)


(Start cutting path id: path3018)
(Change tool to Cylindrical cutter)

G0 Z0.1
G0 X13.5597 Y12.3351

G1 Z-0.05 F10000.0
G3 X16.6365 Y15.7858 Z-0.05 I-1090.9594 J975.8363 F5000
G3 X16.6563 Y15.8187 Z-0.05 I-0.0779 J0.0693
G1 X16.6424 Y15.8566 Z-0.05
G3 X14.7349 Y16.9184 Z-0.05 I-87.9127 J-155.6934
G3 X12.8134 Y17.9574 Z-0.05 I-86.3102 J-157.311
G1 X12.7681 Y17.9518 Z-0.05
G3 X12.3377 Y17.2322 Z-0.05 I1.0682 J-1.1274
G3 X10.2638 Y8.7236 Z-0.05 I159.1081 J-43.2881
G1 X10.284 Y8.7055 Z-0.05
G3 X10.3594 Y8.7553 Z-0.05 I-0.0546 J0.1649
G2 X10.4772 Y8.8878 Z-0.05 I23.4773 J-20.7514
G2 X13.5597 Y12.3351 Z-0.05 I19227.4779 J-17189.7258
G1 X13.5597 Y12.3351 Z-0.05
G0 Z0.1
(Block-name: path3018)
(Block-expand: 0)
(Block-enable: 1)

(End cutting path id: path3018)


(Start cutting path id: path3018)
(Change tool to Cylindrical cutter)

G0 Z0.1
G0 X5.9804 Y17.2582

G1 Z-0.05 F10000.0
G3 X9.0469 Y20.5442 Z-0.05 I-469.258 J440.9871 F5000
G3 X9.0715 Y20.594 Z-0.05 I-0.0715 J0.0663
G3 X8.6582 Y21.7624 Z-0.05 I-1.2478 J0.2159
G3 X5.7488 Y23.4966 Z-0.05 I-6.1694 J-7.0425
G1 X5.7202 Y23.4829 Z-0.05
G3 X4.0545 Y18.5189 Z-0.05 I568.1065 J-193.3877
G2 X2.3999 Y13.526 Z-0.05 I-3753.8673 J1241.2923
G2 X2.3791 Y13.4743 Z-0.05 I-0.4323 J0.1436
G1 X2.3928 Y13.4649 Z-0.05
G3 X5.9804 Y17.2582 Z-0.05 I-602.0669 J573.0036
G1 X5.9804 Y17.2582 Z-0.05
G0 Z0.1
(Block-name: path3018)
(Block-expand: 0)
(Block-enable: 1)

(End cutting path id: path3018)


(Start cutting path id: path3018)
(Change tool to Cylindrical cutter)

G0 Z0.1
G0 X0.0404 Y24.8436

G1 Z-0.05 F10000.0
G3 X1.5592 Y26.3578 Z-0.05 I-70.7694 J72.5055 F5000
G3 X1.5819 Y26.4131 Z-0.05 I-0.0563 J0.0553
G3 X1.5615 Y26.4677 Z-0.05 I-0.0833 J-0
G3 X0.0962 Y28.1428 Z-0.05 I-181.1163 J-156.9588
G3 X-1.3833 Y29.8025 Z-0.05 I-177.3203 J-156.5759
G1 X-1.4116 Y29.8032 Z-0.05
G3 X-1.4338 Y29.7689 Z-0.05 I0.0694 J-0.0692
G3 X-3.3248 Y24.7856 Z-0.05 I3083.2819 J-1172.8294
G3 X-5.2071 Y19.8007 Z-0.05 I3085.4909 J-1167.9665
G3 X-5.2157 Y19.7537 Z-0.05 I0.1246 J-0.0469
G1 X-5.1974 Y19.7459 Z-0.05
G3 X-3.3584 Y21.5211 Z-0.05 I-129.6586 J136.1542
G2 X-1.5006 Y23.3381 Z-0.05 I3408.5726 J-3483.2735
G2 X0.0404 Y24.8436 Z-0.05 I2627.2088 J-2687.63
G1 X0.0404 Y24.8436 Z-0.05
G0 Z0.1
(Block-name: path3018)
(Block-expand: 0)
(Block-enable: 1)

(End cutting path id: path3018)


(Start cutting path id: path3018)
(Change tool to Cylindrical cutter)

G0 Z0.1
G0 X-7.4647 Y29.6959

G1 Z-0.05 F10000.0
G3 X-3.477 Y31.4546 Z-0.05 I-450.7472 J1027.4257 F5000
G3 X-3.4361 Y31.4823 Z-0.05 I-0.0567 J0.128
G3 X-3.3119 Y32.3459 Z-0.05 I-0.5015 J0.5129
G3 X-5.6536 Y35.4363 Z-0.05 I-12.3448 J-6.9215
G1 X-5.7054 Y35.4332 Z-0.05
G3 X-11.253 Y28.3379 Z-0.05 I818.2851 J-645.5048
G3 X-11.5441 Y27.9301 Z-0.05 I5.0653 J-3.9233
G1 X-11.531 Y27.9141 Z-0.05
G3 X-11.4576 Y27.9456 Z-0.05 I-1.953 J4.6577
G3 X-7.4647 Y29.6959 Z-0.05 I-3049.3297 J6961.4691
G1 X-7.4647 Y29.6959 Z-0.05
G0 Z0.1
(Block-name: path3018)
(Block-expand: 0)
(Block-enable: 1)

(End cutting path id: path3018)


(Start cutting path id: path3018)
(Change tool to Cylindrical cutter)

G0 Z0.1
G0 X-21.5195 Y41.3729

G1 Z-0.05 F10000.0
G3 X-20.9601 Y41.555 Z-0.05 I-12.3579 J38.9095 F5000
G3 X-20.6707 Y41.656 Z-0.05 I-3.5062 J10.5119
G1 X-20.3827 Y41.7608 Z-0.05
G1 X-20.9152 Y42.4671 Z-0.05
G3 X-21.4494 Y43.1483 Z-0.05 I-18.1757 J-13.7046
G1 X-21.4717 Y43.1494 Z-0.05
G3 X-22.4284 Y41.6071 Z-0.05 I2.8292 J-2.8228
G3 X-22.1322 Y41.1943 Z-0.05 I0.2962 J-0.1002
G3 X-22.0813 Y41.2016 Z-0.05 I-0 J0.1818
G3 X-21.5195 Y41.3729 Z-0.05 I-6.6673 J22.8669
G1 X-21.5195 Y41.3729 Z-0.05
G0 Z0.1
(Block-name: path3018)
(Block-expand: 0)
(Block-enable: 1)

(End cutting path id: path3018)


(Start cutting path id: path3018)
(Change tool to Cylindrical cutter)

G0 Z0.1
G0 X-24.1698 Y40.6106

G1 Z-0.05 F10000.0
G3 X-23.5534 Y40.797 Z-0.05 I-4.1787 J14.9296 F5000
G3 X-23.5084 Y40.8254 Z-0.05 I-0.0333 J0.1024
G3 X-23.4799 Y40.8722 Z-0.05 I-0.1024 J0.0944
G3 X-22.6768 Y43.1149 Z-0.05 I-243.1236 J88.3303
G2 X-21.8772 Y45.3612 Z-0.05 I416.4123 J-146.9608
G2 X-21.8435 Y45.436 Z-0.05 I0.486 J-0.1745
G1 X-21.799 Y45.4399 Z-0.05
G2 X-20.6031 Y43.8945 Z-0.05 I-40.1012 J-32.2685
G3 X-19.3993 Y42.2836 Z-0.05 I389.2957 J289.6578
G3 X-19.3447 Y42.2177 Z-0.05 I0.7201 J0.5405
G3 X-19.0154 Y42.1564 Z-0.05 I0.2052 J0.1872
G3 X-17.8336 Y42.9727 Z-0.05 I-2.2754 J4.5578
G1 X-17.5976 Y43.1907 Z-0.05
G1 X-17.6568 Y43.4181 Z-0.05
G3 X-17.7533 Y43.6239 Z-0.05 I-0.6017 J-0.1566
G3 X-18.0739 Y43.9993 Z-0.05 I-2.3791 J-1.7071
G3 X-18.9089 Y44.6025 Z-0.05 I-2.3606 J-2.388
G3 X-20.7818 Y45.3805 Z-0.05 I-5.9199 J-11.6082
G3 X-22.5416 Y45.8899 Z-0.05 I-8.4416 J-25.8655
G3 X-22.6575 Y45.8558 Z-0.05 I-0.0291 J-0.1149
G3 X-22.6876 Y45.8165 Z-0.05 I0.1653 J-0.158
G3 X-24.0902 Y43.4979 Z-0.05 I648.5162 J-393.8645
G1 X-25.4884 Y41.1773 Z-0.05
G1 X-25.3747 Y41.0216 Z-0.05
G3 X-25.2611 Y40.8658 Z-0.05 I402.4771 J293.3375
G2 X-25.1062 Y40.653 Z-0.05 I-118.3918 J-86.3575
G3 X-24.9384 Y40.4649 Z-0.05 I1.0312 J0.7512
G3 X-24.8723 Y40.4384 Z-0.05 I0.0681 J0.0741
G3 X-24.7945 Y40.4477 Z-0.05 I0 J0.3301
G3 X-24.1698 Y40.6106 Z-0.05 I-4.4301 J18.2767
G1 X-24.1698 Y40.6106 Z-0.05
G0 Z0.1
(Block-name: path3018)
(Block-expand: 0)
(Block-enable: 1)

(End cutting path id: path3018)


(Start cutting path id: path3018)
(Change tool to Cylindrical cutter)

G0 Z0.1
G0 X-26.1812 Y40.0826

G1 Z-0.05 F10000.0
G1 X-26.1528 Y40.0959 Z-0.05 F5000
G3 X-26.139 Y40.1341 Z-0.05 I-0.046 J0.0382
G3 X-26.5281 Y41.3095 Z-0.05 I-1.9699 J-0
G3 X-27.595 Y42.0909 Z-0.05 I-1.7996 J-1.3382
G3 X-27.7843 Y41.9968 Z-0.05 I-0.045 J-0.1471
G3 X-28.504 Y39.6044 Z-0.05 I19.6924 J-7.2282
G1 X-28.4806 Y39.5798 Z-0.05
G3 X-27.3712 Y39.8119 Z-0.05 I-3.945 J21.6199
G2 X-26.2229 Y40.0779 Z-0.05 I33.3719 J-141.4683
G2 X-26.1812 Y40.0826 Z-0.05 I0.0417 J-0.1833
G1 X-26.1812 Y40.0826 Z-0.05
G0 Z0.1
(Block-name: path3018)
(Block-expand: 0)
(Block-enable: 1)

(End cutting path id: path3018)


(Start cutting path id: path3018)
(Change tool to Cylindrical cutter)

G0 Z0.1
G0 X-24.5717 Y44.8404

G1 Z-0.05 F10000.0
G3 X-23.8424 Y46.0617 Z-0.05 I-268.9094 J161.4065 F5000
G3 X-23.8246 Y46.0979 Z-0.05 I-0.2181 J0.1295
G3 X-24.4537 Y47.234 Z-0.05 I-0.7798 J0.3105
G3 X-26.5226 Y46.5891 Z-0.05 I-0.4191 J-2.2963
G1 X-26.5279 Y46.5632 Z-0.05
G3 X-25.9486 Y45.0961 Z-0.05 I159.7754 J62.2447
G3 X-25.3558 Y43.6345 Z-0.05 I159.1445 J63.6911
G1 X-25.3345 Y43.6202 Z-0.05
G1 X-25.3112 Y43.6331 Z-0.05
G3 X-24.5717 Y44.8404 Z-0.05 I-65.2507 J40.7995
G1 X-24.5717 Y44.8404 Z-0.05
G0 Z0.1
(Block-name: path3018)
(Block-expand: 0)
(Block-enable: 1)

(End cutting path id: path3018)


(Start cutting path id: path3018)
(Change tool to Cylindrical cutter)

G0 Z0.1
G0 X-30.0274 Y45.5444

G1 Z-0.05 F10000.0
G3 X-29.2709 Y46.8622 Z-0.05 I-28.3021 J17.1242 F5000
G1 X-29.2851 Y46.909 Z-0.05
G3 X-29.3776 Y46.9373 Z-0.05 I-0.1213 J-0.2306
G3 X-31.0413 Y47.1046 Z-0.05 I-8.7168 J-78.3526
G3 X-32.0738 Y47.1867 Z-0.05 I-4.6966 J-52.5192
G1 X-32.098 Y47.1782 Z-0.05
G1 X-32.1031 Y47.1544 Z-0.05
G3 X-31.5168 Y45.6446 Z-0.05 I96.4107 J36.5703
G3 X-30.9053 Y44.1776 Z-0.05 I44.6867 J17.764
G1 X-30.874 Y44.1717 Z-0.05
G3 X-30.8382 Y44.2169 Z-0.05 I-0.1774 J0.1767
G3 X-30.0274 Y45.5444 Z-0.05 I-154.0468 J95.0038
G1 X-30.0274 Y45.5444 Z-0.05
G0 Z0.1
(Block-name: path3018)
(Block-expand: 0)
(Block-enable: 1)

(End cutting path id: path3018)


(Start cutting path id: path3018)
(Change tool to Cylindrical cutter)

G0 Z0.1
G0 X-35.3627 Y45.9277

G1 Z-0.05 F10000.0
G3 X-34.5674 Y47.3146 Z-0.05 I-33.9788 J20.4056 F5000
G1 X-34.5794 Y47.3602 Z-0.05
G3 X-34.6406 Y47.3806 Z-0.05 I-0.0708 J-0.1105
G3 X-35.8582 Y47.4556 Z-0.05 I-3.7626 J-51.156
G2 X-37.0807 Y47.5184 Z-0.05 I17.9507 J361.3251
G2 X-37.2451 Y47.5292 Z-0.05 I0.3469 J6.5366
G3 X-37.3931 Y47.5249 Z-0.05 I-0.0504 J-0.8023
G1 X-37.4093 Y47.5066 Z-0.05
G3 X-37.4029 Y47.4718 Z-0.05 I0.0968 J-0
G3 X-36.8733 Y46.1143 Z-0.05 I158.1873 J60.9227
G2 X-36.3377 Y44.7578 Z-0.05 I-2164.8221 J-855.5146
G2 X-36.2934 Y44.6441 Z-0.05 I-16.2938 J-6.4273
G3 X-36.2428 Y44.54 Z-0.05 I0.6484 J0.2506
G1 X-36.2258 Y44.5303 Z-0.05
G1 X-36.2079 Y44.5403 Z-0.05
G3 X-35.3627 Y45.9283 Z-0.05 I-111.7932 J69.0268
G1 X-35.3627 Y45.9277 Z-0.05
G0 Z0.1
(Block-name: path3018)
(Block-expand: 0)
(Block-enable: 1)

(End cutting path id: path3018)


(Start cutting path id: path3018)
(Change tool to Cylindrical cutter)

G0 Z0.1
G0 X-40.4145 Y46.1327

G1 Z-0.05 F10000.0
G3 X-39.5867 Y47.5749 Z-0.05 I-36.3356 J21.8121 F5000
G1 X-39.5997 Y47.6195 Z-0.05
G3 X-39.662 Y47.6365 Z-0.05 I-0.0691 J-0.1312
G3 X-41.1068 Y47.6878 Z-0.05 I-3.1376 J-68.0064
G1 X-42.5552 Y47.7243 Z-0.05
G1 X-41.9439 Y46.1786 Z-0.05
G3 X-41.3272 Y44.6586 Z-0.05 I86.4316 J34.1837
G1 X-41.3102 Y44.6552 Z-0.05
G3 X-41.2911 Y44.6785 Z-0.05 I-0.0723 J0.0786
G3 X-40.4145 Y46.1327 Z-0.05 I-372.5351 J225.5784
G1 X-40.4145 Y46.1327 Z-0.05
G0 Z0.1
(Block-name: path3018)
(Block-expand: 0)
(Block-enable: 1)

(End cutting path id: path3018)


(Start cutting path id: path3018)
(Change tool to Cylindrical cutter)

G0 Z0.1
G0 X-45.7301 Y46.2861

G1 Z-0.05 F10000.0
G1 X-44.8427 Y47.7645 Z-0.05 F5000
G1 X-45.8388 Y47.7645 Z-0.05
G2 X-46.8345 Y47.7752 Z-0.05 I0.025 J48.6118
G2 X-47.3277 Y47.7976 Z-0.05 I0.2123 J10.1101
G3 X-47.7886 Y47.7971 Z-0.05 I-0.2269 J-3.4922
G1 X-47.8204 Y47.7631 Z-0.05
G3 X-47.8087 Y47.6984 Z-0.05 I0.184 J-0
G3 X-47.31 Y46.4036 Z-0.05 I76.6073 J28.766
G3 X-46.6559 Y44.7909 Z-0.05 I88.4602 J34.9397
G1 X-46.6371 Y44.7874 Z-0.05
G3 X-46.6199 Y44.8098 Z-0.05 I-0.0945 J0.09
G3 X-45.7301 Y46.2861 Z-0.05 I-404.7239 J244.9518
G1 X-45.7301 Y46.2861 Z-0.05
G0 Z0.1
(Block-name: path3018)
(Block-expand: 0)
(Block-enable: 1)

(End cutting path id: path3018)


(Start cutting path id: path3018)
(Change tool to Cylindrical cutter)

G0 Z0.1
G0 X-46.4837 Y51.164

G1 Z-0.05 F10000.0
G2 X-46.8346 Y51.3783 Z-0.05 I0.4692 J1.1625 F5000
G2 X-47.1001 Y51.697 Z-0.05 I0.8351 J0.9654
G2 X-47.197 Y51.9453 Z-0.05 I0.7242 J0.4257
G2 X-47.2385 Y52.338 Z-0.05 I1.8027 J0.3894
G2 X-47.1917 Y52.7282 Z-0.05 I1.6709 J-0.0026
G2 X-47.0863 Y52.9679 Z-0.05 I0.7226 J-0.1748
G2 X-46.269 Y53.4938 Z-0.05 I1.0185 J-0.6847
G2 X-45.4259 Y53.2436 Z-0.05 I0.1646 J-0.9907
G2 X-45.0619 Y51.9281 Z-0.05 I-0.869 J-0.9486
G2 X-46.0568 Y51.1232 Z-0.05 I-1.084 J0.3226
G2 X-46.3258 Y51.1254 Z-0.05 I-0.1209 J1.6246
G2 X-46.4837 Y51.164 Z-0.05 I0.05 J0.548
G1 X-46.4837 Y51.164 Z-0.05
G0 Z0.1
(Block-name: path3018)
(Block-expand: 0)
(Block-enable: 1)

(End cutting path id: path3018)


(Start cutting path id: path3018)
(Change tool to Cylindrical cutter)

G0 Z0.1
G0 X-44.4975 Y36.4246

G1 Z-0.05 F10000.0
G3 X-43.3924 Y36.6341 Z-0.05 I-5.4943 J32.0085 F5000
G1 X-43.373 Y36.6579 Z-0.05
G3 X-44.015 Y38.5609 Z-0.05 I-3.1411 J0
G3 X-44.981 Y38.7758 Z-0.05 I-0.6103 J-0.4647
G3 X-45.573 Y38.085 Z-0.05 I0.62 J-1.1304
G3 X-45.8999 Y36.2251 Z-0.05 I5.1273 J-1.86
G1 X-45.8803 Y36.2024 Z-0.05
G3 X-45.761 Y36.2052 Z-0.05 I0.0513 J0.3497
G2 X-45.6218 Y36.2303 Z-0.05 I2.3844 J-12.8652
G2 X-44.4975 Y36.4249 Z-0.05 I97.3314 J-558.7893
G1 X-44.4975 Y36.4246 Z-0.05
G0 Z0.1
(Block-name: path3018)
(Block-expand: 0)
(Block-enable: 1)

(End cutting path id: path3018)


(Start cutting path id: path3018)
(Change tool to Cylindrical cutter)

G0 Z0.1
G0 X-38.9106 Y37.424

G1 Z-0.05 F10000.0
G3 X-37.7131 Y37.6541 Z-0.05 I-12.7329 J69.5055 F5000
G3 X-37.6812 Y37.6711 Z-0.05 I-0.0124 J0.0615
G1 X-37.6785 Y37.6989 Z-0.05
G3 X-38.474 Y38.7905 Z-0.05 I-39.2713 J-27.7819
G3 X-39.2949 Y39.8661 Z-0.05 I-66.4351 J-49.8547
G1 X-39.3095 Y39.8671 Z-0.05
G3 X-39.968 Y38.8128 Z-0.05 I2.0744 J-2.0284
G3 X-40.2395 Y37.2425 Z-0.05 I4.4055 J-1.5703
G1 X-40.2095 Y37.2163 Z-0.05
G3 X-38.9106 Y37.424 Z-0.05 I-3.9018 J28.5658
G1 X-38.9106 Y37.424 Z-0.05
G0 Z0.1
(Block-name: path3018)
(Block-expand: 0)
(Block-enable: 1)

(End cutting path id: path3018)


(Start cutting path id: path3018)
(Change tool to Cylindrical cutter)

G0 Z0.1
G0 X-32.785 Y38.6184

G1 Z-0.05 F10000.0
G3 X-31.7306 Y38.8444 Z-0.05 I-7.8818 J39.3497 F5000
G3 X-31.6803 Y38.8709 Z-0.05 I-0.0245 J0.1073
G1 X-31.6754 Y38.9153 Z-0.05
G3 X-32.3952 Y39.93 Z-0.05 I-22.7235 J-15.3572
G3 X-33.1516 Y40.9047 Z-0.05 I-24.4241 J-18.1727
G1 X-33.1821 Y40.9027 Z-0.05
G3 X-33.8963 Y39.4142 Z-0.05 I6.5088 J-4.0385
G3 X-34.0737 Y38.3786 Z-0.05 I2.9334 J-1.0356
G1 X-34.0623 Y38.3672 Z-0.05
G3 X-33.96 Y38.3786 Z-0.05 I0 J0.4629
G2 X-33.846 Y38.4031 Z-0.05 I1.1864 J-5.2375
G2 X-32.785 Y38.6172 Z-0.05 I56.3698 J-276.588
G1 X-32.785 Y38.6184 Z-0.05
G0 Z0.1
(Block-name: path3018)
(Block-expand: 0)
(Block-enable: 1)

(End cutting path id: path3018)


(Start cutting path id: path3018)
(Change tool to Cylindrical cutter)

G0 Z0.1
G0 X-29.2321 Y56.8908

G1 Z-0.05 F10000.0
G3 X-28.9891 Y57.047 Z-0.05 I-0.5938 J1.1911 F5000
G3 X-28.6954 Y57.3248 Z-0.05 I-1.6372 J2.0247
G3 X-27.5784 Y60.0289 Z-0.05 I-3.2177 J2.912
G3 X-28.4137 Y63.1985 Z-0.05 I-5.4409 J0.2609
G3 X-29.605 Y64.002 Z-0.05 I-1.5097 J-0.9534
G3 X-30.7842 Y63.6283 Z-0.05 I-0.236 J-1.3022
G3 X-31.2564 Y62.972 Z-0.05 I1.881 J-1.8516
G3 X-31.6446 Y61.9345 Z-0.05 I4.4204 J-2.2453
G3 X-31.8348 Y60.4078 Z-0.05 I6.1241 J-1.538
G3 X-31.6499 Y59.0092 Z-0.05 I5.3089 J-0.0095
G1 X-31.554 Y58.6553 Z-0.05
G1 X-31.5883 Y58.9585 Z-0.05
G2 X-31.6097 Y59.2624 Z-0.05 I3.5922 J0.4061
G2 X-31.6176 Y59.9947 Z-0.05 I20.8558 J0.5903
G2 X-31.3873 Y61.533 Z-0.05 I5.5031 J-0.0375
G2 X-30.9425 Y62.2538 Z-0.05 I1.5639 J-0.4674
G2 X-30.2867 Y62.508 Z-0.05 I0.6412 J-0.681
G2 X-29.6378 Y62.234 Z-0.05 I-0.0147 J-0.9401
G2 X-29.2297 Y61.5496 Z-0.05 I-1.1501 J-1.1495
G2 X-28.985 Y60.0465 Z-0.05 I-5.6881 J-1.6978
G2 X-28.9959 Y59.2665 Z-0.05 I-8.3266 J-0.2733
G2 X-29.0634 Y58.7604 Z-0.05 I-3.5616 J0.2171
G2 X-29.5443 Y57.6065 Z-0.05 I-3.2269 J0.6679
G2 X-30.0889 Y57.2144 Z-0.05 I-0.7917 J0.5253
G2 X-30.4804 Y57.1955 Z-0.05 I-0.239 J0.8865
G2 X-30.776 Y57.329 Z-0.05 I0.1058 J0.6281
G3 X-30.8227 Y57.3456 Z-0.05 I-0.0465 J-0.057
G1 X-30.8392 Y57.329 Z-0.05
G3 X-30.7752 Y57.1973 Z-0.05 I0.1676 J0
G3 X-30.2449 Y56.8611 Z-0.05 I1.9178 J2.4386
G3 X-29.7714 Y56.7574 Z-0.05 I0.4419 J0.8851
G3 X-29.2321 Y56.8933 Z-0.05 I-0.0416 J1.3023
G1 X-29.2321 Y56.8908 Z-0.05
G0 Z0.1
(Block-name: path3018)
(Block-expand: 0)
(Block-enable: 1)

(End cutting path id: path3018)


(Start cutting path id: path3018)
(Change tool to Cylindrical cutter)

G0 Z0.1
G0 X-30.1782 Y58.8173

G1 Z-0.05 F10000.0
G3 X-30.0434 Y59.9888 Z-0.05 I-4.5612 J1.1185 F5000
G3 X-30.2026 Y60.9802 Z-0.05 I-3.4038 J-0.0385
G1 X-30.2989 Y61.2834 Z-0.05
G1 X-30.3958 Y60.9802 Z-0.05
G3 X-30.5501 Y60.1392 Z-0.05 I3.1968 J-1.0213
G3 X-30.4925 Y59.1836 Z-0.05 I4.201 J-0.2261
G3 X-30.3354 Y58.5177 Z-0.05 I5.8752 J1.0346
G1 X-30.2892 Y58.5002 Z-0.05
G3 X-30.2624 Y58.5345 Z-0.05 I-0.0374 J0.0569
G3 X-30.1782 Y58.8173 Z-0.05 I-2.8471 J1.0015
G1 X-30.1782 Y58.8173 Z-0.05
G0 Z0.1
(Block-name: path3018)
(Block-expand: 0)
(Block-enable: 1)

(End cutting path id: path3018)


(Start cutting path id: path3018)
(Change tool to Cylindrical cutter)

G0 Z0.1
G0 X-24.6807 Y58.7485

G1 Z-0.05 F10000.0
G3 X-24.5232 Y59.3647 Z-0.05 I-2.77 J1.0361 F5000
G3 X-24.4548 Y60.3231 Z-0.05 I-6.6815 J0.9584
G3 X-24.4756 Y60.9781 Z-0.05 I-10.3105 J0
G3 X-24.5172 Y61.3037 Z-0.05 I-2.5844 J-0.1645
G3 X-24.7346 Y62.1061 Z-0.05 I-5.4995 J-1.0598
G3 X-24.8218 Y62.1678 Z-0.05 I-0.0871 J-0.0307
G3 X-24.8953 Y62.1156 Z-0.05 I0 J-0.078
G3 X-25.1073 Y61.355 Z-0.05 I5.6485 J-1.9835
G3 X-25.2161 Y60.3581 Z-0.05 I5.0725 J-1.058
G3 X-25.1304 Y59.3883 Z-0.05 I4.8831 J-0.0575
G3 X-24.9061 Y58.5405 Z-0.05 I6.087 J1.1568
G3 X-24.8193 Y58.4784 Z-0.05 I0.0869 J0.0297
G1 X-24.7929 Y58.4945 Z-0.05
G3 X-24.6807 Y58.7485 Z-0.05 I-2.1453 J1.0998
G1 X-24.6807 Y58.7485 Z-0.05
G0 Z0.1
(Block-name: path3018)
(Block-expand: 0)
(Block-enable: 1)

(End cutting path id: path3018)


(Start cutting path id: path3018)
(Change tool to Cylindrical cutter)

G0 Z0.1
G0 X-23.3052 Y56.5332

G1 Z-0.05 F10000.0
G3 X-22.4339 Y57.153 Z-0.05 I-0.6051 J1.7728 F5000
G3 X-21.5884 Y58.7312 Z-0.05 I-4.1397 J3.2334
G3 X-21.2475 Y60.7779 Z-0.05 I-6.3582 J2.1109
G3 X-21.5479 Y62.9511 Z-0.05 I-7.4903 J0.0719
G3 X-22.0456 Y64.113 Z-0.05 I-5.0502 J-1.4757
G3 X-22.6585 Y64.868 Z-0.05 I-2.6948 J-1.5613
G3 X-23.1868 Y65.2102 Z-0.05 I-1.3404 J-1.4905
G3 X-23.7266 Y65.3413 Z-0.05 I-0.6328 J-1.4281
G3 X-24.1094 Y65.317 Z-0.05 I-0.0952 J-1.5267
G3 X-24.4434 Y65.2051 Z-0.05 I0.2479 J-1.2949
G3 X-25.6158 Y64.0135 Z-0.05 I1.12 J-2.2745
G3 X-26.3079 Y61.2582 Z-0.05 I6.6209 J-3.1275
G1 X-26.3349 Y60.7273 Z-0.05
G1 X-26.2631 Y61.2075 Z-0.05
G2 X-25.5846 Y62.9705 Z-0.05 I4.3024 J-0.6436
G2 X-24.8201 Y63.3806 Z-0.05 I0.7645 J-0.5077
G2 X-24.0055 Y62.9146 Z-0.05 I0 J-0.9449
G2 X-23.3611 Y60.8992 Z-0.05 I-4.1416 J-2.435
G2 X-23.6455 Y58.2379 Z-0.05 I-6.9181 J-0.6064
G2 X-24.4645 Y57.3369 Z-0.05 I-1.373 J0.4253
G2 X-24.8553 Y57.2535 Z-0.05 I-0.4172 J0.997
G2 X-25.1359 Y57.32 Z-0.05 I-0.0139 J0.5672
G1 X-25.1823 Y57.2859 Z-0.05
G3 X-25.0972 Y57.1139 Z-0.05 I0.349 J0.0657
G3 X-24.6825 Y56.7449 Z-0.05 I1.8963 J1.7135
G3 X-24.2811 Y56.5332 Z-0.05 I0.9905 J1.3922
G3 X-23.8099 Y56.4494 Z-0.05 I0.4713 J1.2825
G3 X-23.3052 Y56.5329 Z-0.05 I0.0001 J1.5654
G1 X-23.3052 Y56.5332 Z-0.05
G0 Z0.1
(Block-name: path3018)
(Block-expand: 0)
(Block-enable: 1)

(End cutting path id: path3018)


(Start cutting path id: path3018)
(Change tool to Cylindrical cutter)

G0 Z0.1
G0 X-26.696 Y64.2904

G1 Z-0.05 F10000.0
G2 X-26.3022 Y64.9513 Z-0.05 I5.0027 J-2.5334 F5000
G2 X-25.8598 Y65.497 Z-0.05 I3.848 J-2.6669
G1 X-25.5224 Y65.8549 Z-0.05
G1 X-26.0532 Y65.6046 Z-0.05
G2 X-27.1845 Y65.2011 Z-0.05 I-2.6141 J5.5409
G2 X-28.1656 Y65.0777 Z-0.05 I-1.0044 J4.0267
G1 X-28.8529 Y65.0749 Z-0.05
G1 X-28.6157 Y64.9393 Z-0.05
G2 X-28.389 Y64.7896 Z-0.05 I-1.0346 J-1.8127
G2 X-28.0922 Y64.5421 Z-0.05 I-2.5315 J-3.3377
G2 X-27.5256 Y63.9066 Z-0.05 I-2.8019 J-3.0684
G2 X-27.1989 Y63.3053 Z-0.05 I-2.1765 J-1.5719
G1 X-27.1431 Y63.2971 Z-0.05
G3 X-27.0013 Y63.5586 Z-0.05 I-0.7119 J0.5552
G2 X-26.8498 Y63.9579 Z-0.05 I6.3315 J-2.1754
G2 X-26.696 Y64.2916 Z-0.05 I4.5782 J-1.9073
G1 X-26.696 Y64.2904 Z-0.05
G0 Z0.1
(Block-name: path3018)
(Block-expand: 0)
(Block-enable: 1)

(End cutting path id: path3018)


(Start cutting path id: path3018)
(Change tool to Cylindrical cutter)

G0 Z0.1
G0 X-29.7041 Y16.8457

G1 Z-0.05 F10000.0
G2 X-29.9043 Y17.3114 Z-0.05 I6079.8067 J2615.1958 F5000
G3 X-29.9191 Y17.3454 Z-0.05 I-4.6236 J-1.9884
G2 X-29.7733 Y17.7102 Z-0.05 I0.2519 J0.1108
G2 X-29.16 Y17.6619 Z-0.05 I0.2596 J-0.6217
G2 X-28.6451 Y17.1904 Z-0.05 I-0.9955 J-1.604
G2 X-28.5144 Y16.7982 Z-0.05 I-0.5231 J-0.3922
G2 X-28.6798 Y16.5465 Z-0.05 I-0.2741 J0
G2 X-29.485 Y16.38 Z-0.05 I-0.8052 J1.864
G1 X-29.4983 Y16.3885 Z-0.05
G2 X-29.7041 Y16.8457 Z-0.05 I13.3644 J6.2878
G1 X-29.7041 Y16.8457 Z-0.05
G0 Z0.1
(Block-name: block)
(Block-expand: 0)
(Block-enable: 1)

(End cutting path id: path3018)


(Footer)
M5
G0 X-60.5388 Y-37.084
M2
(Using default footer. To add your own footer create file "footer" in the output dir.)
(end)

